(G-CODE GENERATED BY FLATCAM v2024.4 - www.flatcam.org - Version Date: 2024/04/15)

(Name: Alignment Drills_mill_cnc)
(Type: G-code from Geometry)
(Units: MM)

(Created on Sunday, 05 October 2025 at 19:33)



G01 F100.00

M5
G00 Z15.0000
G00 X0.0000 Y0.0000
T1
M6    
(MSG, Change to Tool Dia = 2.0000)
M0
G00 Z15.0000

M03
G01 F100.00
G00 X10.5000 Y10.0000
G01 F30.00
G01 Z-1.0000
G01 F100.00
G01 X10.4976 Y9.9510
G01 X10.4904 Y9.9025
G01 X10.4785 Y9.8549
G01 X10.4619 Y9.8087
G01 X10.4410 Y9.7643
G01 X10.4157 Y9.7222
G01 X10.3865 Y9.6828
G01 X10.3536 Y9.6464
G01 X10.3172 Y9.6135
G01 X10.2778 Y9.5843
G01 X10.2357 Y9.5590
G01 X10.1913 Y9.5381
G01 X10.1451 Y9.5215
G01 X10.0975 Y9.5096
G01 X10.0490 Y9.5024
G01 X10.0000 Y9.5000
G01 X9.9510 Y9.5024
G01 X9.9025 Y9.5096
G01 X9.8549 Y9.5215
G01 X9.8087 Y9.5381
G01 X9.7643 Y9.5590
G01 X9.7222 Y9.5843
G01 X9.6828 Y9.6135
G01 X9.6464 Y9.6464
G01 X9.6135 Y9.6828
G01 X9.5843 Y9.7222
G01 X9.5590 Y9.7643
G01 X9.5381 Y9.8087
G01 X9.5215 Y9.8549
G01 X9.5096 Y9.9025
G01 X9.5024 Y9.9510
G01 X9.5000 Y10.0000
G01 X9.5024 Y10.0490
G01 X9.5096 Y10.0975
G01 X9.5215 Y10.1451
G01 X9.5381 Y10.1913
G01 X9.5590 Y10.2357
G01 X9.5843 Y10.2778
G01 X9.6135 Y10.3172
G01 X9.6464 Y10.3536
G01 X9.6828 Y10.3865
G01 X9.7222 Y10.4157
G01 X9.7643 Y10.4410
G01 X9.8087 Y10.4619
G01 X9.8549 Y10.4785
G01 X9.9025 Y10.4904
G01 X9.9510 Y10.4976
G01 X10.0000 Y10.5000
G01 X10.0490 Y10.4976
G01 X10.0975 Y10.4904
G01 X10.1451 Y10.4785
G01 X10.1913 Y10.4619
G01 X10.2357 Y10.4410
G01 X10.2778 Y10.4157
G01 X10.3172 Y10.3865
G01 X10.3536 Y10.3536
G01 X10.3865 Y10.3172
G01 X10.4157 Y10.2778
G01 X10.4410 Y10.2357
G01 X10.4619 Y10.1913
G01 X10.4785 Y10.1451
G01 X10.4904 Y10.0975
G01 X10.4976 Y10.0490
G01 X10.5000 Y10.0000
G00 X10.5000 Y10.0000
G01 F30.00
G01 Z-2.0000
G01 F100.00
G01 X10.4976 Y9.9510
G01 X10.4904 Y9.9025
G01 X10.4785 Y9.8549
G01 X10.4619 Y9.8087
G01 X10.4410 Y9.7643
G01 X10.4157 Y9.7222
G01 X10.3865 Y9.6828
G01 X10.3536 Y9.6464
G01 X10.3172 Y9.6135
G01 X10.2778 Y9.5843
G01 X10.2357 Y9.5590
G01 X10.1913 Y9.5381
G01 X10.1451 Y9.5215
G01 X10.0975 Y9.5096
G01 X10.0490 Y9.5024
G01 X10.0000 Y9.5000
G01 X9.9510 Y9.5024
G01 X9.9025 Y9.5096
G01 X9.8549 Y9.5215
G01 X9.8087 Y9.5381
G01 X9.7643 Y9.5590
G01 X9.7222 Y9.5843
G01 X9.6828 Y9.6135
G01 X9.6464 Y9.6464
G01 X9.6135 Y9.6828
G01 X9.5843 Y9.7222
G01 X9.5590 Y9.7643
G01 X9.5381 Y9.8087
G01 X9.5215 Y9.8549
G01 X9.5096 Y9.9025
G01 X9.5024 Y9.9510
G01 X9.5000 Y10.0000
G01 X9.5024 Y10.0490
G01 X9.5096 Y10.0975
G01 X9.5215 Y10.1451
G01 X9.5381 Y10.1913
G01 X9.5590 Y10.2357
G01 X9.5843 Y10.2778
G01 X9.6135 Y10.3172
G01 X9.6464 Y10.3536
G01 X9.6828 Y10.3865
G01 X9.7222 Y10.4157
G01 X9.7643 Y10.4410
G01 X9.8087 Y10.4619
G01 X9.8549 Y10.4785
G01 X9.9025 Y10.4904
G01 X9.9510 Y10.4976
G01 X10.0000 Y10.5000
G01 X10.0490 Y10.4976
G01 X10.0975 Y10.4904
G01 X10.1451 Y10.4785
G01 X10.1913 Y10.4619
G01 X10.2357 Y10.4410
G01 X10.2778 Y10.4157
G01 X10.3172 Y10.3865
G01 X10.3536 Y10.3536
G01 X10.3865 Y10.3172
G01 X10.4157 Y10.2778
G01 X10.4410 Y10.2357
G01 X10.4619 Y10.1913
G01 X10.4785 Y10.1451
G01 X10.4904 Y10.0975
G01 X10.4976 Y10.0490
G01 X10.5000 Y10.0000
G00 X10.5000 Y10.0000
G01 F30.00
G01 Z-3.0000
G01 F100.00
G01 X10.4976 Y9.9510
G01 X10.4904 Y9.9025
G01 X10.4785 Y9.8549
G01 X10.4619 Y9.8087
G01 X10.4410 Y9.7643
G01 X10.4157 Y9.7222
G01 X10.3865 Y9.6828
G01 X10.3536 Y9.6464
G01 X10.3172 Y9.6135
G01 X10.2778 Y9.5843
G01 X10.2357 Y9.5590
G01 X10.1913 Y9.5381
G01 X10.1451 Y9.5215
G01 X10.0975 Y9.5096
G01 X10.0490 Y9.5024
G01 X10.0000 Y9.5000
G01 X9.9510 Y9.5024
G01 X9.9025 Y9.5096
G01 X9.8549 Y9.5215
G01 X9.8087 Y9.5381
G01 X9.7643 Y9.5590
G01 X9.7222 Y9.5843
G01 X9.6828 Y9.6135
G01 X9.6464 Y9.6464
G01 X9.6135 Y9.6828
G01 X9.5843 Y9.7222
G01 X9.5590 Y9.7643
G01 X9.5381 Y9.8087
G01 X9.5215 Y9.8549
G01 X9.5096 Y9.9025
G01 X9.5024 Y9.9510
G01 X9.5000 Y10.0000
G01 X9.5024 Y10.0490
G01 X9.5096 Y10.0975
G01 X9.5215 Y10.1451
G01 X9.5381 Y10.1913
G01 X9.5590 Y10.2357
G01 X9.5843 Y10.2778
G01 X9.6135 Y10.3172
G01 X9.6464 Y10.3536
G01 X9.6828 Y10.3865
G01 X9.7222 Y10.4157
G01 X9.7643 Y10.4410
G01 X9.8087 Y10.4619
G01 X9.8549 Y10.4785
G01 X9.9025 Y10.4904
G01 X9.9510 Y10.4976
G01 X10.0000 Y10.5000
G01 X10.0490 Y10.4976
G01 X10.0975 Y10.4904
G01 X10.1451 Y10.4785
G01 X10.1913 Y10.4619
G01 X10.2357 Y10.4410
G01 X10.2778 Y10.4157
G01 X10.3172 Y10.3865
G01 X10.3536 Y10.3536
G01 X10.3865 Y10.3172
G01 X10.4157 Y10.2778
G01 X10.4410 Y10.2357
G01 X10.4619 Y10.1913
G01 X10.4785 Y10.1451
G01 X10.4904 Y10.0975
G01 X10.4976 Y10.0490
G01 X10.5000 Y10.0000
G00 X10.5000 Y10.0000
G01 F30.00
G01 Z-4.0000
G01 F100.00
G01 X10.4976 Y9.9510
G01 X10.4904 Y9.9025
G01 X10.4785 Y9.8549
G01 X10.4619 Y9.8087
G01 X10.4410 Y9.7643
G01 X10.4157 Y9.7222
G01 X10.3865 Y9.6828
G01 X10.3536 Y9.6464
G01 X10.3172 Y9.6135
G01 X10.2778 Y9.5843
G01 X10.2357 Y9.5590
G01 X10.1913 Y9.5381
G01 X10.1451 Y9.5215
G01 X10.0975 Y9.5096
G01 X10.0490 Y9.5024
G01 X10.0000 Y9.5000
G01 X9.9510 Y9.5024
G01 X9.9025 Y9.5096
G01 X9.8549 Y9.5215
G01 X9.8087 Y9.5381
G01 X9.7643 Y9.5590
G01 X9.7222 Y9.5843
G01 X9.6828 Y9.6135
G01 X9.6464 Y9.6464
G01 X9.6135 Y9.6828
G01 X9.5843 Y9.7222
G01 X9.5590 Y9.7643
G01 X9.5381 Y9.8087
G01 X9.5215 Y9.8549
G01 X9.5096 Y9.9025
G01 X9.5024 Y9.9510
G01 X9.5000 Y10.0000
G01 X9.5024 Y10.0490
G01 X9.5096 Y10.0975
G01 X9.5215 Y10.1451
G01 X9.5381 Y10.1913
G01 X9.5590 Y10.2357
G01 X9.5843 Y10.2778
G01 X9.6135 Y10.3172
G01 X9.6464 Y10.3536
G01 X9.6828 Y10.3865
G01 X9.7222 Y10.4157
G01 X9.7643 Y10.4410
G01 X9.8087 Y10.4619
G01 X9.8549 Y10.4785
G01 X9.9025 Y10.4904
G01 X9.9510 Y10.4976
G01 X10.0000 Y10.5000
G01 X10.0490 Y10.4976
G01 X10.0975 Y10.4904
G01 X10.1451 Y10.4785
G01 X10.1913 Y10.4619
G01 X10.2357 Y10.4410
G01 X10.2778 Y10.4157
G01 X10.3172 Y10.3865
G01 X10.3536 Y10.3536
G01 X10.3865 Y10.3172
G01 X10.4157 Y10.2778
G01 X10.4410 Y10.2357
G01 X10.4619 Y10.1913
G01 X10.4785 Y10.1451
G01 X10.4904 Y10.0975
G01 X10.4976 Y10.0490
G01 X10.5000 Y10.0000
G00 X10.5000 Y10.0000
G01 F30.00
G01 Z-5.0000
G01 F100.00
G01 X10.4976 Y9.9510
G01 X10.4904 Y9.9025
G01 X10.4785 Y9.8549
G01 X10.4619 Y9.8087
G01 X10.4410 Y9.7643
G01 X10.4157 Y9.7222
G01 X10.3865 Y9.6828
G01 X10.3536 Y9.6464
G01 X10.3172 Y9.6135
G01 X10.2778 Y9.5843
G01 X10.2357 Y9.5590
G01 X10.1913 Y9.5381
G01 X10.1451 Y9.5215
G01 X10.0975 Y9.5096
G01 X10.0490 Y9.5024
G01 X10.0000 Y9.5000
G01 X9.9510 Y9.5024
G01 X9.9025 Y9.5096
G01 X9.8549 Y9.5215
G01 X9.8087 Y9.5381
G01 X9.7643 Y9.5590
G01 X9.7222 Y9.5843
G01 X9.6828 Y9.6135
G01 X9.6464 Y9.6464
G01 X9.6135 Y9.6828
G01 X9.5843 Y9.7222
G01 X9.5590 Y9.7643
G01 X9.5381 Y9.8087
G01 X9.5215 Y9.8549
G01 X9.5096 Y9.9025
G01 X9.5024 Y9.9510
G01 X9.5000 Y10.0000
G01 X9.5024 Y10.0490
G01 X9.5096 Y10.0975
G01 X9.5215 Y10.1451
G01 X9.5381 Y10.1913
G01 X9.5590 Y10.2357
G01 X9.5843 Y10.2778
G01 X9.6135 Y10.3172
G01 X9.6464 Y10.3536
G01 X9.6828 Y10.3865
G01 X9.7222 Y10.4157
G01 X9.7643 Y10.4410
G01 X9.8087 Y10.4619
G01 X9.8549 Y10.4785
G01 X9.9025 Y10.4904
G01 X9.9510 Y10.4976
G01 X10.0000 Y10.5000
G01 X10.0490 Y10.4976
G01 X10.0975 Y10.4904
G01 X10.1451 Y10.4785
G01 X10.1913 Y10.4619
G01 X10.2357 Y10.4410
G01 X10.2778 Y10.4157
G01 X10.3172 Y10.3865
G01 X10.3536 Y10.3536
G01 X10.3865 Y10.3172
G01 X10.4157 Y10.2778
G01 X10.4410 Y10.2357
G01 X10.4619 Y10.1913
G01 X10.4785 Y10.1451
G01 X10.4904 Y10.0975
G01 X10.4976 Y10.0490
G01 X10.5000 Y10.0000
G00 X10.5000 Y10.0000
G01 F30.00
G01 Z-6.0000
G01 F100.00
G01 X10.4976 Y9.9510
G01 X10.4904 Y9.9025
G01 X10.4785 Y9.8549
G01 X10.4619 Y9.8087
G01 X10.4410 Y9.7643
G01 X10.4157 Y9.7222
G01 X10.3865 Y9.6828
G01 X10.3536 Y9.6464
G01 X10.3172 Y9.6135
G01 X10.2778 Y9.5843
G01 X10.2357 Y9.5590
G01 X10.1913 Y9.5381
G01 X10.1451 Y9.5215
G01 X10.0975 Y9.5096
G01 X10.0490 Y9.5024
G01 X10.0000 Y9.5000
G01 X9.9510 Y9.5024
G01 X9.9025 Y9.5096
G01 X9.8549 Y9.5215
G01 X9.8087 Y9.5381
G01 X9.7643 Y9.5590
G01 X9.7222 Y9.5843
G01 X9.6828 Y9.6135
G01 X9.6464 Y9.6464
G01 X9.6135 Y9.6828
G01 X9.5843 Y9.7222
G01 X9.5590 Y9.7643
G01 X9.5381 Y9.8087
G01 X9.5215 Y9.8549
G01 X9.5096 Y9.9025
G01 X9.5024 Y9.9510
G01 X9.5000 Y10.0000
G01 X9.5024 Y10.0490
G01 X9.5096 Y10.0975
G01 X9.5215 Y10.1451
G01 X9.5381 Y10.1913
G01 X9.5590 Y10.2357
G01 X9.5843 Y10.2778
G01 X9.6135 Y10.3172
G01 X9.6464 Y10.3536
G01 X9.6828 Y10.3865
G01 X9.7222 Y10.4157
G01 X9.7643 Y10.4410
G01 X9.8087 Y10.4619
G01 X9.8549 Y10.4785
G01 X9.9025 Y10.4904
G01 X9.9510 Y10.4976
G01 X10.0000 Y10.5000
G01 X10.0490 Y10.4976
G01 X10.0975 Y10.4904
G01 X10.1451 Y10.4785
G01 X10.1913 Y10.4619
G01 X10.2357 Y10.4410
G01 X10.2778 Y10.4157
G01 X10.3172 Y10.3865
G01 X10.3536 Y10.3536
G01 X10.3865 Y10.3172
G01 X10.4157 Y10.2778
G01 X10.4410 Y10.2357
G01 X10.4619 Y10.1913
G01 X10.4785 Y10.1451
G01 X10.4904 Y10.0975
G01 X10.4976 Y10.0490
G01 X10.5000 Y10.0000
G00 Z2.0000
G00 X140.5000 Y10.0000
G01 F30.00
G01 Z-1.0000
G01 F100.00
G01 X140.4976 Y9.9510
G01 X140.4904 Y9.9025
G01 X140.4785 Y9.8549
G01 X140.4619 Y9.8087
G01 X140.4410 Y9.7643
G01 X140.4157 Y9.7222
G01 X140.3865 Y9.6828
G01 X140.3536 Y9.6464
G01 X140.3172 Y9.6135
G01 X140.2778 Y9.5843
G01 X140.2357 Y9.5590
G01 X140.1913 Y9.5381
G01 X140.1451 Y9.5215
G01 X140.0975 Y9.5096
G01 X140.0490 Y9.5024
G01 X140.0000 Y9.5000
G01 X139.9510 Y9.5024
G01 X139.9025 Y9.5096
G01 X139.8549 Y9.5215
G01 X139.8087 Y9.5381
G01 X139.7643 Y9.5590
G01 X139.7222 Y9.5843
G01 X139.6828 Y9.6135
G01 X139.6464 Y9.6464
G01 X139.6135 Y9.6828
G01 X139.5843 Y9.7222
G01 X139.5590 Y9.7643
G01 X139.5381 Y9.8087
G01 X139.5215 Y9.8549
G01 X139.5096 Y9.9025
G01 X139.5024 Y9.9510
G01 X139.5000 Y10.0000
G01 X139.5024 Y10.0490
G01 X139.5096 Y10.0975
G01 X139.5215 Y10.1451
G01 X139.5381 Y10.1913
G01 X139.5590 Y10.2357
G01 X139.5843 Y10.2778
G01 X139.6135 Y10.3172
G01 X139.6464 Y10.3536
G01 X139.6828 Y10.3865
G01 X139.7222 Y10.4157
G01 X139.7643 Y10.4410
G01 X139.8087 Y10.4619
G01 X139.8549 Y10.4785
G01 X139.9025 Y10.4904
G01 X139.9510 Y10.4976
G01 X140.0000 Y10.5000
G01 X140.0490 Y10.4976
G01 X140.0975 Y10.4904
G01 X140.1451 Y10.4785
G01 X140.1913 Y10.4619
G01 X140.2357 Y10.4410
G01 X140.2778 Y10.4157
G01 X140.3172 Y10.3865
G01 X140.3536 Y10.3536
G01 X140.3865 Y10.3172
G01 X140.4157 Y10.2778
G01 X140.4410 Y10.2357
G01 X140.4619 Y10.1913
G01 X140.4785 Y10.1451
G01 X140.4904 Y10.0975
G01 X140.4976 Y10.0490
G01 X140.5000 Y10.0000
G00 X140.5000 Y10.0000
G01 F30.00
G01 Z-2.0000
G01 F100.00
G01 X140.4976 Y9.9510
G01 X140.4904 Y9.9025
G01 X140.4785 Y9.8549
G01 X140.4619 Y9.8087
G01 X140.4410 Y9.7643
G01 X140.4157 Y9.7222
G01 X140.3865 Y9.6828
G01 X140.3536 Y9.6464
G01 X140.3172 Y9.6135
G01 X140.2778 Y9.5843
G01 X140.2357 Y9.5590
G01 X140.1913 Y9.5381
G01 X140.1451 Y9.5215
G01 X140.0975 Y9.5096
G01 X140.0490 Y9.5024
G01 X140.0000 Y9.5000
G01 X139.9510 Y9.5024
G01 X139.9025 Y9.5096
G01 X139.8549 Y9.5215
G01 X139.8087 Y9.5381
G01 X139.7643 Y9.5590
G01 X139.7222 Y9.5843
G01 X139.6828 Y9.6135
G01 X139.6464 Y9.6464
G01 X139.6135 Y9.6828
G01 X139.5843 Y9.7222
G01 X139.5590 Y9.7643
G01 X139.5381 Y9.8087
G01 X139.5215 Y9.8549
G01 X139.5096 Y9.9025
G01 X139.5024 Y9.9510
G01 X139.5000 Y10.0000
G01 X139.5024 Y10.0490
G01 X139.5096 Y10.0975
G01 X139.5215 Y10.1451
G01 X139.5381 Y10.1913
G01 X139.5590 Y10.2357
G01 X139.5843 Y10.2778
G01 X139.6135 Y10.3172
G01 X139.6464 Y10.3536
G01 X139.6828 Y10.3865
G01 X139.7222 Y10.4157
G01 X139.7643 Y10.4410
G01 X139.8087 Y10.4619
G01 X139.8549 Y10.4785
G01 X139.9025 Y10.4904
G01 X139.9510 Y10.4976
G01 X140.0000 Y10.5000
G01 X140.0490 Y10.4976
G01 X140.0975 Y10.4904
G01 X140.1451 Y10.4785
G01 X140.1913 Y10.4619
G01 X140.2357 Y10.4410
G01 X140.2778 Y10.4157
G01 X140.3172 Y10.3865
G01 X140.3536 Y10.3536
G01 X140.3865 Y10.3172
G01 X140.4157 Y10.2778
G01 X140.4410 Y10.2357
G01 X140.4619 Y10.1913
G01 X140.4785 Y10.1451
G01 X140.4904 Y10.0975
G01 X140.4976 Y10.0490
G01 X140.5000 Y10.0000
G00 X140.5000 Y10.0000
G01 F30.00
G01 Z-3.0000
G01 F100.00
G01 X140.4976 Y9.9510
G01 X140.4904 Y9.9025
G01 X140.4785 Y9.8549
G01 X140.4619 Y9.8087
G01 X140.4410 Y9.7643
G01 X140.4157 Y9.7222
G01 X140.3865 Y9.6828
G01 X140.3536 Y9.6464
G01 X140.3172 Y9.6135
G01 X140.2778 Y9.5843
G01 X140.2357 Y9.5590
G01 X140.1913 Y9.5381
G01 X140.1451 Y9.5215
G01 X140.0975 Y9.5096
G01 X140.0490 Y9.5024
G01 X140.0000 Y9.5000
G01 X139.9510 Y9.5024
G01 X139.9025 Y9.5096
G01 X139.8549 Y9.5215
G01 X139.8087 Y9.5381
G01 X139.7643 Y9.5590
G01 X139.7222 Y9.5843
G01 X139.6828 Y9.6135
G01 X139.6464 Y9.6464
G01 X139.6135 Y9.6828
G01 X139.5843 Y9.7222
G01 X139.5590 Y9.7643
G01 X139.5381 Y9.8087
G01 X139.5215 Y9.8549
G01 X139.5096 Y9.9025
G01 X139.5024 Y9.9510
G01 X139.5000 Y10.0000
G01 X139.5024 Y10.0490
G01 X139.5096 Y10.0975
G01 X139.5215 Y10.1451
G01 X139.5381 Y10.1913
G01 X139.5590 Y10.2357
G01 X139.5843 Y10.2778
G01 X139.6135 Y10.3172
G01 X139.6464 Y10.3536
G01 X139.6828 Y10.3865
G01 X139.7222 Y10.4157
G01 X139.7643 Y10.4410
G01 X139.8087 Y10.4619
G01 X139.8549 Y10.4785
G01 X139.9025 Y10.4904
G01 X139.9510 Y10.4976
G01 X140.0000 Y10.5000
G01 X140.0490 Y10.4976
G01 X140.0975 Y10.4904
G01 X140.1451 Y10.4785
G01 X140.1913 Y10.4619
G01 X140.2357 Y10.4410
G01 X140.2778 Y10.4157
G01 X140.3172 Y10.3865
G01 X140.3536 Y10.3536
G01 X140.3865 Y10.3172
G01 X140.4157 Y10.2778
G01 X140.4410 Y10.2357
G01 X140.4619 Y10.1913
G01 X140.4785 Y10.1451
G01 X140.4904 Y10.0975
G01 X140.4976 Y10.0490
G01 X140.5000 Y10.0000
G00 X140.5000 Y10.0000
G01 F30.00
G01 Z-4.0000
G01 F100.00
G01 X140.4976 Y9.9510
G01 X140.4904 Y9.9025
G01 X140.4785 Y9.8549
G01 X140.4619 Y9.8087
G01 X140.4410 Y9.7643
G01 X140.4157 Y9.7222
G01 X140.3865 Y9.6828
G01 X140.3536 Y9.6464
G01 X140.3172 Y9.6135
G01 X140.2778 Y9.5843
G01 X140.2357 Y9.5590
G01 X140.1913 Y9.5381
G01 X140.1451 Y9.5215
G01 X140.0975 Y9.5096
G01 X140.0490 Y9.5024
G01 X140.0000 Y9.5000
G01 X139.9510 Y9.5024
G01 X139.9025 Y9.5096
G01 X139.8549 Y9.5215
G01 X139.8087 Y9.5381
G01 X139.7643 Y9.5590
G01 X139.7222 Y9.5843
G01 X139.6828 Y9.6135
G01 X139.6464 Y9.6464
G01 X139.6135 Y9.6828
G01 X139.5843 Y9.7222
G01 X139.5590 Y9.7643
G01 X139.5381 Y9.8087
G01 X139.5215 Y9.8549
G01 X139.5096 Y9.9025
G01 X139.5024 Y9.9510
G01 X139.5000 Y10.0000
G01 X139.5024 Y10.0490
G01 X139.5096 Y10.0975
G01 X139.5215 Y10.1451
G01 X139.5381 Y10.1913
G01 X139.5590 Y10.2357
G01 X139.5843 Y10.2778
G01 X139.6135 Y10.3172
G01 X139.6464 Y10.3536
G01 X139.6828 Y10.3865
G01 X139.7222 Y10.4157
G01 X139.7643 Y10.4410
G01 X139.8087 Y10.4619
G01 X139.8549 Y10.4785
G01 X139.9025 Y10.4904
G01 X139.9510 Y10.4976
G01 X140.0000 Y10.5000
G01 X140.0490 Y10.4976
G01 X140.0975 Y10.4904
G01 X140.1451 Y10.4785
G01 X140.1913 Y10.4619
G01 X140.2357 Y10.4410
G01 X140.2778 Y10.4157
G01 X140.3172 Y10.3865
G01 X140.3536 Y10.3536
G01 X140.3865 Y10.3172
G01 X140.4157 Y10.2778
G01 X140.4410 Y10.2357
G01 X140.4619 Y10.1913
G01 X140.4785 Y10.1451
G01 X140.4904 Y10.0975
G01 X140.4976 Y10.0490
G01 X140.5000 Y10.0000
G00 X140.5000 Y10.0000
G01 F30.00
G01 Z-5.0000
G01 F100.00
G01 X140.4976 Y9.9510
G01 X140.4904 Y9.9025
G01 X140.4785 Y9.8549
G01 X140.4619 Y9.8087
G01 X140.4410 Y9.7643
G01 X140.4157 Y9.7222
G01 X140.3865 Y9.6828
G01 X140.3536 Y9.6464
G01 X140.3172 Y9.6135
G01 X140.2778 Y9.5843
G01 X140.2357 Y9.5590
G01 X140.1913 Y9.5381
G01 X140.1451 Y9.5215
G01 X140.0975 Y9.5096
G01 X140.0490 Y9.5024
G01 X140.0000 Y9.5000
G01 X139.9510 Y9.5024
G01 X139.9025 Y9.5096
G01 X139.8549 Y9.5215
G01 X139.8087 Y9.5381
G01 X139.7643 Y9.5590
G01 X139.7222 Y9.5843
G01 X139.6828 Y9.6135
G01 X139.6464 Y9.6464
G01 X139.6135 Y9.6828
G01 X139.5843 Y9.7222
G01 X139.5590 Y9.7643
G01 X139.5381 Y9.8087
G01 X139.5215 Y9.8549
G01 X139.5096 Y9.9025
G01 X139.5024 Y9.9510
G01 X139.5000 Y10.0000
G01 X139.5024 Y10.0490
G01 X139.5096 Y10.0975
G01 X139.5215 Y10.1451
G01 X139.5381 Y10.1913
G01 X139.5590 Y10.2357
G01 X139.5843 Y10.2778
G01 X139.6135 Y10.3172
G01 X139.6464 Y10.3536
G01 X139.6828 Y10.3865
G01 X139.7222 Y10.4157
G01 X139.7643 Y10.4410
G01 X139.8087 Y10.4619
G01 X139.8549 Y10.4785
G01 X139.9025 Y10.4904
G01 X139.9510 Y10.4976
G01 X140.0000 Y10.5000
G01 X140.0490 Y10.4976
G01 X140.0975 Y10.4904
G01 X140.1451 Y10.4785
G01 X140.1913 Y10.4619
G01 X140.2357 Y10.4410
G01 X140.2778 Y10.4157
G01 X140.3172 Y10.3865
G01 X140.3536 Y10.3536
G01 X140.3865 Y10.3172
G01 X140.4157 Y10.2778
G01 X140.4410 Y10.2357
G01 X140.4619 Y10.1913
G01 X140.4785 Y10.1451
G01 X140.4904 Y10.0975
G01 X140.4976 Y10.0490
G01 X140.5000 Y10.0000
G00 X140.5000 Y10.0000
G01 F30.00
G01 Z-6.0000
G01 F100.00
G01 X140.4976 Y9.9510
G01 X140.4904 Y9.9025
G01 X140.4785 Y9.8549
G01 X140.4619 Y9.8087
G01 X140.4410 Y9.7643
G01 X140.4157 Y9.7222
G01 X140.3865 Y9.6828
G01 X140.3536 Y9.6464
G01 X140.3172 Y9.6135
G01 X140.2778 Y9.5843
G01 X140.2357 Y9.5590
G01 X140.1913 Y9.5381
G01 X140.1451 Y9.5215
G01 X140.0975 Y9.5096
G01 X140.0490 Y9.5024
G01 X140.0000 Y9.5000
G01 X139.9510 Y9.5024
G01 X139.9025 Y9.5096
G01 X139.8549 Y9.5215
G01 X139.8087 Y9.5381
G01 X139.7643 Y9.5590
G01 X139.7222 Y9.5843
G01 X139.6828 Y9.6135
G01 X139.6464 Y9.6464
G01 X139.6135 Y9.6828
G01 X139.5843 Y9.7222
G01 X139.5590 Y9.7643
G01 X139.5381 Y9.8087
G01 X139.5215 Y9.8549
G01 X139.5096 Y9.9025
G01 X139.5024 Y9.9510
G01 X139.5000 Y10.0000
G01 X139.5024 Y10.0490
G01 X139.5096 Y10.0975
G01 X139.5215 Y10.1451
G01 X139.5381 Y10.1913
G01 X139.5590 Y10.2357
G01 X139.5843 Y10.2778
G01 X139.6135 Y10.3172
G01 X139.6464 Y10.3536
G01 X139.6828 Y10.3865
G01 X139.7222 Y10.4157
G01 X139.7643 Y10.4410
G01 X139.8087 Y10.4619
G01 X139.8549 Y10.4785
G01 X139.9025 Y10.4904
G01 X139.9510 Y10.4976
G01 X140.0000 Y10.5000
G01 X140.0490 Y10.4976
G01 X140.0975 Y10.4904
G01 X140.1451 Y10.4785
G01 X140.1913 Y10.4619
G01 X140.2357 Y10.4410
G01 X140.2778 Y10.4157
G01 X140.3172 Y10.3865
G01 X140.3536 Y10.3536
G01 X140.3865 Y10.3172
G01 X140.4157 Y10.2778
G01 X140.4410 Y10.2357
G01 X140.4619 Y10.1913
G01 X140.4785 Y10.1451
G01 X140.4904 Y10.0975
G01 X140.4976 Y10.0490
G01 X140.5000 Y10.0000
G00 Z2.0000
G00 X140.5000 Y140.0558
G01 F30.00
G01 Z-1.0000
G01 F100.00
G01 X140.4976 Y140.0068
G01 X140.4904 Y139.9582
G01 X140.4785 Y139.9106
G01 X140.4619 Y139.8644
G01 X140.4410 Y139.8201
G01 X140.4157 Y139.7780
G01 X140.3865 Y139.7386
G01 X140.3536 Y139.7022
G01 X140.3172 Y139.6693
G01 X140.2778 Y139.6400
G01 X140.2357 Y139.6148
G01 X140.1913 Y139.5938
G01 X140.1451 Y139.5773
G01 X140.0975 Y139.5654
G01 X140.0490 Y139.5582
G01 X140.0000 Y139.5558
G01 X139.9510 Y139.5582
G01 X139.9025 Y139.5654
G01 X139.8549 Y139.5773
G01 X139.8087 Y139.5938
G01 X139.7643 Y139.6148
G01 X139.7222 Y139.6400
G01 X139.6828 Y139.6693
G01 X139.6464 Y139.7022
G01 X139.6135 Y139.7386
G01 X139.5843 Y139.7780
G01 X139.5590 Y139.8201
G01 X139.5381 Y139.8644
G01 X139.5215 Y139.9106
G01 X139.5096 Y139.9582
G01 X139.5024 Y140.0068
G01 X139.5000 Y140.0558
G01 X139.5024 Y140.1048
G01 X139.5096 Y140.1533
G01 X139.5215 Y140.2009
G01 X139.5381 Y140.2471
G01 X139.5590 Y140.2915
G01 X139.5843 Y140.3336
G01 X139.6135 Y140.3730
G01 X139.6464 Y140.4093
G01 X139.6828 Y140.4423
G01 X139.7222 Y140.4715
G01 X139.7643 Y140.4967
G01 X139.8087 Y140.5177
G01 X139.8549 Y140.5342
G01 X139.9025 Y140.5462
G01 X139.9510 Y140.5534
G01 X140.0000 Y140.5558
G01 X140.0490 Y140.5534
G01 X140.0975 Y140.5462
G01 X140.1451 Y140.5342
G01 X140.1913 Y140.5177
G01 X140.2357 Y140.4967
G01 X140.2778 Y140.4715
G01 X140.3172 Y140.4423
G01 X140.3536 Y140.4093
G01 X140.3865 Y140.3730
G01 X140.4157 Y140.3336
G01 X140.4410 Y140.2915
G01 X140.4619 Y140.2471
G01 X140.4785 Y140.2009
G01 X140.4904 Y140.1533
G01 X140.4976 Y140.1048
G01 X140.5000 Y140.0558
G00 X140.5000 Y140.0558
G01 F30.00
G01 Z-2.0000
G01 F100.00
G01 X140.4976 Y140.0068
G01 X140.4904 Y139.9582
G01 X140.4785 Y139.9106
G01 X140.4619 Y139.8644
G01 X140.4410 Y139.8201
G01 X140.4157 Y139.7780
G01 X140.3865 Y139.7386
G01 X140.3536 Y139.7022
G01 X140.3172 Y139.6693
G01 X140.2778 Y139.6400
G01 X140.2357 Y139.6148
G01 X140.1913 Y139.5938
G01 X140.1451 Y139.5773
G01 X140.0975 Y139.5654
G01 X140.0490 Y139.5582
G01 X140.0000 Y139.5558
G01 X139.9510 Y139.5582
G01 X139.9025 Y139.5654
G01 X139.8549 Y139.5773
G01 X139.8087 Y139.5938
G01 X139.7643 Y139.6148
G01 X139.7222 Y139.6400
G01 X139.6828 Y139.6693
G01 X139.6464 Y139.7022
G01 X139.6135 Y139.7386
G01 X139.5843 Y139.7780
G01 X139.5590 Y139.8201
G01 X139.5381 Y139.8644
G01 X139.5215 Y139.9106
G01 X139.5096 Y139.9582
G01 X139.5024 Y140.0068
G01 X139.5000 Y140.0558
G01 X139.5024 Y140.1048
G01 X139.5096 Y140.1533
G01 X139.5215 Y140.2009
G01 X139.5381 Y140.2471
G01 X139.5590 Y140.2915
G01 X139.5843 Y140.3336
G01 X139.6135 Y140.3730
G01 X139.6464 Y140.4093
G01 X139.6828 Y140.4423
G01 X139.7222 Y140.4715
G01 X139.7643 Y140.4967
G01 X139.8087 Y140.5177
G01 X139.8549 Y140.5342
G01 X139.9025 Y140.5462
G01 X139.9510 Y140.5534
G01 X140.0000 Y140.5558
G01 X140.0490 Y140.5534
G01 X140.0975 Y140.5462
G01 X140.1451 Y140.5342
G01 X140.1913 Y140.5177
G01 X140.2357 Y140.4967
G01 X140.2778 Y140.4715
G01 X140.3172 Y140.4423
G01 X140.3536 Y140.4093
G01 X140.3865 Y140.3730
G01 X140.4157 Y140.3336
G01 X140.4410 Y140.2915
G01 X140.4619 Y140.2471
G01 X140.4785 Y140.2009
G01 X140.4904 Y140.1533
G01 X140.4976 Y140.1048
G01 X140.5000 Y140.0558
G00 X140.5000 Y140.0558
G01 F30.00
G01 Z-3.0000
G01 F100.00
G01 X140.4976 Y140.0068
G01 X140.4904 Y139.9582
G01 X140.4785 Y139.9106
G01 X140.4619 Y139.8644
G01 X140.4410 Y139.8201
G01 X140.4157 Y139.7780
G01 X140.3865 Y139.7386
G01 X140.3536 Y139.7022
G01 X140.3172 Y139.6693
G01 X140.2778 Y139.6400
G01 X140.2357 Y139.6148
G01 X140.1913 Y139.5938
G01 X140.1451 Y139.5773
G01 X140.0975 Y139.5654
G01 X140.0490 Y139.5582
G01 X140.0000 Y139.5558
G01 X139.9510 Y139.5582
G01 X139.9025 Y139.5654
G01 X139.8549 Y139.5773
G01 X139.8087 Y139.5938
G01 X139.7643 Y139.6148
G01 X139.7222 Y139.6400
G01 X139.6828 Y139.6693
G01 X139.6464 Y139.7022
G01 X139.6135 Y139.7386
G01 X139.5843 Y139.7780
G01 X139.5590 Y139.8201
G01 X139.5381 Y139.8644
G01 X139.5215 Y139.9106
G01 X139.5096 Y139.9582
G01 X139.5024 Y140.0068
G01 X139.5000 Y140.0558
G01 X139.5024 Y140.1048
G01 X139.5096 Y140.1533
G01 X139.5215 Y140.2009
G01 X139.5381 Y140.2471
G01 X139.5590 Y140.2915
G01 X139.5843 Y140.3336
G01 X139.6135 Y140.3730
G01 X139.6464 Y140.4093
G01 X139.6828 Y140.4423
G01 X139.7222 Y140.4715
G01 X139.7643 Y140.4967
G01 X139.8087 Y140.5177
G01 X139.8549 Y140.5342
G01 X139.9025 Y140.5462
G01 X139.9510 Y140.5534
G01 X140.0000 Y140.5558
G01 X140.0490 Y140.5534
G01 X140.0975 Y140.5462
G01 X140.1451 Y140.5342
G01 X140.1913 Y140.5177
G01 X140.2357 Y140.4967
G01 X140.2778 Y140.4715
G01 X140.3172 Y140.4423
G01 X140.3536 Y140.4093
G01 X140.3865 Y140.3730
G01 X140.4157 Y140.3336
G01 X140.4410 Y140.2915
G01 X140.4619 Y140.2471
G01 X140.4785 Y140.2009
G01 X140.4904 Y140.1533
G01 X140.4976 Y140.1048
G01 X140.5000 Y140.0558
G00 X140.5000 Y140.0558
G01 F30.00
G01 Z-4.0000
G01 F100.00
G01 X140.4976 Y140.0068
G01 X140.4904 Y139.9582
G01 X140.4785 Y139.9106
G01 X140.4619 Y139.8644
G01 X140.4410 Y139.8201
G01 X140.4157 Y139.7780
G01 X140.3865 Y139.7386
G01 X140.3536 Y139.7022
G01 X140.3172 Y139.6693
G01 X140.2778 Y139.6400
G01 X140.2357 Y139.6148
G01 X140.1913 Y139.5938
G01 X140.1451 Y139.5773
G01 X140.0975 Y139.5654
G01 X140.0490 Y139.5582
G01 X140.0000 Y139.5558
G01 X139.9510 Y139.5582
G01 X139.9025 Y139.5654
G01 X139.8549 Y139.5773
G01 X139.8087 Y139.5938
G01 X139.7643 Y139.6148
G01 X139.7222 Y139.6400
G01 X139.6828 Y139.6693
G01 X139.6464 Y139.7022
G01 X139.6135 Y139.7386
G01 X139.5843 Y139.7780
G01 X139.5590 Y139.8201
G01 X139.5381 Y139.8644
G01 X139.5215 Y139.9106
G01 X139.5096 Y139.9582
G01 X139.5024 Y140.0068
G01 X139.5000 Y140.0558
G01 X139.5024 Y140.1048
G01 X139.5096 Y140.1533
G01 X139.5215 Y140.2009
G01 X139.5381 Y140.2471
G01 X139.5590 Y140.2915
G01 X139.5843 Y140.3336
G01 X139.6135 Y140.3730
G01 X139.6464 Y140.4093
G01 X139.6828 Y140.4423
G01 X139.7222 Y140.4715
G01 X139.7643 Y140.4967
G01 X139.8087 Y140.5177
G01 X139.8549 Y140.5342
G01 X139.9025 Y140.5462
G01 X139.9510 Y140.5534
G01 X140.0000 Y140.5558
G01 X140.0490 Y140.5534
G01 X140.0975 Y140.5462
G01 X140.1451 Y140.5342
G01 X140.1913 Y140.5177
G01 X140.2357 Y140.4967
G01 X140.2778 Y140.4715
G01 X140.3172 Y140.4423
G01 X140.3536 Y140.4093
G01 X140.3865 Y140.3730
G01 X140.4157 Y140.3336
G01 X140.4410 Y140.2915
G01 X140.4619 Y140.2471
G01 X140.4785 Y140.2009
G01 X140.4904 Y140.1533
G01 X140.4976 Y140.1048
G01 X140.5000 Y140.0558
G00 X140.5000 Y140.0558
G01 F30.00
G01 Z-5.0000
G01 F100.00
G01 X140.4976 Y140.0068
G01 X140.4904 Y139.9582
G01 X140.4785 Y139.9106
G01 X140.4619 Y139.8644
G01 X140.4410 Y139.8201
G01 X140.4157 Y139.7780
G01 X140.3865 Y139.7386
G01 X140.3536 Y139.7022
G01 X140.3172 Y139.6693
G01 X140.2778 Y139.6400
G01 X140.2357 Y139.6148
G01 X140.1913 Y139.5938
G01 X140.1451 Y139.5773
G01 X140.0975 Y139.5654
G01 X140.0490 Y139.5582
G01 X140.0000 Y139.5558
G01 X139.9510 Y139.5582
G01 X139.9025 Y139.5654
G01 X139.8549 Y139.5773
G01 X139.8087 Y139.5938
G01 X139.7643 Y139.6148
G01 X139.7222 Y139.6400
G01 X139.6828 Y139.6693
G01 X139.6464 Y139.7022
G01 X139.6135 Y139.7386
G01 X139.5843 Y139.7780
G01 X139.5590 Y139.8201
G01 X139.5381 Y139.8644
G01 X139.5215 Y139.9106
G01 X139.5096 Y139.9582
G01 X139.5024 Y140.0068
G01 X139.5000 Y140.0558
G01 X139.5024 Y140.1048
G01 X139.5096 Y140.1533
G01 X139.5215 Y140.2009
G01 X139.5381 Y140.2471
G01 X139.5590 Y140.2915
G01 X139.5843 Y140.3336
G01 X139.6135 Y140.3730
G01 X139.6464 Y140.4093
G01 X139.6828 Y140.4423
G01 X139.7222 Y140.4715
G01 X139.7643 Y140.4967
G01 X139.8087 Y140.5177
G01 X139.8549 Y140.5342
G01 X139.9025 Y140.5462
G01 X139.9510 Y140.5534
G01 X140.0000 Y140.5558
G01 X140.0490 Y140.5534
G01 X140.0975 Y140.5462
G01 X140.1451 Y140.5342
G01 X140.1913 Y140.5177
G01 X140.2357 Y140.4967
G01 X140.2778 Y140.4715
G01 X140.3172 Y140.4423
G01 X140.3536 Y140.4093
G01 X140.3865 Y140.3730
G01 X140.4157 Y140.3336
G01 X140.4410 Y140.2915
G01 X140.4619 Y140.2471
G01 X140.4785 Y140.2009
G01 X140.4904 Y140.1533
G01 X140.4976 Y140.1048
G01 X140.5000 Y140.0558
G00 X140.5000 Y140.0558
G01 F30.00
G01 Z-6.0000
G01 F100.00
G01 X140.4976 Y140.0068
G01 X140.4904 Y139.9582
G01 X140.4785 Y139.9106
G01 X140.4619 Y139.8644
G01 X140.4410 Y139.8201
G01 X140.4157 Y139.7780
G01 X140.3865 Y139.7386
G01 X140.3536 Y139.7022
G01 X140.3172 Y139.6693
G01 X140.2778 Y139.6400
G01 X140.2357 Y139.6148
G01 X140.1913 Y139.5938
G01 X140.1451 Y139.5773
G01 X140.0975 Y139.5654
G01 X140.0490 Y139.5582
G01 X140.0000 Y139.5558
G01 X139.9510 Y139.5582
G01 X139.9025 Y139.5654
G01 X139.8549 Y139.5773
G01 X139.8087 Y139.5938
G01 X139.7643 Y139.6148
G01 X139.7222 Y139.6400
G01 X139.6828 Y139.6693
G01 X139.6464 Y139.7022
G01 X139.6135 Y139.7386
G01 X139.5843 Y139.7780
G01 X139.5590 Y139.8201
G01 X139.5381 Y139.8644
G01 X139.5215 Y139.9106
G01 X139.5096 Y139.9582
G01 X139.5024 Y140.0068
G01 X139.5000 Y140.0558
G01 X139.5024 Y140.1048
G01 X139.5096 Y140.1533
G01 X139.5215 Y140.2009
G01 X139.5381 Y140.2471
G01 X139.5590 Y140.2915
G01 X139.5843 Y140.3336
G01 X139.6135 Y140.3730
G01 X139.6464 Y140.4093
G01 X139.6828 Y140.4423
G01 X139.7222 Y140.4715
G01 X139.7643 Y140.4967
G01 X139.8087 Y140.5177
G01 X139.8549 Y140.5342
G01 X139.9025 Y140.5462
G01 X139.9510 Y140.5534
G01 X140.0000 Y140.5558
G01 X140.0490 Y140.5534
G01 X140.0975 Y140.5462
G01 X140.1451 Y140.5342
G01 X140.1913 Y140.5177
G01 X140.2357 Y140.4967
G01 X140.2778 Y140.4715
G01 X140.3172 Y140.4423
G01 X140.3536 Y140.4093
G01 X140.3865 Y140.3730
G01 X140.4157 Y140.3336
G01 X140.4410 Y140.2915
G01 X140.4619 Y140.2471
G01 X140.4785 Y140.2009
G01 X140.4904 Y140.1533
G01 X140.4976 Y140.1048
G01 X140.5000 Y140.0558
G00 Z2.0000
G00 X10.5000 Y140.0558
G01 F30.00
G01 Z-1.0000
G01 F100.00
G01 X10.4976 Y140.0068
G01 X10.4904 Y139.9582
G01 X10.4785 Y139.9106
G01 X10.4619 Y139.8644
G01 X10.4410 Y139.8201
G01 X10.4157 Y139.7780
G01 X10.3865 Y139.7386
G01 X10.3536 Y139.7022
G01 X10.3172 Y139.6693
G01 X10.2778 Y139.6400
G01 X10.2357 Y139.6148
G01 X10.1913 Y139.5938
G01 X10.1451 Y139.5773
G01 X10.0975 Y139.5654
G01 X10.0490 Y139.5582
G01 X10.0000 Y139.5558
G01 X9.9510 Y139.5582
G01 X9.9025 Y139.5654
G01 X9.8549 Y139.5773
G01 X9.8087 Y139.5938
G01 X9.7643 Y139.6148
G01 X9.7222 Y139.6400
G01 X9.6828 Y139.6693
G01 X9.6464 Y139.7022
G01 X9.6135 Y139.7386
G01 X9.5843 Y139.7780
G01 X9.5590 Y139.8201
G01 X9.5381 Y139.8644
G01 X9.5215 Y139.9106
G01 X9.5096 Y139.9582
G01 X9.5024 Y140.0068
G01 X9.5000 Y140.0558
G01 X9.5024 Y140.1048
G01 X9.5096 Y140.1533
G01 X9.5215 Y140.2009
G01 X9.5381 Y140.2471
G01 X9.5590 Y140.2915
G01 X9.5843 Y140.3336
G01 X9.6135 Y140.3730
G01 X9.6464 Y140.4093
G01 X9.6828 Y140.4423
G01 X9.7222 Y140.4715
G01 X9.7643 Y140.4967
G01 X9.8087 Y140.5177
G01 X9.8549 Y140.5342
G01 X9.9025 Y140.5462
G01 X9.9510 Y140.5534
G01 X10.0000 Y140.5558
G01 X10.0490 Y140.5534
G01 X10.0975 Y140.5462
G01 X10.1451 Y140.5342
G01 X10.1913 Y140.5177
G01 X10.2357 Y140.4967
G01 X10.2778 Y140.4715
G01 X10.3172 Y140.4423
G01 X10.3536 Y140.4093
G01 X10.3865 Y140.3730
G01 X10.4157 Y140.3336
G01 X10.4410 Y140.2915
G01 X10.4619 Y140.2471
G01 X10.4785 Y140.2009
G01 X10.4904 Y140.1533
G01 X10.4976 Y140.1048
G01 X10.5000 Y140.0558
G00 X10.5000 Y140.0558
G01 F30.00
G01 Z-2.0000
G01 F100.00
G01 X10.4976 Y140.0068
G01 X10.4904 Y139.9582
G01 X10.4785 Y139.9106
G01 X10.4619 Y139.8644
G01 X10.4410 Y139.8201
G01 X10.4157 Y139.7780
G01 X10.3865 Y139.7386
G01 X10.3536 Y139.7022
G01 X10.3172 Y139.6693
G01 X10.2778 Y139.6400
G01 X10.2357 Y139.6148
G01 X10.1913 Y139.5938
G01 X10.1451 Y139.5773
G01 X10.0975 Y139.5654
G01 X10.0490 Y139.5582
G01 X10.0000 Y139.5558
G01 X9.9510 Y139.5582
G01 X9.9025 Y139.5654
G01 X9.8549 Y139.5773
G01 X9.8087 Y139.5938
G01 X9.7643 Y139.6148
G01 X9.7222 Y139.6400
G01 X9.6828 Y139.6693
G01 X9.6464 Y139.7022
G01 X9.6135 Y139.7386
G01 X9.5843 Y139.7780
G01 X9.5590 Y139.8201
G01 X9.5381 Y139.8644
G01 X9.5215 Y139.9106
G01 X9.5096 Y139.9582
G01 X9.5024 Y140.0068
G01 X9.5000 Y140.0558
G01 X9.5024 Y140.1048
G01 X9.5096 Y140.1533
G01 X9.5215 Y140.2009
G01 X9.5381 Y140.2471
G01 X9.5590 Y140.2915
G01 X9.5843 Y140.3336
G01 X9.6135 Y140.3730
G01 X9.6464 Y140.4093
G01 X9.6828 Y140.4423
G01 X9.7222 Y140.4715
G01 X9.7643 Y140.4967
G01 X9.8087 Y140.5177
G01 X9.8549 Y140.5342
G01 X9.9025 Y140.5462
G01 X9.9510 Y140.5534
G01 X10.0000 Y140.5558
G01 X10.0490 Y140.5534
G01 X10.0975 Y140.5462
G01 X10.1451 Y140.5342
G01 X10.1913 Y140.5177
G01 X10.2357 Y140.4967
G01 X10.2778 Y140.4715
G01 X10.3172 Y140.4423
G01 X10.3536 Y140.4093
G01 X10.3865 Y140.3730
G01 X10.4157 Y140.3336
G01 X10.4410 Y140.2915
G01 X10.4619 Y140.2471
G01 X10.4785 Y140.2009
G01 X10.4904 Y140.1533
G01 X10.4976 Y140.1048
G01 X10.5000 Y140.0558
G00 X10.5000 Y140.0558
G01 F30.00
G01 Z-3.0000
G01 F100.00
G01 X10.4976 Y140.0068
G01 X10.4904 Y139.9582
G01 X10.4785 Y139.9106
G01 X10.4619 Y139.8644
G01 X10.4410 Y139.8201
G01 X10.4157 Y139.7780
G01 X10.3865 Y139.7386
G01 X10.3536 Y139.7022
G01 X10.3172 Y139.6693
G01 X10.2778 Y139.6400
G01 X10.2357 Y139.6148
G01 X10.1913 Y139.5938
G01 X10.1451 Y139.5773
G01 X10.0975 Y139.5654
G01 X10.0490 Y139.5582
G01 X10.0000 Y139.5558
G01 X9.9510 Y139.5582
G01 X9.9025 Y139.5654
G01 X9.8549 Y139.5773
G01 X9.8087 Y139.5938
G01 X9.7643 Y139.6148
G01 X9.7222 Y139.6400
G01 X9.6828 Y139.6693
G01 X9.6464 Y139.7022
G01 X9.6135 Y139.7386
G01 X9.5843 Y139.7780
G01 X9.5590 Y139.8201
G01 X9.5381 Y139.8644
G01 X9.5215 Y139.9106
G01 X9.5096 Y139.9582
G01 X9.5024 Y140.0068
G01 X9.5000 Y140.0558
G01 X9.5024 Y140.1048
G01 X9.5096 Y140.1533
G01 X9.5215 Y140.2009
G01 X9.5381 Y140.2471
G01 X9.5590 Y140.2915
G01 X9.5843 Y140.3336
G01 X9.6135 Y140.3730
G01 X9.6464 Y140.4093
G01 X9.6828 Y140.4423
G01 X9.7222 Y140.4715
G01 X9.7643 Y140.4967
G01 X9.8087 Y140.5177
G01 X9.8549 Y140.5342
G01 X9.9025 Y140.5462
G01 X9.9510 Y140.5534
G01 X10.0000 Y140.5558
G01 X10.0490 Y140.5534
G01 X10.0975 Y140.5462
G01 X10.1451 Y140.5342
G01 X10.1913 Y140.5177
G01 X10.2357 Y140.4967
G01 X10.2778 Y140.4715
G01 X10.3172 Y140.4423
G01 X10.3536 Y140.4093
G01 X10.3865 Y140.3730
G01 X10.4157 Y140.3336
G01 X10.4410 Y140.2915
G01 X10.4619 Y140.2471
G01 X10.4785 Y140.2009
G01 X10.4904 Y140.1533
G01 X10.4976 Y140.1048
G01 X10.5000 Y140.0558
G00 X10.5000 Y140.0558
G01 F30.00
G01 Z-4.0000
G01 F100.00
G01 X10.4976 Y140.0068
G01 X10.4904 Y139.9582
G01 X10.4785 Y139.9106
G01 X10.4619 Y139.8644
G01 X10.4410 Y139.8201
G01 X10.4157 Y139.7780
G01 X10.3865 Y139.7386
G01 X10.3536 Y139.7022
G01 X10.3172 Y139.6693
G01 X10.2778 Y139.6400
G01 X10.2357 Y139.6148
G01 X10.1913 Y139.5938
G01 X10.1451 Y139.5773
G01 X10.0975 Y139.5654
G01 X10.0490 Y139.5582
G01 X10.0000 Y139.5558
G01 X9.9510 Y139.5582
G01 X9.9025 Y139.5654
G01 X9.8549 Y139.5773
G01 X9.8087 Y139.5938
G01 X9.7643 Y139.6148
G01 X9.7222 Y139.6400
G01 X9.6828 Y139.6693
G01 X9.6464 Y139.7022
G01 X9.6135 Y139.7386
G01 X9.5843 Y139.7780
G01 X9.5590 Y139.8201
G01 X9.5381 Y139.8644
G01 X9.5215 Y139.9106
G01 X9.5096 Y139.9582
G01 X9.5024 Y140.0068
G01 X9.5000 Y140.0558
G01 X9.5024 Y140.1048
G01 X9.5096 Y140.1533
G01 X9.5215 Y140.2009
G01 X9.5381 Y140.2471
G01 X9.5590 Y140.2915
G01 X9.5843 Y140.3336
G01 X9.6135 Y140.3730
G01 X9.6464 Y140.4093
G01 X9.6828 Y140.4423
G01 X9.7222 Y140.4715
G01 X9.7643 Y140.4967
G01 X9.8087 Y140.5177
G01 X9.8549 Y140.5342
G01 X9.9025 Y140.5462
G01 X9.9510 Y140.5534
G01 X10.0000 Y140.5558
G01 X10.0490 Y140.5534
G01 X10.0975 Y140.5462
G01 X10.1451 Y140.5342
G01 X10.1913 Y140.5177
G01 X10.2357 Y140.4967
G01 X10.2778 Y140.4715
G01 X10.3172 Y140.4423
G01 X10.3536 Y140.4093
G01 X10.3865 Y140.3730
G01 X10.4157 Y140.3336
G01 X10.4410 Y140.2915
G01 X10.4619 Y140.2471
G01 X10.4785 Y140.2009
G01 X10.4904 Y140.1533
G01 X10.4976 Y140.1048
G01 X10.5000 Y140.0558
G00 X10.5000 Y140.0558
G01 F30.00
G01 Z-5.0000
G01 F100.00
G01 X10.4976 Y140.0068
G01 X10.4904 Y139.9582
G01 X10.4785 Y139.9106
G01 X10.4619 Y139.8644
G01 X10.4410 Y139.8201
G01 X10.4157 Y139.7780
G01 X10.3865 Y139.7386
G01 X10.3536 Y139.7022
G01 X10.3172 Y139.6693
G01 X10.2778 Y139.6400
G01 X10.2357 Y139.6148
G01 X10.1913 Y139.5938
G01 X10.1451 Y139.5773
G01 X10.0975 Y139.5654
G01 X10.0490 Y139.5582
G01 X10.0000 Y139.5558
G01 X9.9510 Y139.5582
G01 X9.9025 Y139.5654
G01 X9.8549 Y139.5773
G01 X9.8087 Y139.5938
G01 X9.7643 Y139.6148
G01 X9.7222 Y139.6400
G01 X9.6828 Y139.6693
G01 X9.6464 Y139.7022
G01 X9.6135 Y139.7386
G01 X9.5843 Y139.7780
G01 X9.5590 Y139.8201
G01 X9.5381 Y139.8644
G01 X9.5215 Y139.9106
G01 X9.5096 Y139.9582
G01 X9.5024 Y140.0068
G01 X9.5000 Y140.0558
G01 X9.5024 Y140.1048
G01 X9.5096 Y140.1533
G01 X9.5215 Y140.2009
G01 X9.5381 Y140.2471
G01 X9.5590 Y140.2915
G01 X9.5843 Y140.3336
G01 X9.6135 Y140.3730
G01 X9.6464 Y140.4093
G01 X9.6828 Y140.4423
G01 X9.7222 Y140.4715
G01 X9.7643 Y140.4967
G01 X9.8087 Y140.5177
G01 X9.8549 Y140.5342
G01 X9.9025 Y140.5462
G01 X9.9510 Y140.5534
G01 X10.0000 Y140.5558
G01 X10.0490 Y140.5534
G01 X10.0975 Y140.5462
G01 X10.1451 Y140.5342
G01 X10.1913 Y140.5177
G01 X10.2357 Y140.4967
G01 X10.2778 Y140.4715
G01 X10.3172 Y140.4423
G01 X10.3536 Y140.4093
G01 X10.3865 Y140.3730
G01 X10.4157 Y140.3336
G01 X10.4410 Y140.2915
G01 X10.4619 Y140.2471
G01 X10.4785 Y140.2009
G01 X10.4904 Y140.1533
G01 X10.4976 Y140.1048
G01 X10.5000 Y140.0558
G00 X10.5000 Y140.0558
G01 F30.00
G01 Z-6.0000
G01 F100.00
G01 X10.4976 Y140.0068
G01 X10.4904 Y139.9582
G01 X10.4785 Y139.9106
G01 X10.4619 Y139.8644
G01 X10.4410 Y139.8201
G01 X10.4157 Y139.7780
G01 X10.3865 Y139.7386
G01 X10.3536 Y139.7022
G01 X10.3172 Y139.6693
G01 X10.2778 Y139.6400
G01 X10.2357 Y139.6148
G01 X10.1913 Y139.5938
G01 X10.1451 Y139.5773
G01 X10.0975 Y139.5654
G01 X10.0490 Y139.5582
G01 X10.0000 Y139.5558
G01 X9.9510 Y139.5582
G01 X9.9025 Y139.5654
G01 X9.8549 Y139.5773
G01 X9.8087 Y139.5938
G01 X9.7643 Y139.6148
G01 X9.7222 Y139.6400
G01 X9.6828 Y139.6693
G01 X9.6464 Y139.7022
G01 X9.6135 Y139.7386
G01 X9.5843 Y139.7780
G01 X9.5590 Y139.8201
G01 X9.5381 Y139.8644
G01 X9.5215 Y139.9106
G01 X9.5096 Y139.9582
G01 X9.5024 Y140.0068
G01 X9.5000 Y140.0558
G01 X9.5024 Y140.1048
G01 X9.5096 Y140.1533
G01 X9.5215 Y140.2009
G01 X9.5381 Y140.2471
G01 X9.5590 Y140.2915
G01 X9.5843 Y140.3336
G01 X9.6135 Y140.3730
G01 X9.6464 Y140.4093
G01 X9.6828 Y140.4423
G01 X9.7222 Y140.4715
G01 X9.7643 Y140.4967
G01 X9.8087 Y140.5177
G01 X9.8549 Y140.5342
G01 X9.9025 Y140.5462
G01 X9.9510 Y140.5534
G01 X10.0000 Y140.5558
G01 X10.0490 Y140.5534
G01 X10.0975 Y140.5462
G01 X10.1451 Y140.5342
G01 X10.1913 Y140.5177
G01 X10.2357 Y140.4967
G01 X10.2778 Y140.4715
G01 X10.3172 Y140.4423
G01 X10.3536 Y140.4093
G01 X10.3865 Y140.3730
G01 X10.4157 Y140.3336
G01 X10.4410 Y140.2915
G01 X10.4619 Y140.2471
G01 X10.4785 Y140.2009
G01 X10.4904 Y140.1533
G01 X10.4976 Y140.1048
G01 X10.5000 Y140.0558
G00 Z2.0000
M05
G00 Z2.0000
G00 Z15.00


