(G-CODE GENERATED BY FLATCAM v2024.4 - www.flatcam.org - Version Date: 2024/04/15)

(Name: power_board-F_Cu.gbr_iso_combined_cnc)
(Type: G-code from Geometry)
(Units: MM)

(Created on Sunday, 05 October 2025 at 19:11)

(This preprocessor is the default preprocessor used by FlatCAM.)
(It is made to work with MACH3 compatible motion controllers.)

(TOOL DIAMETER: 0.28 mm)
(Feedrate_XY: 100.0 mm/min)
(Feedrate_Z: 50.0 mm/min)
(Feedrate rapids 1500.0 mm/min)

(Z_Cut: -0.04 mm)
(Z_Move: 1.25 mm)
(Z Start: None mm)
(Z End: 15.0 mm)
(X,Y End: None mm)
(Steps per circle: 64)
(Preprocessor Geometry: default)

(X range:   20.6849 ...  133.7765  mm)
(Y range:    6.6476 ...  143.4082  mm)

(Spindle Speed: 0.0 RPM)
G21
G90
G94

G01 F100.00

M5
G00 Z15.0000
G00 X0.0000 Y0.0000
T1
M6    
(MSG, Change to Tool Dia = 0.2800)
M0
G00 Z15.0000

M03
G01 F100.00
G00 X27.6734 Y27.3705
G01 F50.00
G01 Z-0.0400
G01 F100.00
G01 X27.7634 Y27.4246
G01 X27.8412 Y27.4821
G01 X29.9316 Y27.4821
G01 X29.9397 Y27.4275
G01 X29.9416 Y27.4174
G01 X29.9782 Y27.2712
G01 X29.9810 Y27.2613
G01 X30.0342 Y27.1131
G01 X30.0999 Y26.9737
G01 X30.1047 Y26.9646
G01 X30.1858 Y26.8295
G01 X30.2817 Y26.7003
G01 X30.3897 Y26.5810
G01 X30.5038 Y26.4774
G01 X30.5117 Y26.4708
G01 X30.6383 Y26.3771
G01 X30.7763 Y26.2943
G01 X30.9218 Y26.2255
G01 X31.0733 Y26.1713
G01 X31.2294 Y26.1322
G01 X31.3886 Y26.1086
G01 X31.5494 Y26.1007
G01 X31.7101 Y26.1086
G01 X31.8693 Y26.1322
G01 X32.0255 Y26.1713
G01 X32.1770 Y26.2255
G01 X32.3225 Y26.2943
G01 X32.4605 Y26.3771
G01 X32.5898 Y26.4729
G01 X32.7090 Y26.5810
G01 X32.8171 Y26.7003
G01 X32.9130 Y26.8295
G01 X32.9957 Y26.9676
G01 X33.0646 Y27.1131
G01 X33.1188 Y27.2646
G01 X33.1579 Y27.4207
G01 X33.1815 Y27.5799
G01 X33.1894 Y27.7407
G01 X33.1815 Y27.9014
G01 X33.1591 Y28.0539
G01 X33.1564 Y28.0673
G01 X33.1188 Y28.2167
G01 X33.0646 Y28.3683
G01 X32.9957 Y28.5138
G01 X32.9167 Y28.6460
G01 X32.9090 Y28.6574
G01 X32.8214 Y28.7757
G01 X32.8126 Y28.7863
G01 X32.7090 Y28.9003
G01 X32.5898 Y29.0084
G01 X32.4605 Y29.1043
G01 X32.3285 Y29.1836
G01 X32.3163 Y29.1901
G01 X32.1833 Y29.2531
G01 X32.1706 Y29.2583
G01 X32.0255 Y29.3101
G01 X31.8727 Y29.3485
G01 X31.8626 Y29.3503
G01 X31.7170 Y29.3719
G01 X31.7033 Y29.3733
G01 X31.5494 Y29.3807
G01 X31.3886 Y29.3728
G01 X31.2362 Y29.3503
G01 X31.2227 Y29.3477
G01 X31.0733 Y29.3101
G01 X30.9385 Y29.2620
G01 X30.9176 Y29.2629
G01 X27.8412 Y29.2629
G01 X27.7634 Y29.3204
G01 X27.6674 Y29.3779
G01 X27.5663 Y29.4257
G01 X27.4675 Y29.4613
G01 X27.4543 Y29.4652
G01 X27.3591 Y29.4891
G01 X27.3456 Y29.4918
G01 X27.2418 Y29.5070
G01 X27.1300 Y29.5125
G01 X27.0183 Y29.5070
G01 X26.9144 Y29.4918
G01 X26.9009 Y29.4891
G01 X26.7991 Y29.4634
G01 X26.7002 Y29.4282
G01 X26.6875 Y29.4229
G01 X26.5926 Y29.3779
G01 X26.4967 Y29.3204
G01 X26.4068 Y29.2537
G01 X26.3239 Y29.1786
G01 X26.2488 Y29.0957
G01 X26.1821 Y29.0059
G01 X26.1246 Y28.9099
G01 X26.0768 Y28.8088
G01 X26.0391 Y28.7034
G01 X26.0119 Y28.5949
G01 X25.9955 Y28.4842
G01 X25.9900 Y28.3725
G01 X25.9955 Y28.2608
G01 X26.0119 Y28.1501
G01 X26.0391 Y28.0416
G01 X26.0768 Y27.9362
G01 X26.1246 Y27.8351
G01 X26.1821 Y27.7392
G01 X26.2488 Y27.6493
G01 X26.3239 Y27.5664
G01 X26.4068 Y27.4913
G01 X26.4967 Y27.4246
G01 X26.5926 Y27.3671
G01 X26.6938 Y27.3193
G01 X26.7991 Y27.2816
G01 X26.9076 Y27.2544
G01 X27.0183 Y27.2380
G01 X27.1300 Y27.2325
G01 X27.2418 Y27.2380
G01 X27.3524 Y27.2544
G01 X27.4609 Y27.2816
G01 X27.5663 Y27.3193
G01 X27.6613 Y27.3640
G01 X27.6734 Y27.3705
G00 Z1.2500
G00 X28.0878 Y30.8459
G01 F50.00
G01 Z-0.0400
G01 F100.00
G01 X28.1778 Y30.9000
G01 X28.2556 Y30.9575
G01 X30.3460 Y30.9575
G01 X30.3541 Y30.9029
G01 X30.3560 Y30.8927
G01 X30.3926 Y30.7466
G01 X30.3955 Y30.7367
G01 X30.4486 Y30.5885
G01 X30.5144 Y30.4491
G01 X30.5191 Y30.4400
G01 X30.6002 Y30.3049
G01 X30.6961 Y30.1757
G01 X30.8041 Y30.0564
G01 X30.9182 Y29.9528
G01 X30.9261 Y29.9462
G01 X31.0527 Y29.8524
G01 X31.1907 Y29.7697
G01 X31.3362 Y29.7009
G01 X31.4877 Y29.6467
G01 X31.6439 Y29.6076
G01 X31.8031 Y29.5840
G01 X31.9638 Y29.5761
G01 X32.1246 Y29.5840
G01 X32.2838 Y29.6076
G01 X32.4399 Y29.6467
G01 X32.5914 Y29.7009
G01 X32.7369 Y29.7697
G01 X32.8749 Y29.8524
G01 X33.0042 Y29.9483
G01 X33.1235 Y30.0564
G01 X33.2315 Y30.1757
G01 X33.3274 Y30.3049
G01 X33.4102 Y30.4430
G01 X33.4790 Y30.5885
G01 X33.5332 Y30.7400
G01 X33.5723 Y30.8961
G01 X33.5959 Y31.0553
G01 X33.6038 Y31.2161
G01 X33.5959 Y31.3768
G01 X33.5735 Y31.5292
G01 X33.5708 Y31.5427
G01 X33.5332 Y31.6921
G01 X33.4790 Y31.8437
G01 X33.4102 Y31.9891
G01 X33.3311 Y32.1214
G01 X33.3235 Y32.1328
G01 X33.2358 Y32.2510
G01 X33.2271 Y32.2617
G01 X33.1235 Y32.3757
G01 X33.0042 Y32.4838
G01 X32.8749 Y32.5797
G01 X32.7429 Y32.6590
G01 X32.7308 Y32.6655
G01 X32.5977 Y32.7284
G01 X32.5850 Y32.7337
G01 X32.4399 Y32.7854
G01 X32.2871 Y32.8238
G01 X32.2770 Y32.8257
G01 X32.1314 Y32.8473
G01 X32.1177 Y32.8487
G01 X31.9638 Y32.8561
G01 X31.8031 Y32.8482
G01 X31.6506 Y32.8257
G01 X31.6372 Y32.8230
G01 X31.4877 Y32.7854
G01 X31.3530 Y32.7374
G01 X31.3320 Y32.7383
G01 X28.2556 Y32.7383
G01 X28.1778 Y32.7958
G01 X28.0818 Y32.8533
G01 X27.9807 Y32.9011
G01 X27.8819 Y32.9366
G01 X27.8687 Y32.9406
G01 X27.7735 Y32.9645
G01 X27.7601 Y32.9672
G01 X27.6562 Y32.9824
G01 X27.5444 Y32.9879
G01 X27.4327 Y32.9824
G01 X27.3288 Y32.9672
G01 X27.3153 Y32.9645
G01 X27.2135 Y32.9388
G01 X27.1146 Y32.9036
G01 X27.1019 Y32.8983
G01 X27.0070 Y32.8533
G01 X26.9111 Y32.7958
G01 X26.8212 Y32.7291
G01 X26.7383 Y32.6540
G01 X26.6632 Y32.5711
G01 X26.5966 Y32.4812
G01 X26.5390 Y32.3853
G01 X26.4912 Y32.2841
G01 X26.4535 Y32.1788
G01 X26.4263 Y32.0703
G01 X26.4099 Y31.9596
G01 X26.4044 Y31.8479
G01 X26.4099 Y31.7361
G01 X26.4263 Y31.6255
G01 X26.4535 Y31.5170
G01 X26.4912 Y31.4116
G01 X26.5390 Y31.3105
G01 X26.5966 Y31.2145
G01 X26.6632 Y31.1247
G01 X26.7383 Y31.0418
G01 X26.8212 Y30.9667
G01 X26.9111 Y30.9000
G01 X27.0070 Y30.8425
G01 X27.1082 Y30.7947
G01 X27.2135 Y30.7570
G01 X27.3220 Y30.7298
G01 X27.4327 Y30.7134
G01 X27.5444 Y30.7079
G01 X27.6562 Y30.7134
G01 X27.7668 Y30.7298
G01 X27.8754 Y30.7570
G01 X27.9807 Y30.7947
G01 X28.0757 Y30.8394
G01 X28.0878 Y30.8459
G00 Z1.2500
G00 X40.1242 Y22.7240
G01 F50.00
G01 Z-0.0400
G01 F100.00
G01 X40.2701 Y22.5781
G01 X40.4370 Y22.4569
G01 X40.6208 Y22.3633
G01 X40.8170 Y22.2995
G01 X41.0207 Y22.2672
G01 X41.2270 Y22.2672
G01 X41.4307 Y22.2995
G01 X41.6269 Y22.3633
G01 X41.8107 Y22.4569
G01 X41.9776 Y22.5781
G01 X42.1234 Y22.7240
G01 X42.2447 Y22.8909
G01 X42.3383 Y23.0747
G01 X42.4021 Y23.2709
G01 X42.4343 Y23.4746
G01 X42.4343 Y23.6809
G01 X42.4021 Y23.8846
G01 X42.3383 Y24.0808
G01 X42.2447 Y24.2646
G01 X42.1234 Y24.4315
G01 X41.9776 Y24.5773
G01 X41.8107 Y24.6986
G01 X41.6269 Y24.7922
G01 X41.4307 Y24.8560
G01 X41.2270 Y24.8882
G01 X41.0207 Y24.8882
G01 X40.8170 Y24.8560
G01 X40.6208 Y24.7922
G01 X40.4370 Y24.6986
G01 X40.2701 Y24.5773
G01 X40.1242 Y24.4315
G01 X40.0030 Y24.2646
G01 X39.9093 Y24.0808
G01 X39.8456 Y23.8846
G01 X39.8133 Y23.6809
G01 X39.8133 Y23.4746
G01 X39.8456 Y23.2709
G01 X39.9093 Y23.0747
G01 X40.0030 Y22.8909
G01 X40.1242 Y22.7240
G00 Z1.2500
G00 X41.9601 Y23.4988
G01 F50.00
G01 Z-0.0400
G01 F100.00
G01 X41.9638 Y23.5777
G01 X41.9598 Y23.6601
G01 X41.9477 Y23.7416
G01 X41.9277 Y23.8216
G01 X41.8999 Y23.8992
G01 X41.8646 Y23.9737
G01 X41.8223 Y24.0444
G01 X41.7732 Y24.1106
G01 X41.7178 Y24.1717
G01 X41.6567 Y24.2271
G01 X41.5905 Y24.2762
G01 X41.5198 Y24.3186
G01 X41.4453 Y24.3538
G01 X41.3677 Y24.3816
G01 X41.2877 Y24.4016
G01 X41.2062 Y24.4137
G01 X41.1238 Y24.4177
G01 X41.0415 Y24.4137
G01 X40.9600 Y24.4016
G01 X40.8800 Y24.3816
G01 X40.8024 Y24.3538
G01 X40.7279 Y24.3186
G01 X40.6572 Y24.2762
G01 X40.5909 Y24.2271
G01 X40.5299 Y24.1717
G01 X40.4745 Y24.1106
G01 X40.4254 Y24.0444
G01 X40.3830 Y23.9737
G01 X40.3478 Y23.8992
G01 X40.3200 Y23.8216
G01 X40.3000 Y23.7416
G01 X40.2879 Y23.6601
G01 X40.2838 Y23.5777
G01 X40.2879 Y23.4954
G01 X40.3000 Y23.4139
G01 X40.3200 Y23.3339
G01 X40.3478 Y23.2563
G01 X40.3830 Y23.1818
G01 X40.4254 Y23.1111
G01 X40.4745 Y23.0449
G01 X40.5299 Y22.9838
G01 X40.5909 Y22.9284
G01 X40.6572 Y22.8793
G01 X40.7279 Y22.8369
G01 X40.8024 Y22.8017
G01 X40.8800 Y22.7739
G01 X40.9600 Y22.7539
G01 X41.0415 Y22.7418
G01 X41.1238 Y22.7377
G01 X41.2062 Y22.7418
G01 X41.2877 Y22.7539
G01 X41.3677 Y22.7739
G01 X41.4453 Y22.8017
G01 X41.5198 Y22.8369
G01 X41.5905 Y22.8793
G01 X41.6567 Y22.9284
G01 X41.7178 Y22.9838
G01 X41.7732 Y23.0449
G01 X41.8223 Y23.1111
G01 X41.8646 Y23.1818
G01 X41.8999 Y23.2563
G01 X41.9277 Y23.3339
G01 X41.9477 Y23.4139
G01 X41.9589 Y23.4886
G01 X41.9601 Y23.4988
G00 Z1.2500
G00 X49.9509 Y21.0639
G01 F50.00
G01 Z-0.0400
G01 F100.00
G01 X49.9604 Y21.0599
G01 X49.9702 Y21.0566
G01 X50.9235 Y20.7727
G01 X50.7428 Y19.2621
G01 X50.5397 Y17.5358
G01 X50.5349 Y17.4887
G01 X50.5316 Y17.4400
G01 X50.5299 Y17.3871
G01 X50.5302 Y17.3402
G01 X50.5321 Y17.2971
G01 X50.5354 Y17.2550
G01 X50.5410 Y17.2085
G01 X50.5485 Y17.1629
G01 X50.5566 Y17.1242
G01 X50.5660 Y17.0868
G01 X50.5786 Y17.0444
G01 X50.5931 Y17.0033
G01 X50.6068 Y16.9694
G01 X50.6232 Y16.9337
G01 X50.6428 Y16.8964
G01 X50.6604 Y16.8664
G01 X50.6791 Y16.8378
G01 X50.7033 Y16.8046
G01 X50.7292 Y16.7730
G01 X50.7515 Y16.7487
G01 X50.7747 Y16.7258
G01 X50.8048 Y16.6991
G01 X50.8364 Y16.6746
G01 X50.8626 Y16.6564
G01 X50.8896 Y16.6397
G01 X50.9245 Y16.6207
G01 X50.9531 Y16.6073
G01 X50.9937 Y16.5912
G01 X51.0236 Y16.5814
G01 X51.0580 Y16.5721
G01 X51.0929 Y16.5649
G01 X51.1284 Y16.5596
G01 X58.4164 Y15.6907
G01 X58.5154 Y15.6784
G01 X58.5324 Y15.6769
G01 X58.5497 Y15.6764
G01 X58.5671 Y15.6772
G01 X58.5809 Y15.6786
G01 X58.5991 Y15.6820
G01 X58.6136 Y15.6857
G01 X58.6247 Y15.6894
G01 X58.6395 Y15.6954
G01 X58.6538 Y15.7025
G01 X58.6669 Y15.7104
G01 X58.6794 Y15.7192
G01 X58.6890 Y15.7271
G01 X58.7001 Y15.7376
G01 X58.7109 Y15.7494
G01 X58.7208 Y15.7621
G01 X58.7294 Y15.7751
G01 X58.7371 Y15.7887
G01 X58.7434 Y15.8018
G01 X58.7486 Y15.8148
G01 X58.7543 Y15.8319
G01 X58.7576 Y15.8443
G01 X58.7608 Y15.8592
G01 X58.7652 Y15.8873
G01 X58.7678 Y15.9069
G01 X59.0882 Y18.5933
G01 X59.0899 Y18.6037
G01 X59.0907 Y18.6140
G01 X59.0908 Y18.6243
G01 X59.4045 Y21.2550
G01 X59.4099 Y21.3030
G01 X59.4121 Y21.3293
G01 X59.4129 Y21.3488
G01 X59.4129 Y21.3662
G01 X59.4121 Y21.3799
G01 X59.4102 Y21.3962
G01 X59.4072 Y21.4124
G01 X59.4031 Y21.4276
G01 X59.3992 Y21.4387
G01 X59.3949 Y21.4491
G01 X59.3865 Y21.4655
G01 X59.3786 Y21.4779
G01 X59.3704 Y21.4888
G01 X59.3607 Y21.4999
G01 X59.3477 Y21.5122
G01 X59.3334 Y21.5232
G01 X59.3244 Y21.5290
G01 X59.3119 Y21.5362
G01 X59.2978 Y21.5428
G01 X59.2810 Y21.5493
G01 X59.2615 Y21.5551
G01 X59.2353 Y21.5609
G01 X59.2141 Y21.5644
G01 X59.1637 Y21.5710
G01 X52.0447 Y22.4241
G01 X51.8264 Y22.4456
G01 X51.7868 Y22.4500
G01 X51.7436 Y22.4535
G01 X51.6968 Y22.4557
G01 X51.6587 Y22.4561
G01 X51.6193 Y22.4551
G01 X51.5812 Y22.4525
G01 X51.5442 Y22.4483
G01 X51.5084 Y22.4425
G01 X51.4737 Y22.4352
G01 X51.4401 Y22.4262
G01 X51.4077 Y22.4155
G01 X51.3779 Y22.4037
G01 X51.3506 Y22.3910
G01 X51.3194 Y22.3741
G01 X51.2947 Y22.3586
G01 X51.2689 Y22.3400
G01 X51.2616 Y22.3342
G01 X51.2400 Y22.3158
G01 X51.2176 Y22.2941
G01 X51.1969 Y22.2713
G01 X51.1763 Y22.2451
G01 X51.1614 Y22.2239
G01 X51.1457 Y22.1984
G01 X51.1315 Y22.1723
G01 X51.1188 Y22.1458
G01 X51.0976 Y22.0915
G01 X51.0809 Y22.0341
G01 X51.0695 Y21.9806
G01 X51.0612 Y21.9255
G01 X51.0257 Y21.6279
G01 X50.0287 Y21.5759
G01 X50.0185 Y21.5748
G01 X50.0084 Y21.5728
G01 X49.9984 Y21.5702
G01 X49.9855 Y21.5655
G01 X49.9761 Y21.5612
G01 X49.9671 Y21.5562
G01 X49.9584 Y21.5505
G01 X49.9503 Y21.5443
G01 X49.9426 Y21.5374
G01 X49.9354 Y21.5300
G01 X49.9267 Y21.5193
G01 X49.9209 Y21.5108
G01 X49.9157 Y21.5019
G01 X49.9099 Y21.4894
G01 X49.9053 Y21.4765
G01 X49.9027 Y21.4665
G01 X49.9004 Y21.4529
G01 X49.8711 Y21.2073
G01 X49.8705 Y21.2005
G01 X49.8702 Y21.1902
G01 X49.8706 Y21.1799
G01 X49.8718 Y21.1696
G01 X49.8730 Y21.1628
G01 X49.8754 Y21.1528
G01 X49.8786 Y21.1430
G01 X49.8824 Y21.1334
G01 X49.8870 Y21.1242
G01 X49.8922 Y21.1153
G01 X49.8981 Y21.1068
G01 X49.9046 Y21.0988
G01 X49.9116 Y21.0913
G01 X49.9192 Y21.0843
G01 X49.9273 Y21.0779
G01 X49.9358 Y21.0721
G01 X49.9448 Y21.0669
G01 X49.9509 Y21.0639
G00 Z1.2500
G00 X49.8423 Y20.5985
G01 F50.00
G01 Z-0.0400
G01 F100.00
G01 X50.1906 Y20.4948
G01 X50.2062 Y20.4891
G01 X50.2211 Y20.4816
G01 X50.2854 Y20.4401
G01 X50.2939 Y20.4342
G01 X50.2993 Y20.4298
G01 X50.3071 Y20.4228
G01 X50.3142 Y20.4152
G01 X50.3208 Y20.4072
G01 X50.3287 Y20.3957
G01 X50.3353 Y20.3835
G01 X50.3656 Y20.3167
G01 X50.3695 Y20.3072
G01 X50.3726 Y20.2974
G01 X50.3763 Y20.2808
G01 X50.3775 Y20.2706
G01 X50.3780 Y20.2604
G01 X50.3783 Y20.2249
G01 X50.3773 Y20.2105
G01 X50.2705 Y19.3175
G01 X50.0664 Y17.5814
G01 X50.0620 Y17.5382
G01 X50.0600 Y17.5146
G01 X50.0572 Y17.4732
G01 X50.0560 Y17.4489
G01 X50.0547 Y17.4086
G01 X50.0544 Y17.3836
G01 X50.0546 Y17.3446
G01 X50.0552 Y17.3188
G01 X50.0568 Y17.2809
G01 X50.0584 Y17.2545
G01 X50.0614 Y17.2179
G01 X50.0641 Y17.1908
G01 X50.0684 Y17.1554
G01 X50.0724 Y17.1277
G01 X50.0779 Y17.0936
G01 X50.0832 Y17.0653
G01 X50.0900 Y17.0324
G01 X50.0966 Y17.0037
G01 X50.1045 Y16.9721
G01 X50.1126 Y16.9428
G01 X50.1217 Y16.9125
G01 X50.1313 Y16.8829
G01 X50.1414 Y16.8539
G01 X50.1527 Y16.8240
G01 X50.1639 Y16.7963
G01 X50.1768 Y16.7663
G01 X50.1890 Y16.7398
G01 X50.2037 Y16.7098
G01 X50.2168 Y16.6846
G01 X50.2333 Y16.6547
G01 X50.2473 Y16.6308
G01 X50.2657 Y16.6011
G01 X50.2805 Y16.5785
G01 X50.3008 Y16.5492
G01 X50.3164 Y16.5279
G01 X50.3386 Y16.4992
G01 X50.3550 Y16.4792
G01 X50.3792 Y16.4512
G01 X50.3963 Y16.4325
G01 X50.4223 Y16.4055
G01 X50.4400 Y16.3880
G01 X50.4679 Y16.3621
G01 X50.4863 Y16.3459
G01 X50.5159 Y16.3213
G01 X50.5350 Y16.3064
G01 X50.5662 Y16.2833
G01 X50.5858 Y16.2696
G01 X50.6187 Y16.2481
G01 X50.6389 Y16.2357
G01 X50.6730 Y16.2160
G01 X50.6938 Y16.2048
G01 X50.7292 Y16.1871
G01 X50.7504 Y16.1772
G01 X50.7870 Y16.1614
G01 X50.8087 Y16.1528
G01 X50.8460 Y16.1392
G01 X50.8683 Y16.1319
G01 X50.9062 Y16.1205
G01 X50.9289 Y16.1144
G01 X50.9674 Y16.1053
G01 X50.9905 Y16.1005
G01 X51.0292 Y16.0936
G01 X51.0730 Y16.0874
G01 X55.7485 Y15.5299
G01 X55.7649 Y15.5269
G01 X55.7809 Y15.5220
G01 X55.8545 Y15.4907
G01 X55.8668 Y15.4843
G01 X55.8784 Y15.4767
G01 X55.8893 Y15.4679
G01 X55.8943 Y15.4632
G01 X55.9015 Y15.4556
G01 X55.9081 Y15.4475
G01 X55.9121 Y15.4419
G01 X55.9513 Y15.3840
G01 X55.9586 Y15.3721
G01 X55.9632 Y15.3626
G01 X55.9671 Y15.3529
G01 X55.9703 Y15.3429
G01 X55.9727 Y15.3327
G01 X55.9747 Y15.3189
G01 X55.9803 Y15.2597
G01 X55.9804 Y15.2497
G01 X55.9794 Y15.2365
G01 X55.8797 Y14.3999
G01 X55.8774 Y14.3784
G01 X55.8751 Y14.3436
G01 X55.8743 Y14.3023
G01 X55.8757 Y14.2645
G01 X55.8789 Y14.2269
G01 X55.8834 Y14.1930
G01 X55.8901 Y14.1564
G01 X55.8986 Y14.1202
G01 X55.9087 Y14.0849
G01 X55.9205 Y14.0502
G01 X55.9353 Y14.0132
G01 X55.9503 Y13.9803
G01 X55.9670 Y13.9481
G01 X55.9834 Y13.9197
G01 X56.0046 Y13.8866
G01 X56.0255 Y13.8574
G01 X56.0459 Y13.8316
G01 X56.0692 Y13.8045
G01 X56.0963 Y13.7761
G01 X56.1202 Y13.7534
G01 X56.1474 Y13.7298
G01 X56.1760 Y13.7072
G01 X56.2083 Y13.6844
G01 X56.2394 Y13.6646
G01 X56.2714 Y13.6465
G01 X56.3016 Y13.6311
G01 X56.3356 Y13.6159
G01 X56.3736 Y13.6011
G01 X56.4094 Y13.5893
G01 X56.4427 Y13.5801
G01 X56.4796 Y13.5717
G01 X56.5173 Y13.5652
G01 X56.5388 Y13.5623
G01 X59.0423 Y13.2638
G01 X59.0638 Y13.2616
G01 X59.0985 Y13.2592
G01 X59.1366 Y13.2584
G01 X59.1744 Y13.2596
G01 X59.2120 Y13.2626
G01 X59.2491 Y13.2675
G01 X59.2891 Y13.2749
G01 X59.3251 Y13.2835
G01 X59.3575 Y13.2929
G01 X59.3920 Y13.3046
G01 X59.4261 Y13.3181
G01 X59.4621 Y13.3345
G01 X59.4941 Y13.3511
G01 X59.5227 Y13.3676
G01 X59.5529 Y13.3869
G01 X59.5848 Y13.4096
G01 X59.6131 Y13.4320
G01 X59.6402 Y13.4556
G01 X59.6639 Y13.4782
G01 X59.6888 Y13.5043
G01 X59.7126 Y13.5316
G01 X59.7369 Y13.5627
G01 X59.7580 Y13.5926
G01 X59.7759 Y13.6207
G01 X59.7942 Y13.6527
G01 X59.8125 Y13.6887
G01 X59.8276 Y13.7227
G01 X59.8411 Y13.7577
G01 X59.8520 Y13.7904
G01 X59.8621 Y13.8268
G01 X59.8705 Y13.8638
G01 X59.8770 Y13.9014
G01 X59.8799 Y13.9230
G01 X60.0339 Y15.2160
G01 X60.0367 Y15.2551
G01 X60.0374 Y15.2965
G01 X60.0361 Y15.3343
G01 X60.0332 Y15.3687
G01 X60.0278 Y15.4089
G01 X60.0209 Y15.4457
G01 X60.0132 Y15.4785
G01 X60.0030 Y15.5139
G01 X59.9912 Y15.5486
G01 X59.9765 Y15.5856
G01 X59.9628 Y15.6156
G01 X59.9463 Y15.6479
G01 X59.9267 Y15.6819
G01 X59.9089 Y15.7095
G01 X59.8881 Y15.7389
G01 X59.8639 Y15.7696
G01 X59.8403 Y15.7967
G01 X59.8154 Y15.8226
G01 X59.7916 Y15.8454
G01 X59.7643 Y15.8690
G01 X59.7330 Y15.8935
G01 X59.7033 Y15.9145
G01 X59.6752 Y15.9324
G01 X59.6402 Y15.9524
G01 X59.6072 Y15.9691
G01 X59.5763 Y15.9829
G01 X59.5381 Y15.9977
G01 X59.5056 Y16.0085
G01 X59.4789 Y16.0161
G01 X59.4695 Y16.0196
G01 X59.4604 Y16.0237
G01 X59.4488 Y16.0302
G01 X59.3865 Y16.0689
G01 X59.3780 Y16.0750
G01 X59.3674 Y16.0840
G01 X59.3601 Y16.0914
G01 X59.3534 Y16.0993
G01 X59.3472 Y16.1078
G01 X59.3417 Y16.1166
G01 X59.3369 Y16.1259
G01 X59.3069 Y16.1890
G01 X59.3015 Y16.2019
G01 X59.2984 Y16.2119
G01 X59.2967 Y16.2186
G01 X59.2948 Y16.2289
G01 X59.2940 Y16.2359
G01 X59.2934 Y16.2463
G01 X59.2927 Y16.2805
G01 X59.2933 Y16.2967
G01 X59.5609 Y18.5412
G01 X59.5627 Y18.5660
G01 X59.8287 Y20.7969
G01 X59.8302 Y20.8068
G01 X59.8334 Y20.8197
G01 X59.8390 Y20.8354
G01 X59.8679 Y20.9028
G01 X59.8709 Y20.9091
G01 X59.8761 Y20.9181
G01 X59.8819 Y20.9268
G01 X59.8861 Y20.9323
G01 X59.8906 Y20.9376
G01 X59.8978 Y20.9452
G01 X59.9029 Y20.9499
G01 X59.9110 Y20.9564
G01 X59.9745 Y20.9997
G01 X59.9865 Y21.0069
G01 X59.9991 Y21.0129
G01 X60.0056 Y21.0155
G01 X60.0156 Y21.0186
G01 X60.0258 Y21.0211
G01 X60.0629 Y21.0275
G01 X60.0757 Y21.0291
G01 X60.1042 Y21.0303
G01 X60.1420 Y21.0335
G01 X60.1789 Y21.0386
G01 X60.2125 Y21.0448
G01 X60.2517 Y21.0540
G01 X60.2840 Y21.0634
G01 X60.3186 Y21.0752
G01 X60.3555 Y21.0899
G01 X60.3886 Y21.1050
G01 X60.4208 Y21.1217
G01 X60.4519 Y21.1397
G01 X60.4822 Y21.1593
G01 X60.5114 Y21.1802
G01 X60.5397 Y21.2025
G01 X60.5668 Y21.2261
G01 X60.5928 Y21.2511
G01 X60.6175 Y21.2772
G01 X60.6392 Y21.3022
G01 X60.6615 Y21.3306
G01 X60.6827 Y21.3604
G01 X60.7041 Y21.3940
G01 X60.7224 Y21.4261
G01 X60.7391 Y21.4592
G01 X60.7542 Y21.4932
G01 X60.7666 Y21.5251
G01 X60.7785 Y21.5608
G01 X60.7887 Y21.5974
G01 X60.7977 Y21.6377
G01 X60.8036 Y21.6720
G01 X60.8065 Y21.6935
G01 X60.9586 Y22.9694
G01 X60.9609 Y22.9909
G01 X60.9634 Y23.0290
G01 X60.9640 Y23.0671
G01 X60.9626 Y23.1047
G01 X60.9594 Y23.1425
G01 X60.9544 Y23.1794
G01 X60.9475 Y23.2162
G01 X60.9389 Y23.2522
G01 X60.9286 Y23.2876
G01 X60.9167 Y23.3221
G01 X60.9030 Y23.3562
G01 X60.8880 Y23.3890
G01 X60.8729 Y23.4184
G01 X60.8532 Y23.4524
G01 X60.8337 Y23.4827
G01 X60.8128 Y23.5119
G01 X60.7905 Y23.5402
G01 X60.7691 Y23.5648
G01 X60.7420 Y23.5932
G01 X60.7157 Y23.6181
G01 X60.6883 Y23.6417
G01 X60.6597 Y23.6640
G01 X60.6298 Y23.6850
G01 X60.6018 Y23.7029
G01 X60.5697 Y23.7213
G01 X60.5337 Y23.7396
G01 X60.4997 Y23.7547
G01 X60.4648 Y23.7682
G01 X60.4321 Y23.7790
G01 X60.3957 Y23.7892
G01 X60.3552 Y23.7983
G01 X60.3210 Y23.8041
G01 X60.2995 Y23.8070
G01 X57.7789 Y24.1073
G01 X57.7399 Y24.1101
G01 X57.7016 Y24.1109
G01 X57.6640 Y24.1097
G01 X57.6262 Y24.1067
G01 X57.5892 Y24.1018
G01 X57.5524 Y24.0951
G01 X57.5163 Y24.0866
G01 X57.4778 Y24.0755
G01 X57.4433 Y24.0636
G01 X57.4093 Y24.0499
G01 X57.3764 Y24.0349
G01 X57.3440 Y24.0181
G01 X57.3129 Y24.0001
G01 X57.2827 Y23.9806
G01 X57.2535 Y23.9597
G01 X57.2253 Y23.9374
G01 X57.1982 Y23.9138
G01 X57.1721 Y23.8888
G01 X57.1474 Y23.8627
G01 X57.1236 Y23.8351
G01 X57.1015 Y23.8067
G01 X57.0804 Y23.7768
G01 X57.0607 Y23.7458
G01 X57.0426 Y23.7139
G01 X57.0258 Y23.6807
G01 X57.0106 Y23.6465
G01 X56.9972 Y23.6116
G01 X56.9864 Y23.5790
G01 X56.9754 Y23.5393
G01 X56.9672 Y23.5022
G01 X56.9613 Y23.4678
G01 X56.9584 Y23.4463
G01 X56.8566 Y22.5924
G01 X56.8544 Y22.5793
G01 X56.8499 Y22.5633
G01 X56.8463 Y22.5539
G01 X56.8188 Y22.4897
G01 X56.8159 Y22.4834
G01 X56.8110 Y22.4742
G01 X56.8054 Y22.4654
G01 X56.7969 Y22.4543
G01 X56.7875 Y22.4442
G01 X56.7770 Y22.4350
G01 X56.7686 Y22.4289
G01 X56.7078 Y22.3877
G01 X56.6957 Y22.3808
G01 X56.6829 Y22.3751
G01 X56.6696 Y22.3707
G01 X56.6628 Y22.3690
G01 X56.6525 Y22.3671
G01 X56.5897 Y22.3609
G01 X56.5763 Y22.3606
G01 X56.5630 Y22.3616
G01 X52.1020 Y22.8961
G01 X51.8778 Y22.9183
G01 X51.8406 Y22.9224
G01 X51.7829 Y22.9274
G01 X51.7602 Y22.9289
G01 X51.7255 Y22.9305
G01 X51.7010 Y22.9312
G01 X51.6682 Y22.9316
G01 X51.6419 Y22.9314
G01 X51.6109 Y22.9305
G01 X51.5827 Y22.9292
G01 X51.5535 Y22.9272
G01 X51.5234 Y22.9245
G01 X51.4960 Y22.9214
G01 X51.4640 Y22.9171
G01 X51.4382 Y22.9129
G01 X51.4044 Y22.9066
G01 X51.3804 Y22.9015
G01 X51.3449 Y22.8930
G01 X51.3224 Y22.8870
G01 X51.2856 Y22.8760
G01 X51.2647 Y22.8691
G01 X51.2267 Y22.8553
G01 X51.2073 Y22.8476
G01 X51.1686 Y22.8309
G01 X51.1506 Y22.8224
G01 X51.1118 Y22.8026
G01 X51.0950 Y22.7934
G01 X51.0566 Y22.7707
G01 X51.0411 Y22.7608
G01 X51.0036 Y22.7351
G01 X50.9892 Y22.7245
G01 X50.9534 Y22.6963
G01 X50.9399 Y22.6850
G01 X50.9062 Y22.6546
G01 X50.8937 Y22.6425
G01 X50.8625 Y22.6104
G01 X50.8508 Y22.5977
G01 X50.8225 Y22.5644
G01 X50.8116 Y22.5509
G01 X50.7862 Y22.5171
G01 X50.7761 Y22.5027
G01 X50.7538 Y22.4689
G01 X50.7444 Y22.4538
G01 X50.7250 Y22.4204
G01 X50.7164 Y22.4044
G01 X50.6998 Y22.3719
G01 X50.6921 Y22.3558
G01 X50.6721 Y22.3096
G01 X50.6577 Y22.2725
G01 X50.6480 Y22.2446
G01 X50.6440 Y22.2354
G01 X50.6394 Y22.2266
G01 X50.6322 Y22.2153
G01 X50.5920 Y22.1582
G01 X50.5857 Y22.1499
G01 X50.5788 Y22.1421
G01 X50.5687 Y22.1325
G01 X50.5605 Y22.1260
G01 X50.5519 Y22.1202
G01 X50.5429 Y22.1150
G01 X50.5335 Y22.1104
G01 X50.4624 Y22.0815
G01 X50.4497 Y22.0774
G01 X50.4334 Y22.0740
G01 X50.4141 Y22.0722
G01 X50.0143 Y22.0514
G01 X49.8645 Y22.0255
G01 X49.7334 Y21.9693
G01 X49.6188 Y21.8843
G01 X49.5268 Y21.7752
G01 X49.4625 Y21.6479
G01 X49.4273 Y21.5011
G01 X49.3997 Y21.2692
G01 X49.3999 Y21.1185
G01 X49.4330 Y20.9797
G01 X49.4972 Y20.8523
G01 X49.5891 Y20.7431
G01 X49.7037 Y20.6581
G01 X49.8423 Y20.5985
G00 Z1.2500
G00 X52.7279 Y20.5414
G01 F50.00
G01 Z-0.0400
G01 F100.00
G01 X52.7352 Y20.5177
G01 X52.7436 Y20.4944
G01 X52.7532 Y20.4715
G01 X52.7639 Y20.4491
G01 X52.7757 Y20.4272
G01 X52.7886 Y20.4058
G01 X52.8026 Y20.3850
G01 X52.8177 Y20.3648
G01 X52.8337 Y20.3454
G01 X52.8507 Y20.3269
G01 X52.8684 Y20.3094
G01 X52.8869 Y20.2927
G01 X52.9062 Y20.2771
G01 X52.9262 Y20.2624
G01 X52.9469 Y20.2487
G01 X52.9682 Y20.2361
G01 X52.9901 Y20.2245
G01 X53.0125 Y20.2139
G01 X53.0355 Y20.2045
G01 X53.0589 Y20.1962
G01 X53.0827 Y20.1891
G01 X53.1070 Y20.1831
G01 X53.1316 Y20.1783
G01 X53.1565 Y20.1747
G01 X53.1816 Y20.1723
G01 X53.2067 Y20.1712
G01 X53.2316 Y20.1713
G01 X53.2565 Y20.1727
G01 X53.2812 Y20.1752
G01 X53.3057 Y20.1790
G01 X53.3300 Y20.1839
G01 X53.3540 Y20.1900
G01 X53.3777 Y20.1973
G01 X53.4010 Y20.2058
G01 X53.4239 Y20.2153
G01 X53.4463 Y20.2260
G01 X53.4682 Y20.2378
G01 X53.4896 Y20.2507
G01 X53.5104 Y20.2647
G01 X53.5306 Y20.2798
G01 X53.5500 Y20.2959
G01 X53.5685 Y20.3128
G01 X53.5861 Y20.3306
G01 X53.6027 Y20.3491
G01 X53.6184 Y20.3684
G01 X53.6330 Y20.3884
G01 X53.6467 Y20.4090
G01 X53.6594 Y20.4303
G01 X53.6710 Y20.4522
G01 X53.6815 Y20.4746
G01 X53.6909 Y20.4976
G01 X53.6992 Y20.5210
G01 X53.7063 Y20.5449
G01 X53.7123 Y20.5691
G01 X53.7171 Y20.5937
G01 X53.7207 Y20.6186
G01 X53.7232 Y20.6448
G01 X53.7243 Y20.6707
G01 X53.7241 Y20.6963
G01 X53.7226 Y20.7216
G01 X53.7199 Y20.7466
G01 X53.7160 Y20.7713
G01 X53.7108 Y20.7956
G01 X53.7046 Y20.8195
G01 X53.6971 Y20.8430
G01 X53.6886 Y20.8661
G01 X53.6790 Y20.8886
G01 X53.6683 Y20.9106
G01 X53.6566 Y20.9321
G01 X53.6439 Y20.9529
G01 X53.6302 Y20.9731
G01 X53.6156 Y20.9927
G01 X53.6000 Y21.0115
G01 X53.5836 Y21.0295
G01 X53.5663 Y21.0468
G01 X53.5482 Y21.0632
G01 X53.5293 Y21.0788
G01 X53.5097 Y21.0934
G01 X53.4893 Y21.1071
G01 X53.4682 Y21.1198
G01 X53.4464 Y21.1316
G01 X53.4240 Y21.1423
G01 X53.4009 Y21.1519
G01 X53.3773 Y21.1604
G01 X53.3530 Y21.1678
G01 X53.3281 Y21.1740
G01 X53.3027 Y21.1790
G01 X53.2767 Y21.1828
G01 X53.2506 Y21.1852
G01 X53.2247 Y21.1864
G01 X53.1991 Y21.1862
G01 X53.1738 Y21.1847
G01 X53.1488 Y21.1820
G01 X53.1241 Y21.1780
G01 X53.0998 Y21.1729
G01 X53.0758 Y21.1666
G01 X53.0524 Y21.1592
G01 X53.0293 Y21.1507
G01 X53.0068 Y21.1411
G01 X52.9847 Y21.1304
G01 X52.9633 Y21.1187
G01 X52.9424 Y21.1060
G01 X52.9222 Y21.0923
G01 X52.9027 Y21.0777
G01 X52.8839 Y21.0621
G01 X52.8658 Y21.0457
G01 X52.8486 Y21.0284
G01 X52.8322 Y21.0103
G01 X52.8166 Y20.9914
G01 X52.8020 Y20.9718
G01 X52.7882 Y20.9514
G01 X52.7755 Y20.9303
G01 X52.7638 Y20.9085
G01 X52.7531 Y20.8861
G01 X52.7434 Y20.8631
G01 X52.7349 Y20.8394
G01 X52.7275 Y20.8151
G01 X52.7213 Y20.7903
G01 X52.7163 Y20.7649
G01 X52.7125 Y20.7388
G01 X52.7102 Y20.7138
G01 X52.7091 Y20.6888
G01 X52.7092 Y20.6638
G01 X52.7105 Y20.6389
G01 X52.7131 Y20.6142
G01 X52.7168 Y20.5897
G01 X52.7218 Y20.5654
G01 X52.7279 Y20.5414
G00 Z1.2500
G00 X52.4140 Y17.9093
G01 F50.00
G01 Z-0.0400
G01 F100.00
G01 X52.4213 Y17.8856
G01 X52.4297 Y17.8623
G01 X52.4393 Y17.8394
G01 X52.4500 Y17.8170
G01 X52.4618 Y17.7951
G01 X52.4747 Y17.7737
G01 X52.4887 Y17.7529
G01 X52.5038 Y17.7327
G01 X52.5199 Y17.7133
G01 X52.5368 Y17.6948
G01 X52.5545 Y17.6772
G01 X52.5731 Y17.6606
G01 X52.5924 Y17.6449
G01 X52.6124 Y17.6303
G01 X52.6330 Y17.6166
G01 X52.6543 Y17.6039
G01 X52.6762 Y17.5923
G01 X52.6986 Y17.5818
G01 X52.7216 Y17.5724
G01 X52.7450 Y17.5641
G01 X52.7689 Y17.5570
G01 X52.7931 Y17.5510
G01 X52.8177 Y17.5462
G01 X52.8427 Y17.5426
G01 X52.8678 Y17.5402
G01 X52.8928 Y17.5391
G01 X52.9178 Y17.5392
G01 X52.9426 Y17.5405
G01 X52.9674 Y17.5431
G01 X52.9919 Y17.5469
G01 X53.0162 Y17.5518
G01 X53.0402 Y17.5579
G01 X53.0638 Y17.5652
G01 X53.0871 Y17.5736
G01 X53.1100 Y17.5832
G01 X53.1324 Y17.5939
G01 X53.1544 Y17.6057
G01 X53.1757 Y17.6186
G01 X53.1965 Y17.6326
G01 X53.2167 Y17.6477
G01 X53.2361 Y17.6638
G01 X53.2546 Y17.6807
G01 X53.2722 Y17.6984
G01 X53.2888 Y17.7170
G01 X53.3045 Y17.7362
G01 X53.3192 Y17.7562
G01 X53.3329 Y17.7769
G01 X53.3455 Y17.7982
G01 X53.3571 Y17.8201
G01 X53.3676 Y17.8425
G01 X53.3770 Y17.8655
G01 X53.3853 Y17.8889
G01 X53.3925 Y17.9127
G01 X53.3985 Y17.9370
G01 X53.4033 Y17.9616
G01 X53.4069 Y17.9865
G01 X53.4092 Y18.0116
G01 X53.4103 Y18.0367
G01 X53.4102 Y18.0616
G01 X53.4089 Y18.0865
G01 X53.4063 Y18.1112
G01 X53.4026 Y18.1357
G01 X53.3976 Y18.1600
G01 X53.3915 Y18.1840
G01 X53.3842 Y18.2077
G01 X53.3758 Y18.2310
G01 X53.3662 Y18.2539
G01 X53.3555 Y18.2763
G01 X53.3437 Y18.2982
G01 X53.3308 Y18.3196
G01 X53.3168 Y18.3404
G01 X53.3017 Y18.3606
G01 X53.2857 Y18.3800
G01 X53.2688 Y18.3985
G01 X53.2510 Y18.4161
G01 X53.2325 Y18.4327
G01 X53.2132 Y18.4484
G01 X53.1932 Y18.4631
G01 X53.1725 Y18.4767
G01 X53.1512 Y18.4894
G01 X53.1293 Y18.5010
G01 X53.1069 Y18.5115
G01 X53.0840 Y18.5209
G01 X53.0605 Y18.5292
G01 X53.0367 Y18.5364
G01 X53.0124 Y18.5423
G01 X52.9878 Y18.5472
G01 X52.9629 Y18.5508
G01 X52.9378 Y18.5531
G01 X52.9128 Y18.5542
G01 X52.8878 Y18.5541
G01 X52.8629 Y18.5528
G01 X52.8382 Y18.5502
G01 X52.8137 Y18.5464
G01 X52.7894 Y18.5415
G01 X52.7654 Y18.5354
G01 X52.7417 Y18.5281
G01 X52.7184 Y18.5197
G01 X52.6955 Y18.5101
G01 X52.6731 Y18.4994
G01 X52.6512 Y18.4876
G01 X52.6298 Y18.4747
G01 X52.6090 Y18.4607
G01 X52.5888 Y18.4456
G01 X52.5694 Y18.4295
G01 X52.5509 Y18.4126
G01 X52.5333 Y18.3949
G01 X52.5167 Y18.3763
G01 X52.5010 Y18.3571
G01 X52.4864 Y18.3371
G01 X52.4727 Y18.3164
G01 X52.4600 Y18.2951
G01 X52.4485 Y18.2732
G01 X52.4379 Y18.2508
G01 X52.4285 Y18.2278
G01 X52.4202 Y18.2044
G01 X52.4131 Y18.1806
G01 X52.4071 Y18.1563
G01 X52.4023 Y18.1317
G01 X52.3987 Y18.1068
G01 X52.3963 Y18.0817
G01 X52.3952 Y18.0566
G01 X52.3953 Y18.0317
G01 X52.3967 Y18.0068
G01 X52.3992 Y17.9821
G01 X52.4030 Y17.9576
G01 X52.4079 Y17.9333
G01 X52.4140 Y17.9093
G00 Z1.2500
G00 X59.3210 Y15.5637
G01 F50.00
G01 Z-0.0400
G01 F100.00
G01 X56.8088 Y15.8633
G01 X56.7877 Y15.8647
G01 X56.7702 Y15.8647
G01 X56.7528 Y15.8636
G01 X56.7324 Y15.8609
G01 X56.7156 Y15.8575
G01 X56.6992 Y15.8530
G01 X56.6801 Y15.8465
G01 X56.6646 Y15.8400
G01 X56.6526 Y15.8342
G01 X56.6380 Y15.8261
G01 X56.6213 Y15.8154
G01 X56.6080 Y15.8055
G01 X56.5952 Y15.7948
G01 X56.5808 Y15.7811
G01 X56.5696 Y15.7688
G01 X56.5611 Y15.7585
G01 X56.5511 Y15.7450
G01 X56.5403 Y15.7280
G01 X56.5321 Y15.7131
G01 X56.5262 Y15.7007
G01 X56.5197 Y15.6848
G01 X56.5132 Y15.6651
G01 X56.5088 Y15.6482
G01 X56.5061 Y15.6344
G01 X56.5041 Y15.6204
G01 X56.3507 Y14.3322
G01 X56.3498 Y14.3146
G01 X56.3501 Y14.2971
G01 X56.3518 Y14.2765
G01 X56.3544 Y14.2595
G01 X56.3572 Y14.2461
G01 X56.3616 Y14.2297
G01 X56.3682 Y14.2106
G01 X56.3746 Y14.1951
G01 X56.3805 Y14.1831
G01 X56.3886 Y14.1685
G01 X56.3993 Y14.1518
G01 X56.4092 Y14.1384
G01 X56.4198 Y14.1257
G01 X56.4335 Y14.1114
G01 X56.4458 Y14.1001
G01 X56.4588 Y14.0895
G01 X56.4752 Y14.0779
G01 X56.4896 Y14.0691
G01 X56.5016 Y14.0626
G01 X56.5171 Y14.0554
G01 X56.5363 Y14.0479
G01 X56.5529 Y14.0427
G01 X56.5665 Y14.0393
G01 X56.5838 Y14.0361
G01 X59.1030 Y13.7355
G01 X59.1241 Y13.7340
G01 X59.1416 Y13.7340
G01 X59.1590 Y13.7352
G01 X59.1793 Y13.7379
G01 X59.1961 Y13.7413
G01 X59.2126 Y13.7458
G01 X59.2316 Y13.7523
G01 X59.2471 Y13.7588
G01 X59.2591 Y13.7646
G01 X59.2737 Y13.7727
G01 X59.2904 Y13.7834
G01 X59.3038 Y13.7933
G01 X59.3165 Y13.8040
G01 X59.3309 Y13.8177
G01 X59.3422 Y13.8300
G01 X59.3507 Y13.8403
G01 X59.3587 Y13.8510
G01 X59.3680 Y13.8651
G01 X59.3780 Y13.8826
G01 X59.3840 Y13.8949
G01 X59.3908 Y13.9107
G01 X59.3955 Y13.9237
G01 X59.3995 Y13.9370
G01 X59.4036 Y13.9540
G01 X59.4056 Y13.9644
G01 X59.4077 Y13.9784
G01 X59.5600 Y15.2560
G01 X59.5613 Y15.2701
G01 X59.5618 Y15.2806
G01 X59.5617 Y15.3016
G01 X59.5610 Y15.3120
G01 X59.5590 Y15.3292
G01 X59.5574 Y15.3393
G01 X59.5545 Y15.3527
G01 X59.5511 Y15.3658
G01 X59.5470 Y15.3787
G01 X59.5424 Y15.3913
G01 X59.5371 Y15.4037
G01 X59.5313 Y15.4157
G01 X59.5249 Y15.4274
G01 X59.5180 Y15.4387
G01 X59.5105 Y15.4497
G01 X59.5026 Y15.4603
G01 X59.4941 Y15.4706
G01 X59.4852 Y15.4804
G01 X59.4758 Y15.4898
G01 X59.4659 Y15.4987
G01 X59.4556 Y15.5072
G01 X59.4448 Y15.5152
G01 X59.4337 Y15.5227
G01 X59.4221 Y15.5297
G01 X59.4132 Y15.5346
G01 X59.4010 Y15.5406
G01 X59.3884 Y15.5460
G01 X59.3688 Y15.5531
G01 X59.3588 Y15.5561
G01 X59.3453 Y15.5595
G01 X59.3315 Y15.5622
G01 X59.3210 Y15.5637
G00 Z1.2500
G00 X57.4635 Y23.4926
G01 F50.00
G01 Z-0.0400
G01 F100.00
G01 X57.4587 Y23.4836
G01 X57.4528 Y23.4713
G01 X57.4475 Y23.4586
G01 X57.4429 Y23.4456
G01 X57.4388 Y23.4323
G01 X57.4354 Y23.4187
G01 X57.4327 Y23.4049
G01 X57.4311 Y23.3944
G01 X57.2783 Y22.1133
G01 X57.2770 Y22.0992
G01 X57.2765 Y22.0887
G01 X57.2765 Y22.0712
G01 X57.2776 Y22.0538
G01 X57.2804 Y22.0334
G01 X57.2838 Y22.0166
G01 X57.2872 Y22.0035
G01 X57.2924 Y21.9874
G01 X57.2999 Y21.9687
G01 X57.3071 Y21.9536
G01 X57.3151 Y21.9391
G01 X57.3259 Y21.9223
G01 X57.3357 Y21.9090
G01 X57.3464 Y21.8963
G01 X57.3601 Y21.8819
G01 X57.3724 Y21.8706
G01 X57.3854 Y21.8600
G01 X57.4018 Y21.8484
G01 X57.4162 Y21.8396
G01 X57.4282 Y21.8331
G01 X57.4405 Y21.8273
G01 X57.4564 Y21.8208
G01 X57.4761 Y21.8142
G01 X57.4896 Y21.8107
G01 X57.5068 Y21.8071
G01 X57.5208 Y21.8051
G01 X60.0260 Y21.5064
G01 X60.0401 Y21.5051
G01 X60.0577 Y21.5044
G01 X60.0785 Y21.5051
G01 X60.0958 Y21.5069
G01 X60.1128 Y21.5097
G01 X60.1325 Y21.5144
G01 X60.1487 Y21.5194
G01 X60.1645 Y21.5253
G01 X60.1827 Y21.5336
G01 X60.1974 Y21.5415
G01 X60.2115 Y21.5503
G01 X60.2304 Y21.5638
G01 X60.2431 Y21.5745
G01 X60.2575 Y21.5882
G01 X60.2688 Y21.6005
G01 X60.2793 Y21.6135
G01 X60.2909 Y21.6299
G01 X60.2998 Y21.6443
G01 X60.3062 Y21.6562
G01 X60.3121 Y21.6686
G01 X60.3186 Y21.6845
G01 X60.3251 Y21.7041
G01 X60.3287 Y21.7177
G01 X60.3322 Y21.7349
G01 X60.3338 Y21.7454
G01 X60.4866 Y23.0265
G01 X60.4881 Y23.0442
G01 X60.4885 Y23.0652
G01 X60.4876 Y23.0825
G01 X60.4856 Y23.0997
G01 X60.4819 Y23.1198
G01 X60.4777 Y23.1363
G01 X60.4725 Y23.1524
G01 X60.4650 Y23.1711
G01 X60.4578 Y23.1862
G01 X60.4498 Y23.2008
G01 X60.4390 Y23.2175
G01 X60.4291 Y23.2309
G01 X60.4185 Y23.2436
G01 X60.4048 Y23.2580
G01 X60.3925 Y23.2693
G01 X60.3795 Y23.2798
G01 X60.3631 Y23.2914
G01 X60.3487 Y23.3003
G01 X60.3367 Y23.3067
G01 X60.3244 Y23.3126
G01 X60.3085 Y23.3191
G01 X60.2888 Y23.3256
G01 X60.2753 Y23.3292
G01 X60.2580 Y23.3327
G01 X60.2441 Y23.3347
G01 X57.7389 Y23.6335
G01 X57.7248 Y23.6348
G01 X57.7072 Y23.6354
G01 X57.6967 Y23.6353
G01 X57.6829 Y23.6345
G01 X57.6657 Y23.6325
G01 X57.6456 Y23.6288
G01 X57.6291 Y23.6246
G01 X57.6130 Y23.6193
G01 X57.5943 Y23.6119
G01 X57.5762 Y23.6031
G01 X57.5561 Y23.5914
G01 X57.5425 Y23.5820
G01 X57.5243 Y23.5676
G01 X57.5121 Y23.5563
G01 X57.4961 Y23.5394
G01 X57.4856 Y23.5264
G01 X57.4796 Y23.5183
G01 X57.4721 Y23.5071
G01 X57.4635 Y23.4926
G00 Z1.2500
G00 X43.4993 Y36.4074
G01 F50.00
G01 Z-0.0400
G01 F100.00
G01 X43.5031 Y36.4863
G01 X43.4990 Y36.5686
G01 X43.4869 Y36.6502
G01 X43.4669 Y36.7301
G01 X43.4391 Y36.8077
G01 X43.4039 Y36.8823
G01 X43.3615 Y36.9530
G01 X43.3124 Y37.0192
G01 X43.2571 Y37.0803
G01 X43.1960 Y37.1356
G01 X43.1298 Y37.1847
G01 X43.0591 Y37.2271
G01 X42.9845 Y37.2624
G01 X42.9069 Y37.2901
G01 X42.8270 Y37.3102
G01 X42.7454 Y37.3222
G01 X42.6631 Y37.3263
G01 X42.5807 Y37.3222
G01 X42.4992 Y37.3102
G01 X42.4192 Y37.2901
G01 X42.3416 Y37.2624
G01 X42.2671 Y37.2271
G01 X42.1964 Y37.1847
G01 X42.1302 Y37.1356
G01 X42.0691 Y37.0803
G01 X42.0138 Y37.0192
G01 X41.9646 Y36.9530
G01 X41.9223 Y36.8823
G01 X41.8870 Y36.8077
G01 X41.8593 Y36.7301
G01 X41.8392 Y36.6502
G01 X41.8271 Y36.5686
G01 X41.8231 Y36.4863
G01 X41.8271 Y36.4040
G01 X41.8392 Y36.3224
G01 X41.8593 Y36.2425
G01 X41.8870 Y36.1648
G01 X41.9223 Y36.0903
G01 X41.9646 Y36.0196
G01 X42.0138 Y35.9534
G01 X42.0691 Y35.8923
G01 X42.1302 Y35.8370
G01 X42.1964 Y35.7879
G01 X42.2671 Y35.7455
G01 X42.3416 Y35.7102
G01 X42.4192 Y35.6825
G01 X42.4992 Y35.6624
G01 X42.5807 Y35.6503
G01 X42.6631 Y35.6463
G01 X42.7454 Y35.6503
G01 X42.8270 Y35.6624
G01 X42.9069 Y35.6825
G01 X42.9845 Y35.7102
G01 X43.0591 Y35.7455
G01 X43.1298 Y35.7879
G01 X43.1960 Y35.8370
G01 X43.2571 Y35.8923
G01 X43.3124 Y35.9534
G01 X43.3615 Y36.0196
G01 X43.4039 Y36.0903
G01 X43.4391 Y36.1648
G01 X43.4669 Y36.2425
G01 X43.4869 Y36.3224
G01 X43.4982 Y36.3971
G01 X43.4993 Y36.4074
G00 Z1.2500
G00 X41.5295 Y37.3997
G01 F50.00
G01 Z-0.0400
G01 F100.00
G01 X41.5394 Y37.3979
G01 X41.5494 Y37.3968
G01 X41.6191 Y37.3918
G01 X41.6330 Y37.3915
G01 X41.6400 Y37.3919
G01 X41.6503 Y37.3931
G01 X41.6639 Y37.3959
G01 X41.6772 Y37.4000
G01 X41.6900 Y37.4054
G01 X41.7575 Y37.4421
G01 X41.7716 Y37.4509
G01 X41.7846 Y37.4614
G01 X41.8094 Y37.4859
G01 X41.9762 Y37.6071
G01 X42.1600 Y37.7008
G01 X42.3562 Y37.7645
G01 X42.5599 Y37.7968
G01 X42.7662 Y37.7968
G01 X42.9700 Y37.7645
G01 X43.1661 Y37.7008
G01 X43.3499 Y37.6071
G01 X43.5168 Y37.4859
G01 X43.6627 Y37.3400
G01 X43.7839 Y37.1731
G01 X43.8776 Y36.9894
G01 X43.9413 Y36.7932
G01 X43.9736 Y36.5894
G01 X43.9736 Y36.3832
G01 X43.9413 Y36.1794
G01 X43.8795 Y35.9887
G01 X43.8737 Y35.9653
G01 X43.8718 Y35.9548
G01 X43.8705 Y35.9406
G01 X43.8706 Y35.9264
G01 X43.8800 Y35.8430
G01 X43.8812 Y35.8361
G01 X43.8838 Y35.8260
G01 X43.8871 Y35.8161
G01 X43.8912 Y35.8065
G01 X43.8942 Y35.8003
G01 X43.8994 Y35.7913
G01 X43.9074 Y35.7798
G01 X43.9558 Y35.7204
G01 X43.9649 Y35.7107
G01 X43.9723 Y35.7040
G01 X43.9829 Y35.6959
G01 X51.3401 Y30.6378
G01 X51.3743 Y30.6149
G01 X51.3869 Y30.6071
G01 X51.4553 Y30.5682
G01 X51.4728 Y30.5591
G01 X51.5440 Y30.5264
G01 X51.5594 Y30.5200
G01 X51.6389 Y30.4914
G01 X51.6577 Y30.4857
G01 X51.7364 Y30.4650
G01 X51.7527 Y30.4616
G01 X51.8300 Y30.4482
G01 X51.8495 Y30.4458
G01 X51.9279 Y30.4390
G01 X51.9426 Y30.4383
G01 X51.9837 Y30.4379
G01 X58.2938 Y30.4379
G01 X58.3374 Y30.4383
G01 X58.3524 Y30.4391
G01 X58.4318 Y30.4460
G01 X58.4547 Y30.4490
G01 X58.5300 Y30.4623
G01 X58.5524 Y30.4672
G01 X58.6263 Y30.4870
G01 X58.6425 Y30.4920
G01 X58.7258 Y30.5223
G01 X58.7414 Y30.5289
G01 X58.8162 Y30.5639
G01 X58.8311 Y30.5719
G01 X58.8973 Y30.6101
G01 X58.9167 Y30.6225
G01 X58.9794 Y30.6663
G01 X58.9976 Y30.6803
G01 X59.0562 Y30.7295
G01 X59.0688 Y30.7408
G01 X59.1273 Y30.7991
G01 X59.1388 Y30.8115
G01 X59.1958 Y30.8794
G01 X59.2060 Y30.8929
G01 X59.2498 Y30.9556
G01 X59.2622 Y30.9750
G01 X59.3004 Y31.0412
G01 X59.3111 Y31.0616
G01 X59.3434 Y31.1309
G01 X59.3500 Y31.1465
G01 X59.3794 Y31.2269
G01 X59.3853 Y31.2460
G01 X59.4065 Y31.3258
G01 X59.4101 Y31.3424
G01 X59.4238 Y31.4207
G01 X59.4263 Y31.4405
G01 X59.4333 Y31.5200
G01 X59.4340 Y31.5350
G01 X59.4344 Y31.5759
G01 X59.4344 Y37.7289
G01 X59.4340 Y37.7726
G01 X59.4330 Y37.7904
G01 X59.4256 Y37.8735
G01 X59.4232 Y37.8904
G01 X59.4099 Y37.9660
G01 X59.4048 Y37.9885
G01 X59.3849 Y38.0626
G01 X59.3779 Y38.0847
G01 X59.3516 Y38.1568
G01 X59.3452 Y38.1725
G01 X59.3101 Y38.2476
G01 X59.3024 Y38.2627
G01 X59.2609 Y38.3345
G01 X59.2519 Y38.3489
G01 X59.2006 Y38.4217
G01 X59.1901 Y38.4350
G01 X59.1406 Y38.4937
G01 X59.1271 Y38.5085
G01 X59.0681 Y38.5672
G01 X59.0571 Y38.5773
G01 X59.0237 Y38.6057
G01 X44.4227 Y50.7732
G01 X44.3891 Y50.8007
G01 X44.3749 Y50.8112
G01 X44.3120 Y50.8550
G01 X44.2979 Y50.8641
G01 X44.2213 Y50.9081
G01 X44.2063 Y50.9157
G01 X44.1317 Y50.9501
G01 X44.1161 Y50.9564
G01 X44.0445 Y50.9823
G01 X44.0227 Y50.9892
G01 X43.9491 Y51.0088
G01 X43.9268 Y51.0137
G01 X43.8518 Y51.0269
G01 X43.8352 Y51.0292
G01 X43.7527 Y51.0365
G01 X43.7326 Y51.0375
G01 X43.6917 Y51.0379
G01 X32.3550 Y51.0379
G01 X32.3115 Y51.0374
G01 X32.2965 Y51.0367
G01 X32.2170 Y51.0298
G01 X32.1972 Y51.0273
G01 X32.1189 Y51.0135
G01 X32.1024 Y51.0100
G01 X32.0225 Y50.9887
G01 X32.0035 Y50.9828
G01 X31.9287 Y50.9556
G01 X31.9131 Y50.9493
G01 X31.8382 Y50.9145
G01 X31.8231 Y50.9069
G01 X31.7463 Y50.8625
G01 X31.7321 Y50.8533
G01 X31.6670 Y50.8076
G01 X31.6512 Y50.7954
G01 X31.5926 Y50.7463
G01 X31.5801 Y50.7349
G01 X31.5216 Y50.6766
G01 X31.5061 Y50.6597
G01 X31.4569 Y50.6011
G01 X31.4465 Y50.5878
G01 X31.3990 Y50.5202
G01 X31.3867 Y50.5008
G01 X31.3455 Y50.4292
G01 X31.3378 Y50.4142
G01 X31.3055 Y50.3448
G01 X31.2967 Y50.3236
G01 X31.2685 Y50.2459
G01 X31.2636 Y50.2298
G01 X31.2438 Y50.1559
G01 X31.2388 Y50.1334
G01 X31.2246 Y50.0521
G01 X31.2225 Y50.0353
G01 X31.2158 Y49.9585
G01 X31.2149 Y49.9408
G01 X31.2144 Y49.8973
G01 X31.2144 Y45.0745
G01 X31.2150 Y45.0279
G01 X31.2158 Y45.0127
G01 X31.2234 Y44.9291
G01 X31.2257 Y44.9123
G01 X31.2393 Y44.8363
G01 X31.2443 Y44.8136
G01 X31.2645 Y44.7392
G01 X31.2715 Y44.7170
G01 X31.2981 Y44.6446
G01 X31.3046 Y44.6288
G01 X31.3400 Y44.5534
G01 X31.3478 Y44.5382
G01 X31.3929 Y44.4610
G01 X31.4023 Y44.4467
G01 X31.4487 Y44.3812
G01 X31.4611 Y44.3654
G01 X31.5151 Y44.3020
G01 X31.5247 Y44.2918
G01 X31.5443 Y44.2724
G01 X31.5628 Y44.2560
G01 X31.5697 Y44.2504
G01 X31.8382 Y44.0458
G01 X31.8486 Y44.0382
G01 X41.4532 Y37.4351
G01 X41.4649 Y37.4279
G01 X41.5008 Y37.4093
G01 X41.5133 Y37.4043
G01 X41.5295 Y37.3997
G00 Z1.2500
G00 X66.8064 Y54.9807
G01 F50.00
G01 Z-0.0400
G01 F100.00
G01 X66.8053 Y54.9708
G01 X66.8049 Y54.9608
G01 X66.8049 Y53.0474
G01 X66.8059 Y53.0308
G01 X66.8081 Y53.0176
G01 X66.8210 Y52.9593
G01 X66.8253 Y52.9460
G01 X66.8294 Y52.9364
G01 X66.8325 Y52.9301
G01 X66.8397 Y52.9181
G01 X66.8481 Y52.9069
G01 X66.8961 Y52.8514
G01 X66.9057 Y52.8413
G01 X66.9163 Y52.8323
G01 X66.9277 Y52.8244
G01 X66.9398 Y52.8176
G01 X66.9526 Y52.8120
G01 X66.9624 Y52.8087
G01 X67.0327 Y52.7882
G01 X67.0490 Y52.7848
G01 X67.0623 Y52.7835
G01 X112.0419 Y52.7834
G01 X112.0519 Y52.7837
G01 X112.0651 Y52.7853
G01 X112.1232 Y52.7978
G01 X112.1300 Y52.7994
G01 X112.1400 Y52.8026
G01 X112.1466 Y52.8051
G01 X112.1561 Y52.8094
G01 X112.1683 Y52.8163
G01 X112.1741 Y52.8202
G01 X112.1824 Y52.8265
G01 X112.2405 Y52.8768
G01 X112.2480 Y52.8842
G01 X112.2526 Y52.8893
G01 X112.2611 Y52.9003
G01 X112.2668 Y52.9091
G01 X112.2732 Y52.9214
G01 X112.2784 Y52.9343
G01 X112.3020 Y53.0144
G01 X112.3049 Y53.0308
G01 X112.3059 Y53.0474
G01 X112.3059 Y92.6865
G01 X112.3356 Y92.9499
G01 X112.3946 Y93.2084
G01 X112.4822 Y93.4586
G01 X112.5972 Y93.6975
G01 X112.7383 Y93.9220
G01 X112.9036 Y94.1293
G01 X120.3566 Y101.5823
G01 X120.3666 Y101.5935
G01 X120.3833 Y101.6141
G01 X120.3894 Y101.6224
G01 X120.3950 Y101.6310
G01 X120.3999 Y101.6401
G01 X120.4027 Y101.6464
G01 X120.4065 Y101.6560
G01 X120.4300 Y101.7360
G01 X120.4329 Y101.7524
G01 X120.4339 Y101.7690
G01 X120.4339 Y110.7702
G01 X120.4331 Y110.7851
G01 X120.4303 Y110.8115
G01 X120.4288 Y110.8217
G01 X120.4266 Y110.8318
G01 X120.4236 Y110.8416
G01 X120.4200 Y110.8513
G01 X120.4156 Y110.8606
G01 X120.3772 Y110.9307
G01 X120.3677 Y110.9444
G01 X120.3589 Y110.9545
G01 X118.6767 Y112.6367
G01 X118.5114 Y112.8440
G01 X118.3704 Y113.0685
G01 X118.3137 Y113.1861
G01 X118.3058 Y113.2004
G01 X118.2789 Y113.2389
G01 X118.2730 Y113.2467
G01 X118.2666 Y113.2541
G01 X118.2371 Y113.2842
G01 X118.1633 Y113.4063
G01 X118.1197 Y113.5422
G01 X118.1086 Y113.6845
G01 X118.1135 Y113.7164
G01 X118.1146 Y113.7296
G01 X118.1146 Y113.7396
G01 X118.1126 Y113.7929
G01 X118.1115 Y113.8028
G01 X118.1088 Y113.8161
G01 X118.0791 Y114.0795
G01 X118.0791 Y114.3447
G01 X118.1088 Y114.6081
G01 X118.1678 Y114.8666
G01 X118.2554 Y115.1169
G01 X118.3704 Y115.3557
G01 X118.5114 Y115.5802
G01 X118.6767 Y115.7875
G01 X118.8642 Y115.9750
G01 X119.0715 Y116.1403
G01 X119.2960 Y116.2813
G01 X119.4136 Y116.3380
G01 X119.4279 Y116.3459
G01 X119.4664 Y116.3728
G01 X119.4742 Y116.3787
G01 X119.4816 Y116.3852
G01 X119.5117 Y116.4146
G01 X119.6338 Y116.4884
G01 X119.7697 Y116.5320
G01 X119.9120 Y116.5431
G01 X119.9439 Y116.5382
G01 X119.9571 Y116.5371
G01 X119.9671 Y116.5371
G01 X120.0204 Y116.5391
G01 X120.0303 Y116.5402
G01 X120.0436 Y116.5429
G01 X120.3070 Y116.5726
G01 X120.5722 Y116.5726
G01 X120.8356 Y116.5429
G01 X121.0941 Y116.4839
G01 X121.3444 Y116.3964
G01 X121.5832 Y116.2813
G01 X121.8077 Y116.1403
G01 X122.0150 Y115.9750
G01 X124.5573 Y113.4327
G01 X124.7226 Y113.2254
G01 X124.8637 Y113.0009
G01 X124.9787 Y112.7620
G01 X125.0662 Y112.5118
G01 X125.1252 Y112.2533
G01 X125.1549 Y111.9898
G01 X125.1549 Y100.5493
G01 X125.1252 Y100.2859
G01 X125.0662 Y100.0274
G01 X124.9787 Y99.7771
G01 X124.8637 Y99.5383
G01 X124.7226 Y99.3138
G01 X124.5573 Y99.1065
G01 X117.1043 Y91.6535
G01 X117.0942 Y91.6423
G01 X117.0734 Y91.6162
G01 X117.0659 Y91.6047
G01 X117.0595 Y91.5925
G01 X117.0556 Y91.5830
G01 X117.0523 Y91.5733
G01 X117.0317 Y91.5030
G01 X117.0284 Y91.4867
G01 X117.0273 Y91.4768
G01 X117.0269 Y91.4668
G01 X117.0269 Y50.6491
G01 X117.0275 Y50.6368
G01 X117.0301 Y50.6090
G01 X117.0345 Y50.5828
G01 X117.0376 Y50.5616
G01 X117.0524 Y50.4471
G01 X117.0554 Y50.4202
G01 X117.0572 Y50.3988
G01 X117.0659 Y50.2639
G01 X117.0665 Y50.2397
G01 X117.0671 Y50.1821
G01 X117.0921 Y43.3066
G01 X117.0919 Y43.2485
G01 X117.0914 Y43.2254
G01 X117.0843 Y43.0950
G01 X117.0828 Y43.0742
G01 X117.0802 Y43.0482
G01 X117.0671 Y42.9374
G01 X117.0635 Y42.9114
G01 X117.0601 Y42.8909
G01 X117.0403 Y42.7810
G01 X117.0363 Y42.7606
G01 X117.0306 Y42.7351
G01 X117.0042 Y42.6266
G01 X116.9975 Y42.6012
G01 X116.9917 Y42.5813
G01 X116.9588 Y42.4747
G01 X116.9524 Y42.4550
G01 X116.9435 Y42.4302
G01 X116.9042 Y42.3258
G01 X116.8965 Y42.3063
G01 X116.8863 Y42.2823
G01 X116.8407 Y42.1805
G01 X116.8296 Y42.1568
G01 X116.8203 Y42.1382
G01 X116.7685 Y42.0392
G01 X116.7560 Y42.0162
G01 X116.7455 Y41.9983
G01 X116.6879 Y41.9027
G01 X116.6770 Y41.8850
G01 X116.6625 Y41.8632
G01 X116.5992 Y41.7712
G01 X116.5840 Y41.7500
G01 X116.5714 Y41.7334
G01 X116.5027 Y41.6454
G01 X116.4896 Y41.6292
G01 X116.4727 Y41.6093
G01 X116.3987 Y41.5257
G01 X116.3811 Y41.5064
G01 X116.3666 Y41.4914
G01 X116.2877 Y41.4124
G01 X116.2727 Y41.3979
G01 X116.2535 Y41.3802
G01 X116.1700 Y41.3061
G01 X116.1542 Y41.2926
G01 X116.1339 Y41.2761
G01 X116.0461 Y41.2072
G01 X116.0295 Y41.1946
G01 X116.0082 Y41.1794
G01 X115.9164 Y41.1159
G01 X115.8991 Y41.1044
G01 X115.8769 Y41.0904
G01 X115.7814 Y41.0327
G01 X115.7588 Y41.0196
G01 X115.7405 Y41.0096
G01 X115.6247 Y40.9492
G01 X115.6037 Y40.9392
G01 X115.5481 Y40.9138
G01 X113.4627 Y39.9766
G01 X113.4503 Y39.9699
G01 X113.4209 Y39.9519
G01 X113.4123 Y39.9459
G01 X113.2829 Y39.8427
G01 X113.0584 Y39.7017
G01 X112.8195 Y39.5867
G01 X112.5693 Y39.4991
G01 X112.3108 Y39.4401
G01 X112.2918 Y39.4379
G01 X112.2776 Y39.4352
G01 X112.2337 Y39.4232
G01 X112.2268 Y39.4209
G01 X112.2168 Y39.4168
G01 X91.9851 Y30.3258
G01 X91.9731 Y30.3197
G01 X91.9618 Y30.3125
G01 X91.9099 Y30.2722
G01 X91.9045 Y30.2678
G01 X91.8968 Y30.2606
G01 X91.8920 Y30.2555
G01 X91.8852 Y30.2474
G01 X91.8811 Y30.2418
G01 X91.8754 Y30.2329
G01 X91.8720 Y30.2268
G01 X91.8675 Y30.2173
G01 X91.8388 Y30.1460
G01 X91.8355 Y30.1361
G01 X91.8330 Y30.1260
G01 X91.8308 Y30.1123
G01 X91.8299 Y30.0984
G01 X91.8305 Y30.0845
G01 X91.8318 Y30.0742
G01 X91.8469 Y29.9956
G01 X91.8518 Y29.9797
G01 X91.8585 Y29.9645
G01 X100.0054 Y14.0912
G01 X100.0122 Y14.0794
G01 X100.0202 Y14.0683
G01 X100.0592 Y14.0214
G01 X100.0685 Y14.0117
G01 X100.0761 Y14.0051
G01 X100.0869 Y13.9971
G01 X100.0956 Y13.9918
G01 X100.1076 Y13.9857
G01 X100.1822 Y13.9566
G01 X100.1888 Y13.9544
G01 X100.1989 Y13.9517
G01 X100.2125 Y13.9493
G01 X100.2229 Y13.9484
G01 X100.2334 Y13.9483
G01 X100.2438 Y13.9490
G01 X100.2541 Y13.9504
G01 X100.3325 Y13.9664
G01 X100.3484 Y13.9714
G01 X100.3606 Y13.9768
G01 X101.2183 Y14.4296
G01 X102.6053 Y15.2033
G01 X103.9794 Y16.0119
G01 X105.3330 Y16.8513
G01 X106.6692 Y17.7231
G01 X107.9803 Y18.6225
G01 X109.2762 Y19.5562
G01 X110.5452 Y20.5159
G01 X111.7909 Y21.5039
G01 X113.0177 Y22.5239
G01 X114.2164 Y23.5684
G01 X115.3948 Y24.6441
G01 X116.5460 Y25.7447
G01 X117.6696 Y26.8697
G01 X118.7687 Y28.0223
G01 X119.8429 Y29.2021
G01 X120.8858 Y30.4021
G01 X121.9025 Y31.6281
G01 X122.8907 Y32.8772
G01 X123.8497 Y34.1488
G01 X124.7807 Y35.4445
G01 X125.6784 Y36.7568
G01 X126.5462 Y38.0904
G01 X127.3847 Y39.4464
G01 X128.1908 Y40.8201
G01 X128.9649 Y42.2120
G01 X129.7060 Y43.6200
G01 X130.4158 Y45.0476
G01 X131.0910 Y46.4883
G01 X131.7359 Y47.9513
G01 X132.3444 Y49.4232
G01 X132.9172 Y50.9046
G01 X133.4566 Y52.4014
G01 X133.7637 Y53.3196
G01 X133.7674 Y53.3328
G01 X133.7693 Y53.3428
G01 X133.7702 Y53.3496
G01 X133.7763 Y53.4102
G01 X133.7762 Y53.4270
G01 X133.7741 Y53.4437
G01 X133.7700 Y53.4601
G01 X133.7653 Y53.4727
G01 X133.7365 Y53.5402
G01 X133.7318 Y53.5495
G01 X133.7265 Y53.5584
G01 X133.7205 Y53.5669
G01 X133.7115 Y53.5776
G01 X133.7015 Y53.5873
G01 X133.6907 Y53.5959
G01 X133.6244 Y53.6408
G01 X133.6097 Y53.6486
G01 X133.5942 Y53.6546
G01 X126.5347 Y55.9254
G01 X126.4549 Y55.9769
G01 X126.3912 Y56.0472
G01 X126.3479 Y56.1317
G01 X126.3278 Y56.2245
G01 X126.3325 Y56.3193
G01 X126.3478 Y56.3667
G01 X126.7767 Y57.7573
G01 X127.1742 Y59.1643
G01 X127.5370 Y60.5774
G01 X127.8650 Y61.9944
G01 X128.1611 Y63.4295
G01 X128.4208 Y64.8606
G01 X128.6467 Y66.3003
G01 X128.8391 Y67.7530
G01 X128.9957 Y69.2019
G01 X129.1176 Y70.6529
G01 X129.2051 Y72.1140
G01 X129.2573 Y73.5675
G01 X129.2748 Y75.0263
G01 X129.2573 Y76.4900
G01 X129.2049 Y77.9464
G01 X129.1178 Y79.3999
G01 X128.9957 Y80.8539
G01 X128.8391 Y82.3028
G01 X128.6467 Y83.7555
G01 X128.4208 Y85.1952
G01 X128.1611 Y86.6263
G01 X127.8650 Y88.0614
G01 X127.5370 Y89.4784
G01 X127.1742 Y90.8915
G01 X126.7767 Y92.2985
G01 X126.3477 Y93.6891
G01 X126.3325 Y93.7365
G01 X126.3278 Y93.8313
G01 X126.3479 Y93.9241
G01 X126.3912 Y94.0085
G01 X126.4549 Y94.0789
G01 X126.5347 Y94.1304
G01 X133.5942 Y96.4011
G01 X133.6038 Y96.4046
G01 X133.6163 Y96.4104
G01 X133.6746 Y96.4447
G01 X133.6855 Y96.4526
G01 X133.6980 Y96.4639
G01 X133.7091 Y96.4766
G01 X133.7167 Y96.4877
G01 X133.7574 Y96.5568
G01 X133.7633 Y96.5694
G01 X133.7679 Y96.5825
G01 X133.7711 Y96.5960
G01 X133.7730 Y96.6098
G01 X133.7735 Y96.6167
G01 X133.7735 Y96.6272
G01 X133.7709 Y96.6970
G01 X133.7697 Y96.7103
G01 X133.7673 Y96.7234
G01 X133.7637 Y96.7362
G01 X133.4566 Y97.6544
G01 X132.9172 Y99.1512
G01 X132.3427 Y100.6367
G01 X131.7352 Y102.1060
G01 X131.0929 Y103.5634
G01 X130.4158 Y105.0082
G01 X129.7080 Y106.4318
G01 X128.9649 Y107.8438
G01 X128.1908 Y109.2357
G01 X127.3847 Y110.6093
G01 X126.5486 Y111.9616
G01 X125.6800 Y113.2966
G01 X124.7807 Y114.6112
G01 X123.8497 Y115.9069
G01 X122.8907 Y117.1786
G01 X121.9025 Y118.4277
G01 X120.8848 Y119.6548
G01 X119.8410 Y120.8558
G01 X118.7687 Y122.0335
G01 X117.6696 Y123.1861
G01 X116.5460 Y124.3111
G01 X115.3948 Y125.4117
G01 X114.2164 Y126.4874
G01 X113.0177 Y127.5318
G01 X111.7896 Y128.5529
G01 X110.5452 Y129.5399
G01 X109.2726 Y130.5022
G01 X107.9803 Y131.4332
G01 X106.6655 Y132.3351
G01 X105.3330 Y133.2045
G01 X103.9780 Y134.0447
G01 X102.6053 Y134.8524
G01 X101.2182 Y135.6262
G01 X100.3635 Y136.0774
G01 X100.3511 Y136.0832
G01 X100.3382 Y136.0878
G01 X100.2795 Y136.1038
G01 X100.2629 Y136.1068
G01 X100.2461 Y136.1078
G01 X100.2293 Y136.1069
G01 X100.2160 Y136.1046
G01 X100.1448 Y136.0872
G01 X100.1315 Y136.0833
G01 X100.1186 Y136.0780
G01 X100.1064 Y136.0715
G01 X100.0948 Y136.0638
G01 X100.0866 Y136.0573
G01 X100.0815 Y136.0526
G01 X100.0240 Y135.9921
G01 X100.0139 Y135.9789
G01 X100.0054 Y135.9645
G01 X89.8601 Y116.1978
G01 X89.8542 Y116.1848
G01 X89.8507 Y116.1746
G01 X89.8344 Y116.1094
G01 X89.8325 Y116.0992
G01 X89.8314 Y116.0890
G01 X89.8310 Y116.0787
G01 X89.8314 Y116.0684
G01 X89.8326 Y116.0581
G01 X89.8353 Y116.0446
G01 X89.8559 Y115.9707
G01 X89.8593 Y115.9608
G01 X89.8635 Y115.9513
G01 X89.8683 Y115.9420
G01 X89.8719 Y115.9361
G01 X89.8779 Y115.9275
G01 X89.8822 Y115.9221
G01 X89.8916 Y115.9118
G01 X89.9489 Y115.8606
G01 X89.9566 Y115.8543
G01 X89.9647 Y115.8484
G01 X89.9732 Y115.8432
G01 X89.9821 Y115.8386
G01 X104.1524 Y109.1365
G01 X104.2091 Y109.1092
G01 X104.2299 Y109.0987
G01 X104.2464 Y109.0899
G01 X104.3466 Y109.0347
G01 X104.3697 Y109.0214
G01 X104.3878 Y109.0103
G01 X104.4839 Y108.9493
G01 X104.5062 Y108.9346
G01 X104.5235 Y108.9224
G01 X104.6157 Y108.8556
G01 X104.6327 Y108.8429
G01 X104.6536 Y108.8263
G01 X104.7414 Y108.7539
G01 X104.7616 Y108.7366
G01 X104.7774 Y108.7224
G01 X104.8606 Y108.6447
G01 X104.8798 Y108.6261
G01 X104.8946 Y108.6110
G01 X104.9729 Y108.5283
G01 X104.9872 Y108.5126
G01 X105.0047 Y108.4926
G01 X105.0777 Y108.4052
G01 X105.0910 Y108.3887
G01 X105.1072 Y108.3675
G01 X105.1747 Y108.2758
G01 X105.1901 Y108.2541
G01 X105.2019 Y108.2364
G01 X105.2636 Y108.1407
G01 X105.2776 Y108.1181
G01 X105.2882 Y108.0997
G01 X105.3439 Y108.0004
G01 X105.3540 Y107.9817
G01 X105.3660 Y107.9579
G01 X105.4156 Y107.8550
G01 X105.4243 Y107.8362
G01 X105.4348 Y107.8117
G01 X105.4778 Y107.7062
G01 X105.4874 Y107.6813
G01 X105.4945 Y107.6614
G01 X105.5308 Y107.5535
G01 X105.5389 Y107.5281
G01 X105.5447 Y107.5077
G01 X105.5744 Y107.3978
G01 X105.5809 Y107.3719
G01 X105.5854 Y107.3512
G01 X105.6082 Y107.2397
G01 X105.6131 Y107.2135
G01 X105.6163 Y107.1925
G01 X105.6322 Y107.0798
G01 X105.6348 Y107.0587
G01 X105.6374 Y107.0322
G01 X105.6475 Y106.8996
G01 X105.6484 Y106.8762
G01 X105.6499 Y106.8158
G01 X106.1051 Y78.5947
G01 X106.1056 Y78.5302
G01 X106.1054 Y78.5061
G01 X106.0992 Y78.3697
G01 X106.0974 Y78.3424
G01 X106.0953 Y78.3207
G01 X106.0824 Y78.2046
G01 X106.0789 Y78.1775
G01 X106.0754 Y78.1559
G01 X106.0552 Y78.0408
G01 X106.0510 Y78.0195
G01 X106.0451 Y77.9927
G01 X106.0176 Y77.8791
G01 X106.0121 Y77.8580
G01 X106.0045 Y77.8318
G01 X105.9698 Y77.7202
G01 X105.9630 Y77.6995
G01 X105.9537 Y77.6737
G01 X105.9121 Y77.5645
G01 X105.9018 Y77.5392
G01 X105.8931 Y77.5192
G01 X105.8445 Y77.4129
G01 X105.8327 Y77.3882
G01 X105.8227 Y77.3688
G01 X105.7675 Y77.2658
G01 X105.7569 Y77.2467
G01 X105.7430 Y77.2232
G01 X105.6814 Y77.1239
G01 X105.6696 Y77.1056
G01 X105.6542 Y77.0830
G01 X105.5864 Y76.9878
G01 X105.5735 Y76.9702
G01 X105.5566 Y76.9486
G01 X105.4829 Y76.8579
G01 X105.4689 Y76.8412
G01 X105.4508 Y76.8208
G01 X105.3715 Y76.7349
G01 X105.3525 Y76.7152
G01 X105.3370 Y76.6999
G01 X105.2524 Y76.6192
G01 X105.2322 Y76.6006
G01 X105.2158 Y76.5864
G01 X105.1263 Y76.5113
G01 X105.1050 Y76.4941
G01 X105.0876 Y76.4809
G01 X104.9935 Y76.4116
G01 X104.9758 Y76.3990
G01 X104.9531 Y76.3837
G01 X104.8547 Y76.3205
G01 X104.8363 Y76.3091
G01 X104.8125 Y76.2953
G01 X104.7104 Y76.2385
G01 X104.6863 Y76.2256
G01 X104.6668 Y76.2159
G01 X104.5612 Y76.1657
G01 X104.5363 Y76.1544
G01 X104.5162 Y76.1460
G01 X104.4077 Y76.1025
G01 X104.3874 Y76.0948
G01 X104.3615 Y76.0857
G01 X104.2505 Y76.0493
G01 X104.2243 Y76.0412
G01 X104.2033 Y76.0354
G01 X104.0902 Y76.0061
G01 X104.0636 Y75.9997
G01 X104.0423 Y75.9952
G01 X103.9274 Y75.9731
G01 X103.9060 Y75.9693
G01 X103.8790 Y75.9653
G01 X103.7630 Y75.9505
G01 X103.7358 Y75.9476
G01 X103.7141 Y75.9459
G01 X103.5779 Y75.9375
G01 X103.5540 Y75.9369
G01 X103.4893 Y75.9364
G01 X102.7209 Y75.9364
G01 X102.6944 Y75.9350
G01 X102.6841 Y75.9338
G01 X102.6740 Y75.9318
G01 X102.6640 Y75.9290
G01 X102.6575 Y75.9268
G01 X102.5805 Y75.8938
G01 X102.5683 Y75.8871
G01 X102.5569 Y75.8792
G01 X102.5463 Y75.8702
G01 X102.5366 Y75.8602
G01 X102.5322 Y75.8549
G01 X102.5260 Y75.8465
G01 X102.4849 Y75.7857
G01 X102.4796 Y75.7767
G01 X102.4765 Y75.7705
G01 X102.4723 Y75.7610
G01 X102.4700 Y75.7544
G01 X102.4679 Y75.7478
G01 X102.4655 Y75.7376
G01 X102.4638 Y75.7273
G01 X102.4632 Y75.7204
G01 X102.4611 Y75.6403
G01 X102.4621 Y75.6237
G01 X102.4651 Y75.6073
G01 X102.5097 Y75.4405
G01 X102.5458 Y75.1662
G01 X102.5458 Y74.8896
G01 X102.5097 Y74.6153
G01 X102.4381 Y74.3480
G01 X102.4193 Y74.3022
G01 X102.4162 Y74.2922
G01 X102.4080 Y74.2624
G01 X102.4057 Y74.2525
G01 X102.4041 Y74.2425
G01 X102.4030 Y74.2256
G01 X102.4033 Y74.2155
G01 X102.4044 Y74.2054
G01 X102.4144 Y74.1363
G01 X102.4162 Y74.1260
G01 X102.4179 Y74.1193
G01 X102.4222 Y74.1061
G01 X102.4263 Y74.0965
G01 X102.4294 Y74.0902
G01 X102.4347 Y74.0812
G01 X102.4386 Y74.0755
G01 X102.4471 Y74.0645
G01 X102.4976 Y74.0066
G01 X102.5025 Y74.0017
G01 X102.5103 Y73.9948
G01 X102.5158 Y73.9905
G01 X102.5245 Y73.9847
G01 X102.5366 Y73.9779
G01 X102.5429 Y73.9750
G01 X102.5526 Y73.9712
G01 X102.6263 Y73.9494
G01 X102.6392 Y73.9462
G01 X102.6524 Y73.9443
G01 X102.6657 Y73.9437
G01 X104.0174 Y73.9437
G01 X104.0583 Y73.9433
G01 X104.0847 Y73.9425
G01 X104.1178 Y73.9404
G01 X104.1918 Y73.9339
G01 X104.2291 Y73.9296
G01 X104.2587 Y73.9251
G01 X104.3310 Y73.9123
G01 X104.3679 Y73.9048
G01 X104.3970 Y73.8977
G01 X104.4679 Y73.8787
G01 X104.4967 Y73.8703
G01 X104.5323 Y73.8584
G01 X104.6013 Y73.8333
G01 X104.6363 Y73.8195
G01 X104.6637 Y73.8074
G01 X104.7302 Y73.7764
G01 X104.7639 Y73.7596
G01 X104.7902 Y73.7452
G01 X104.8537 Y73.7085
G01 X104.8859 Y73.6888
G01 X104.9107 Y73.6722
G01 X104.9709 Y73.6301
G01 X104.9950 Y73.6124
G01 X105.0244 Y73.5890
G01 X105.0807 Y73.5418
G01 X105.1032 Y73.5221
G01 X105.1305 Y73.4962
G01 X105.1824 Y73.4443
G01 X105.2083 Y73.4169
G01 X105.2280 Y73.3945
G01 X105.2752 Y73.3382
G01 X105.2939 Y73.3149
G01 X105.3163 Y73.2847
G01 X105.3585 Y73.2245
G01 X105.3792 Y73.1931
G01 X105.3948 Y73.1675
G01 X105.4315 Y73.1040
G01 X105.4458 Y73.0777
G01 X105.4627 Y73.0440
G01 X105.4937 Y72.9775
G01 X105.5087 Y72.9430
G01 X105.5195 Y72.9151
G01 X105.5446 Y72.8461
G01 X105.5543 Y72.8178
G01 X105.5650 Y72.7817
G01 X105.5840 Y72.7108
G01 X105.5911 Y72.6817
G01 X105.5986 Y72.6448
G01 X105.6113 Y72.5725
G01 X105.6169 Y72.5353
G01 X105.6202 Y72.5056
G01 X105.6266 Y72.4317
G01 X105.6284 Y72.4051
G01 X105.6295 Y72.3717
G01 X105.6299 Y72.3307
G01 X105.6299 Y62.0543
G01 X105.6295 Y62.0144
G01 X105.6284 Y61.9809
G01 X105.6266 Y61.9545
G01 X105.6202 Y61.8805
G01 X105.6169 Y61.8508
G01 X105.6113 Y61.8136
G01 X105.5986 Y61.7413
G01 X105.5911 Y61.7044
G01 X105.5840 Y61.6753
G01 X105.5650 Y61.6044
G01 X105.5566 Y61.5757
G01 X105.5447 Y61.5400
G01 X105.5195 Y61.4710
G01 X105.5087 Y61.4431
G01 X105.4937 Y61.4086
G01 X105.4627 Y61.3421
G01 X105.4495 Y61.3153
G01 X105.4315 Y61.2821
G01 X105.3948 Y61.2186
G01 X105.3751 Y61.1864
G01 X105.3585 Y61.1616
G01 X105.3164 Y61.1015
G01 X105.2939 Y61.0711
G01 X105.2752 Y61.0478
G01 X105.2281 Y60.9916
G01 X105.2083 Y60.9691
G01 X105.1824 Y60.9418
G01 X105.1305 Y60.8899
G01 X105.1032 Y60.8640
G01 X105.0807 Y60.8443
G01 X105.0245 Y60.7971
G01 X104.9950 Y60.7736
G01 X104.9709 Y60.7559
G01 X104.9107 Y60.7138
G01 X104.8793 Y60.6931
G01 X104.8537 Y60.6775
G01 X104.7902 Y60.6408
G01 X104.7571 Y60.6229
G01 X104.7302 Y60.6096
G01 X104.6637 Y60.5786
G01 X104.6364 Y60.5666
G01 X104.6013 Y60.5528
G01 X104.5323 Y60.5277
G01 X104.4966 Y60.5157
G01 X104.4679 Y60.5073
G01 X104.3970 Y60.4883
G01 X104.3679 Y60.4812
G01 X104.3310 Y60.4737
G01 X104.2587 Y60.4610
G01 X104.2215 Y60.4554
G01 X104.1918 Y60.4522
G01 X104.1179 Y60.4457
G01 X104.0845 Y60.4436
G01 X104.0579 Y60.4428
G01 X104.0137 Y60.4424
G01 X99.0152 Y60.4424
G01 X98.9710 Y60.4428
G01 X98.9375 Y60.4439
G01 X98.9108 Y60.4457
G01 X98.8370 Y60.4521
G01 X98.8072 Y60.4554
G01 X98.7700 Y60.4610
G01 X98.6977 Y60.4737
G01 X98.6608 Y60.4812
G01 X98.6317 Y60.4883
G01 X98.5608 Y60.5073
G01 X98.5321 Y60.5157
G01 X98.4964 Y60.5276
G01 X98.4274 Y60.5528
G01 X98.3988 Y60.5639
G01 X98.3650 Y60.5786
G01 X98.2985 Y60.6096
G01 X98.2716 Y60.6229
G01 X98.2385 Y60.6408
G01 X98.1750 Y60.6775
G01 X98.1494 Y60.6931
G01 X98.1180 Y60.7138
G01 X98.0579 Y60.7559
G01 X98.0276 Y60.7783
G01 X98.0043 Y60.7971
G01 X97.9480 Y60.8443
G01 X97.9255 Y60.8640
G01 X97.8982 Y60.8899
G01 X97.8463 Y60.9418
G01 X97.8256 Y60.9634
G01 X97.8007 Y60.9916
G01 X97.7535 Y61.0478
G01 X97.7347 Y61.0712
G01 X97.7124 Y61.1015
G01 X97.6702 Y61.1616
G01 X97.6536 Y61.1865
G01 X97.6340 Y61.2186
G01 X97.5973 Y61.2821
G01 X97.5829 Y61.3084
G01 X97.5661 Y61.3420
G01 X97.5350 Y61.4086
G01 X97.5201 Y61.4431
G01 X97.5092 Y61.4710
G01 X97.4841 Y61.5400
G01 X97.4744 Y61.5684
G01 X97.4638 Y61.6044
G01 X97.4448 Y61.6753
G01 X97.4377 Y61.7044
G01 X97.4302 Y61.7413
G01 X97.4174 Y61.8136
G01 X97.4118 Y61.8508
G01 X97.4086 Y61.8805
G01 X97.4021 Y61.9544
G01 X97.4000 Y61.9879
G01 X97.3992 Y62.0143
G01 X97.3988 Y62.0587
G01 X97.3988 Y69.9034
G01 X97.3982 Y69.9167
G01 X97.3956 Y69.9331
G01 X97.3836 Y69.9881
G01 X97.3808 Y69.9982
G01 X97.3771 Y70.0080
G01 X97.3743 Y70.0144
G01 X97.3695 Y70.0237
G01 X97.3640 Y70.0327
G01 X97.3579 Y70.0412
G01 X97.3077 Y70.0994
G01 X97.3005 Y70.1070
G01 X97.2955 Y70.1118
G01 X97.2875 Y70.1185
G01 X97.2819 Y70.1226
G01 X97.2731 Y70.1282
G01 X97.2608 Y70.1347
G01 X97.2512 Y70.1387
G01 X97.2446 Y70.1410
G01 X97.1710 Y70.1626
G01 X97.1580 Y70.1654
G01 X97.1448 Y70.1670
G01 X97.1348 Y70.1674
G01 X96.8797 Y70.1674
G01 X96.8631 Y70.1664
G01 X96.8467 Y70.1634
G01 X96.7815 Y70.1460
G01 X96.7657 Y70.1407
G01 X96.7565 Y70.1367
G01 X96.7477 Y70.1320
G01 X96.6583 Y70.0804
G01 X96.4632 Y69.9996
G01 X96.2593 Y69.9449
G01 X96.0500 Y69.9174
G01 X95.8389 Y69.9174
G01 X95.6296 Y69.9449
G01 X95.4256 Y69.9996
G01 X95.2306 Y70.0804
G01 X95.0478 Y70.1859
G01 X94.8803 Y70.3145
G01 X94.7310 Y70.4637
G01 X94.6025 Y70.6312
G01 X94.4969 Y70.8141
G01 X94.4161 Y71.0091
G01 X94.3615 Y71.2130
G01 X94.3339 Y71.4223
G01 X94.3339 Y71.6334
G01 X94.3615 Y71.8428
G01 X94.4161 Y72.0467
G01 X94.4969 Y72.2417
G01 X94.6025 Y72.4246
G01 X94.7310 Y72.5920
G01 X94.8803 Y72.7413
G01 X95.0478 Y72.8698
G01 X95.2306 Y72.9754
G01 X95.3766 Y73.0360
G01 X95.3878 Y73.0411
G01 X95.3969 Y73.0460
G01 X95.4057 Y73.0516
G01 X95.4167 Y73.0599
G01 X95.4730 Y73.1121
G01 X95.4804 Y73.1195
G01 X95.4872 Y73.1274
G01 X95.4914 Y73.1330
G01 X95.4971 Y73.1417
G01 X95.5022 Y73.1508
G01 X95.5080 Y73.1635
G01 X95.5124 Y73.1766
G01 X95.5306 Y73.2477
G01 X95.5321 Y73.2545
G01 X95.5338 Y73.2648
G01 X95.5347 Y73.2751
G01 X95.5349 Y73.2856
G01 X95.5343 Y73.2960
G01 X95.5334 Y73.3029
G01 X95.5315 Y73.3131
G01 X95.5298 Y73.3199
G01 X95.5057 Y73.3928
G01 X95.5020 Y73.4026
G01 X95.4992 Y73.4089
G01 X95.4944 Y73.4182
G01 X95.4888 Y73.4270
G01 X95.4848 Y73.4327
G01 X95.4805 Y73.4381
G01 X95.4735 Y73.4459
G01 X95.4634 Y73.4554
G01 X95.4037 Y73.5035
G01 X95.3955 Y73.5093
G01 X95.3870 Y73.5145
G01 X95.3720 Y73.5218
G01 X95.2306 Y73.5804
G01 X95.0478 Y73.6859
G01 X94.8803 Y73.8145
G01 X94.7310 Y73.9637
G01 X94.6025 Y74.1312
G01 X94.6013 Y74.1332
G01 X94.4969 Y74.3141
G01 X94.4161 Y74.5091
G01 X94.3615 Y74.7130
G01 X94.3339 Y74.9223
G01 X94.3339 Y75.1334
G01 X94.3615 Y75.3428
G01 X94.4161 Y75.5467
G01 X94.4969 Y75.7417
G01 X94.5531 Y75.8391
G01 X94.5580 Y75.8482
G01 X94.5621 Y75.8577
G01 X94.5655 Y75.8674
G01 X94.5674 Y75.8741
G01 X94.5848 Y75.9416
G01 X94.5877 Y75.9582
G01 X94.5885 Y75.9751
G01 X94.5872 Y75.9920
G01 X94.5839 Y76.0086
G01 X94.5612 Y76.0818
G01 X94.5553 Y76.0974
G01 X94.5509 Y76.1063
G01 X94.5458 Y76.1150
G01 X94.4788 Y76.2153
G01 X94.4252 Y76.3446
G01 X94.3979 Y76.4819
G01 X94.3979 Y76.6415
G01 X94.3976 Y76.6514
G01 X94.3960 Y76.6645
G01 X94.3925 Y76.6832
G01 X94.3914 Y76.6958
G01 X94.3896 Y76.7061
G01 X94.3861 Y76.7195
G01 X94.3813 Y76.7336
G01 X94.3774 Y76.7434
G01 X94.3729 Y76.7528
G01 X94.3657 Y76.7648
G01 X94.3596 Y76.7733
G01 X94.3447 Y76.7923
G01 X94.3297 Y76.8152
G01 X94.3194 Y76.8284
G01 X94.3077 Y76.8402
G01 X94.2954 Y76.8507
G01 X94.2894 Y76.8553
G01 X94.2736 Y76.8693
G01 X94.2667 Y76.8748
G01 X94.2479 Y76.8886
G01 X94.2091 Y76.9268
G01 X94.1926 Y76.9419
G01 X94.1741 Y76.9614
G01 X94.1625 Y76.9748
G01 X94.1165 Y77.0347
G01 X94.0554 Y77.1239
G01 X94.0418 Y77.1444
G01 X94.0315 Y77.1610
G01 X93.9976 Y77.2172
G01 X93.7442 Y77.6439
G01 X93.6799 Y77.7881
G01 X93.6605 Y77.8577
G01 X93.6367 Y78.0137
G01 X93.6365 Y78.0270
G01 X93.6374 Y78.0376
G01 X93.6413 Y78.1160
G01 X93.6413 Y78.1298
G01 X93.6369 Y78.2150
G01 X93.6245 Y78.2995
G01 X93.6227 Y78.3096
G01 X93.6010 Y78.3958
G01 X93.5723 Y78.4762
G01 X93.5671 Y78.4889
G01 X93.5335 Y78.5599
G01 X93.5270 Y78.5720
G01 X93.4830 Y78.6451
G01 X93.4323 Y78.7138
G01 X93.4236 Y78.7244
G01 X93.3708 Y78.7826
G01 X93.3611 Y78.7923
G01 X93.2978 Y78.8495
G01 X93.2237 Y78.9045
G01 X93.1445 Y78.9519
G01 X93.0742 Y78.9853
G01 X92.9625 Y79.0597
G01 X92.9435 Y79.0767
G01 X92.9004 Y79.1171
G01 X92.7988 Y79.2374
G01 X92.7853 Y79.2590
G01 X89.0253 Y85.5916
G01 X88.9612 Y85.7352
G01 X88.9536 Y85.7622
G01 X88.9387 Y85.8202
G01 X88.9175 Y85.9780
G01 X88.9162 Y85.9941
G01 X88.9136 Y86.0076
G01 X88.9099 Y86.0201
G01 X88.9035 Y86.0575
G01 X88.8999 Y86.0710
G01 X88.8963 Y86.0808
G01 X88.8934 Y86.0872
G01 X88.8869 Y86.0995
G01 X88.8791 Y86.1112
G01 X88.8725 Y86.1193
G01 X88.8221 Y86.1773
G01 X88.8146 Y86.1845
G01 X88.8066 Y86.1912
G01 X88.7981 Y86.1973
G01 X88.7922 Y86.2010
G01 X88.7862 Y86.2044
G01 X88.7768 Y86.2089
G01 X88.7670 Y86.2127
G01 X88.7604 Y86.2148
G01 X88.6902 Y86.2354
G01 X88.6772 Y86.2382
G01 X88.6639 Y86.2398
G01 X88.6539 Y86.2401
G01 X87.1744 Y86.2401
G01 X87.1744 Y89.6050
G01 X87.1737 Y89.6192
G01 X87.1715 Y89.6332
G01 X87.1582 Y89.6911
G01 X87.1544 Y89.7042
G01 X87.1494 Y89.7170
G01 X87.1432 Y89.7292
G01 X87.1358 Y89.7407
G01 X87.1274 Y89.7514
G01 X87.0780 Y89.8055
G01 X87.0707 Y89.8130
G01 X87.0628 Y89.8198
G01 X87.0545 Y89.8261
G01 X87.0457 Y89.8317
G01 X87.0396 Y89.8351
G01 X87.0270 Y89.8409
G01 X87.0139 Y89.8455
G01 X86.9430 Y89.8643
G01 X86.9332 Y89.8665
G01 X86.9200 Y89.8684
G01 X86.9067 Y89.8690
G01 X86.8376 Y89.8672
G01 X86.6935 Y89.8974
G01 X86.6337 Y89.9209
G01 X86.5809 Y89.9450
G01 X86.4513 Y90.0236
G01 X86.3522 Y90.1193
G01 X86.3351 Y90.1396
G01 X86.2716 Y90.2293
G01 X85.3758 Y91.7381
G01 X85.3543 Y91.7736
G01 X85.3063 Y91.8442
G01 X85.2965 Y91.8577
G01 X85.2527 Y91.9138
G01 X85.2449 Y91.9233
G01 X85.1948 Y91.9798
G01 X85.1864 Y91.9888
G01 X85.1328 Y92.0421
G01 X85.1238 Y92.0505
G01 X85.0669 Y92.1002
G01 X85.0540 Y92.1108
G01 X84.9975 Y92.1541
G01 X84.9840 Y92.1639
G01 X84.9249 Y92.2035
G01 X84.9145 Y92.2101
G01 X84.8492 Y92.2481
G01 X84.8345 Y92.2561
G01 X84.7669 Y92.2898
G01 X84.7557 Y92.2949
G01 X84.6902 Y92.3226
G01 X84.6788 Y92.3271
G01 X84.6075 Y92.3522
G01 X84.5958 Y92.3559
G01 X84.5196 Y92.3774
G01 X84.5055 Y92.3809
G01 X84.4690 Y92.3890
G01 X74.1661 Y94.5847
G01 X74.1537 Y94.5868
G01 X74.1160 Y94.5903
G01 X74.1021 Y94.5903
G01 X74.0917 Y94.5894
G01 X74.0848 Y94.5883
G01 X74.0780 Y94.5870
G01 X74.0679 Y94.5842
G01 X73.9946 Y94.5614
G01 X73.9849 Y94.5574
G01 X73.9756 Y94.5528
G01 X73.9666 Y94.5475
G01 X73.9581 Y94.5415
G01 X73.9474 Y94.5326
G01 X73.9377 Y94.5226
G01 X73.8861 Y94.4611
G01 X73.8782 Y94.4497
G01 X73.8731 Y94.4406
G01 X73.8674 Y94.4279
G01 X73.8639 Y94.4181
G01 X73.8604 Y94.4046
G01 X73.8587 Y94.3943
G01 X73.8497 Y94.3250
G01 X73.8486 Y94.3084
G01 X73.8488 Y94.2984
G01 X73.8498 Y94.2885
G01 X73.8649 Y94.1928
G01 X73.8649 Y93.9629
G01 X73.8290 Y93.7359
G01 X73.7579 Y93.5172
G01 X73.6536 Y93.3124
G01 X73.5184 Y93.1264
G01 X73.3866 Y92.9946
G01 X73.3798 Y92.9872
G01 X73.3735 Y92.9795
G01 X73.3678 Y92.9713
G01 X73.3393 Y92.9269
G01 X73.3339 Y92.9179
G01 X73.3308 Y92.9116
G01 X73.3254 Y92.8987
G01 X73.3222 Y92.8887
G01 X73.3191 Y92.8751
G01 X73.3177 Y92.8647
G01 X73.3122 Y92.7880
G01 X73.3121 Y92.7811
G01 X73.3125 Y92.7707
G01 X73.3143 Y92.7569
G01 X73.3174 Y92.7433
G01 X73.3218 Y92.7302
G01 X73.3276 Y92.7175
G01 X73.3643 Y92.6502
G01 X73.3696 Y92.6417
G01 X73.3755 Y92.6337
G01 X73.3866 Y92.6212
G01 X73.5184 Y92.4893
G01 X73.6536 Y92.3034
G01 X73.7579 Y92.0985
G01 X73.8290 Y91.8799
G01 X73.8649 Y91.6528
G01 X73.8649 Y91.4229
G01 X73.8290 Y91.1959
G01 X73.7579 Y90.9772
G01 X73.6536 Y90.7724
G01 X73.5184 Y90.5864
G01 X73.3559 Y90.4239
G01 X73.1699 Y90.2888
G01 X72.9651 Y90.1844
G01 X72.7464 Y90.1133
G01 X72.5194 Y90.0774
G01 X72.2895 Y90.0774
G01 X72.0624 Y90.1133
G01 X71.9027 Y90.1652
G01 X71.8709 Y90.1728
G01 X71.8606 Y90.1745
G01 X71.8503 Y90.1755
G01 X71.8399 Y90.1756
G01 X71.8261 Y90.1747
G01 X71.7535 Y90.1643
G01 X71.7398 Y90.1616
G01 X71.7265 Y90.1576
G01 X71.7168 Y90.1538
G01 X71.7106 Y90.1508
G01 X71.7014 Y90.1458
G01 X71.6955 Y90.1421
G01 X71.6844 Y90.1338
G01 X71.6238 Y90.0811
G01 X71.6165 Y90.0736
G01 X71.6120 Y90.0683
G01 X71.6057 Y90.0600
G01 X71.6019 Y90.0542
G01 X71.5951 Y90.0421
G01 X71.5922 Y90.0357
G01 X71.5884 Y90.0260
G01 X71.5649 Y89.9459
G01 X71.5619 Y89.9296
G01 X71.5609 Y89.9129
G01 X71.5609 Y89.5143
G01 X71.5313 Y89.4646
G01 X71.4911 Y89.3799
G01 X71.4873 Y89.3703
G01 X71.4592 Y89.2918
G01 X71.4561 Y89.2820
G01 X71.4335 Y89.1910
G01 X71.4200 Y89.1017
G01 X71.4187 Y89.0881
G01 X71.4144 Y88.9979
G01 X71.4187 Y88.9077
G01 X71.4200 Y88.8940
G01 X71.4335 Y88.8047
G01 X71.4561 Y88.7138
G01 X71.4592 Y88.7040
G01 X71.4873 Y88.6254
G01 X71.4911 Y88.6159
G01 X71.5313 Y88.5312
G01 X71.5609 Y88.4815
G01 X71.5611 Y88.1757
G01 X71.5619 Y88.1658
G01 X71.5635 Y88.1559
G01 X71.5761 Y88.0977
G01 X71.5801 Y88.0843
G01 X71.5854 Y88.0714
G01 X71.5920 Y88.0590
G01 X71.5977 Y88.0502
G01 X71.6019 Y88.0446
G01 X71.6568 Y87.9812
G01 X71.6669 Y87.9717
G01 X71.6723 Y87.9673
G01 X71.6807 Y87.9612
G01 X71.6897 Y87.9558
G01 X71.6989 Y87.9511
G01 X71.7086 Y87.9470
G01 X71.7184 Y87.9437
G01 X71.7919 Y87.9223
G01 X71.8083 Y87.9194
G01 X71.8216 Y87.9184
G01 X73.2973 Y87.9184
G01 X73.3777 Y87.9102
G01 X73.5142 Y87.8650
G01 X73.6357 Y87.7900
G01 X73.7366 Y87.6891
G01 X73.8115 Y87.5676
G01 X73.8567 Y87.4312
G01 X73.8649 Y87.3508
G01 X73.8649 Y85.5650
G01 X73.8567 Y85.4846
G01 X73.8115 Y85.3481
G01 X73.7366 Y85.2267
G01 X73.6357 Y85.1257
G01 X73.5142 Y85.0508
G01 X73.3777 Y85.0056
G01 X73.2973 Y84.9974
G01 X71.8249 Y84.9974
G01 X71.8116 Y84.9968
G01 X71.7952 Y84.9942
G01 X71.7437 Y84.9830
G01 X71.7335 Y84.9804
G01 X71.7236 Y84.9770
G01 X71.7139 Y84.9729
G01 X71.7046 Y84.9681
G01 X71.6956 Y84.9626
G01 X71.6899 Y84.9586
G01 X71.6817 Y84.9520
G01 X71.6289 Y84.9062
G01 X71.6189 Y84.8966
G01 X71.6099 Y84.8861
G01 X71.6019 Y84.8746
G01 X71.5951 Y84.8625
G01 X71.5896 Y84.8498
G01 X71.5863 Y84.8399
G01 X71.5649 Y84.7664
G01 X71.5619 Y84.7500
G01 X71.5609 Y84.7334
G01 X71.5609 Y81.0484
G01 X71.5613 Y81.0385
G01 X71.5623 Y81.0287
G01 X71.5701 Y80.9820
G01 X71.5734 Y80.9684
G01 X71.5767 Y80.9585
G01 X71.5794 Y80.9520
G01 X71.5857 Y80.9395
G01 X71.5912 Y80.9306
G01 X71.6334 Y80.8706
G01 X71.6420 Y80.8596
G01 X71.6516 Y80.8496
G01 X71.6621 Y80.8405
G01 X71.6735 Y80.8326
G01 X71.6857 Y80.8258
G01 X71.6952 Y80.8215
G01 X71.7631 Y80.7940
G01 X71.7764 Y80.7897
G01 X71.7831 Y80.7881
G01 X71.7934 Y80.7863
G01 X71.8038 Y80.7853
G01 X71.8142 Y80.7850
G01 X71.8212 Y80.7852
G01 X71.8315 Y80.7863
G01 X71.9071 Y80.8003
G01 X71.9200 Y80.8034
G01 X71.9295 Y80.8065
G01 X71.9388 Y80.8102
G01 X71.9708 Y80.8264
G01 X72.1894 Y80.8974
G01 X72.4165 Y80.9334
G01 X72.6464 Y80.9334
G01 X72.8734 Y80.8974
G01 X73.0921 Y80.8264
G01 X73.2969 Y80.7220
G01 X73.4829 Y80.5869
G01 X73.6454 Y80.4243
G01 X73.7806 Y80.2384
G01 X73.8849 Y80.0335
G01 X73.9560 Y79.8149
G01 X73.9919 Y79.5878
G01 X73.9919 Y79.3579
G01 X73.9560 Y79.1309
G01 X73.8849 Y78.9122
G01 X73.7806 Y78.7074
G01 X73.6454 Y78.5214
G01 X73.5112 Y78.3872
G01 X73.5025 Y78.3771
G01 X73.4753 Y78.3405
G01 X73.4715 Y78.3345
G01 X73.4664 Y78.3252
G01 X73.4563 Y78.3035
G01 X73.4524 Y78.2937
G01 X73.4483 Y78.2804
G01 X73.4467 Y78.2735
G01 X73.4451 Y78.2632
G01 X73.4432 Y78.2398
G01 X73.4391 Y78.2204
G01 X73.4375 Y78.2101
G01 X73.4367 Y78.1997
G01 X73.4368 Y78.1858
G01 X73.4378 Y78.1754
G01 X73.4413 Y78.1519
G01 X73.4435 Y78.1417
G01 X73.4464 Y78.1317
G01 X73.4502 Y78.1219
G01 X73.4530 Y78.1156
G01 X73.4641 Y78.0950
G01 X73.4738 Y78.0700
G01 X73.4785 Y78.0607
G01 X73.4839 Y78.0518
G01 X73.4921 Y78.0406
G01 X73.5112 Y78.0186
G01 X73.6454 Y77.8843
G01 X73.7806 Y77.6984
G01 X73.8849 Y77.4935
G01 X73.9560 Y77.2749
G01 X73.9919 Y77.0478
G01 X73.9919 Y76.8179
G01 X73.9560 Y76.5909
G01 X73.8849 Y76.3722
G01 X73.7806 Y76.1674
G01 X73.6454 Y75.9814
G01 X73.4829 Y75.8189
G01 X73.2969 Y75.6838
G01 X73.0921 Y75.5794
G01 X72.8734 Y75.5083
G01 X72.6464 Y75.4724
G01 X72.4165 Y75.4724
G01 X72.1894 Y75.5083
G01 X72.0251 Y75.5615
G01 X72.0144 Y75.5640
G01 X71.9724 Y75.5707
G01 X71.9615 Y75.5720
G01 X71.9542 Y75.5723
G01 X71.8183 Y75.5722
G01 X71.8083 Y75.5714
G01 X71.7701 Y75.5659
G01 X71.7562 Y75.5632
G01 X71.7427 Y75.5591
G01 X71.7203 Y75.5507
G01 X71.7108 Y75.5464
G01 X71.7016 Y75.5413
G01 X71.6956 Y75.5376
G01 X71.6871 Y75.5314
G01 X71.6693 Y75.5162
G01 X71.6498 Y75.5035
G01 X71.6415 Y75.4971
G01 X71.6363 Y75.4925
G01 X71.6313 Y75.4877
G01 X71.6243 Y75.4799
G01 X71.6078 Y75.4583
G01 X71.6001 Y75.4467
G01 X71.5936 Y75.4344
G01 X71.5884 Y75.4215
G01 X71.5817 Y75.3991
G01 X71.5734 Y75.3810
G01 X71.5686 Y75.3680
G01 X71.5651 Y75.3545
G01 X71.5639 Y75.3477
G01 X71.5626 Y75.3373
G01 X71.5609 Y75.3084
G01 X71.5609 Y74.5883
G01 X71.5593 Y74.5793
G01 X71.5462 Y74.4899
G01 X71.5414 Y74.3929
G01 X71.5462 Y74.2958
G01 X71.5593 Y74.2065
G01 X71.5609 Y74.1975
G01 X71.5609 Y73.5774
G01 X71.5613 Y73.5674
G01 X71.5624 Y73.5575
G01 X71.5641 Y73.5476
G01 X71.5753 Y73.4961
G01 X71.5779 Y73.4860
G01 X71.5813 Y73.4760
G01 X71.5840 Y73.4695
G01 X71.5869 Y73.4632
G01 X71.5920 Y73.4540
G01 X71.5977 Y73.4452
G01 X71.6041 Y73.4369
G01 X71.6544 Y73.3788
G01 X71.6617 Y73.3713
G01 X71.6695 Y73.3645
G01 X71.6779 Y73.3582
G01 X71.6837 Y73.3544
G01 X71.6927 Y73.3492
G01 X71.6989 Y73.3461
G01 X71.7086 Y73.3420
G01 X71.7184 Y73.3387
G01 X71.7919 Y73.3173
G01 X71.8050 Y73.3148
G01 X71.8216 Y73.3134
G01 X73.4243 Y73.3134
G01 X73.5047 Y73.3052
G01 X73.6412 Y73.2600
G01 X73.7627 Y73.1850
G01 X73.8636 Y73.0841
G01 X73.9385 Y72.9626
G01 X73.9837 Y72.8262
G01 X73.9919 Y72.7458
G01 X73.9919 Y70.9600
G01 X73.9837 Y70.8796
G01 X73.9385 Y70.7431
G01 X73.8636 Y70.6217
G01 X73.7627 Y70.5207
G01 X73.6412 Y70.4458
G01 X73.5047 Y70.4006
G01 X73.4243 Y70.3924
G01 X71.8249 Y70.3924
G01 X71.8083 Y70.3914
G01 X71.7952 Y70.3892
G01 X71.7437 Y70.3780
G01 X71.7335 Y70.3754
G01 X71.7236 Y70.3720
G01 X71.7171 Y70.3693
G01 X71.7046 Y70.3631
G01 X71.6956 Y70.3576
G01 X71.6844 Y70.3492
G01 X71.6289 Y70.3012
G01 X71.6238 Y70.2965
G01 X71.6165 Y70.2891
G01 X71.6078 Y70.2783
G01 X71.6001 Y70.2667
G01 X71.5936 Y70.2544
G01 X71.5884 Y70.2415
G01 X71.5649 Y70.1614
G01 X71.5619 Y70.1450
G01 X71.5609 Y70.1284
G01 X71.5609 Y66.4581
G01 X71.5615 Y66.4450
G01 X71.5628 Y66.4352
G01 X71.5701 Y66.3918
G01 X71.5734 Y66.3782
G01 X71.5767 Y66.3683
G01 X71.5808 Y66.3586
G01 X71.5856 Y66.3493
G01 X71.5911 Y66.3404
G01 X71.6375 Y66.2748
G01 X71.6419 Y66.2694
G01 X71.6491 Y66.2618
G01 X71.6594 Y66.2525
G01 X71.6677 Y66.2462
G01 X71.6765 Y66.2406
G01 X71.6856 Y66.2356
G01 X71.6952 Y66.2313
G01 X71.7664 Y66.2026
G01 X71.7764 Y66.1995
G01 X71.7831 Y66.1979
G01 X71.7968 Y66.1956
G01 X71.8072 Y66.1949
G01 X71.8142 Y66.1948
G01 X71.8211 Y66.1950
G01 X71.8315 Y66.1960
G01 X71.9070 Y66.2100
G01 X71.9168 Y66.2122
G01 X71.9295 Y66.2162
G01 X71.9415 Y66.2213
G01 X72.1604 Y66.2924
G01 X72.3875 Y66.3284
G01 X72.6174 Y66.3284
G01 X72.8444 Y66.2924
G01 X73.0631 Y66.2214
G01 X73.2679 Y66.1170
G01 X73.4539 Y65.9819
G01 X73.6164 Y65.8193
G01 X73.7516 Y65.6334
G01 X73.8559 Y65.4285
G01 X73.9270 Y65.2099
G01 X73.9629 Y64.9828
G01 X73.9629 Y64.7529
G01 X73.9270 Y64.5259
G01 X73.8559 Y64.3072
G01 X73.7516 Y64.1024
G01 X73.6164 Y63.9164
G01 X73.4846 Y63.7846
G01 X73.4778 Y63.7772
G01 X73.4676 Y63.7640
G01 X73.4373 Y63.7169
G01 X73.4319 Y63.7079
G01 X73.4259 Y63.6953
G01 X73.4222 Y63.6854
G01 X73.4185 Y63.6720
G01 X73.4166 Y63.6616
G01 X73.4154 Y63.6512
G01 X73.4104 Y63.5815
G01 X73.4101 Y63.5711
G01 X73.4103 Y63.5641
G01 X73.4117 Y63.5503
G01 X73.4145 Y63.5367
G01 X73.4174 Y63.5267
G01 X73.4225 Y63.5138
G01 X73.4272 Y63.5044
G01 X73.4607 Y63.4431
G01 X73.4695 Y63.4290
G01 X73.4756 Y63.4211
G01 X73.4846 Y63.4112
G01 X73.6164 Y63.2793
G01 X73.7516 Y63.0934
G01 X73.8559 Y62.8885
G01 X73.9270 Y62.6699
G01 X73.9629 Y62.4428
G01 X73.9629 Y62.2129
G01 X73.9270 Y61.9859
G01 X73.8559 Y61.7672
G01 X73.7516 Y61.5624
G01 X73.6164 Y61.3764
G01 X73.4539 Y61.2139
G01 X73.2679 Y61.0788
G01 X73.0631 Y60.9744
G01 X72.8444 Y60.9033
G01 X72.6174 Y60.8674
G01 X72.3875 Y60.8674
G01 X72.1604 Y60.9033
G01 X71.9961 Y60.9565
G01 X71.9854 Y60.9590
G01 X71.9434 Y60.9657
G01 X71.9362 Y60.9666
G01 X71.9252 Y60.9673
G01 X71.8183 Y60.9672
G01 X71.8083 Y60.9664
G01 X71.7701 Y60.9609
G01 X71.7597 Y60.9590
G01 X71.7528 Y60.9573
G01 X71.7427 Y60.9541
G01 X71.7203 Y60.9457
G01 X71.7108 Y60.9414
G01 X71.7016 Y60.9363
G01 X71.6956 Y60.9326
G01 X71.6871 Y60.9264
G01 X71.6693 Y60.9112
G01 X71.6470 Y60.8964
G01 X71.6389 Y60.8898
G01 X71.6338 Y60.8851
G01 X71.6266 Y60.8776
G01 X71.6199 Y60.8695
G01 X71.6057 Y60.8504
G01 X71.6019 Y60.8446
G01 X71.5967 Y60.8356
G01 X71.5936 Y60.8294
G01 X71.5896 Y60.8198
G01 X71.5817 Y60.7941
G01 X71.5721 Y60.7728
G01 X71.5697 Y60.7663
G01 X71.5667 Y60.7563
G01 X71.5651 Y60.7495
G01 X71.5634 Y60.7392
G01 X71.5613 Y60.7134
G01 X71.5609 Y60.7034
G01 X71.5609 Y60.6713
G01 X71.5312 Y60.4079
G01 X71.4722 Y60.1494
G01 X71.3847 Y59.8991
G01 X71.2697 Y59.6603
G01 X71.1286 Y59.4358
G01 X70.9633 Y59.2285
G01 X67.5822 Y55.8473
G01 X67.5727 Y55.8363
G01 X67.5665 Y55.8274
G01 X67.5309 Y55.7695
G01 X67.5260 Y55.7597
G01 X67.5219 Y55.7497
G01 X67.5015 Y55.6881
G01 X67.4266 Y55.5667
G01 X67.3257 Y55.4657
G01 X67.2042 Y55.3908
G01 X67.1426 Y55.3704
G01 X67.1293 Y55.3648
G01 X67.1166 Y55.3578
G01 X67.0679 Y55.3278
G01 X67.0589 Y55.3217
G01 X67.0504 Y55.3150
G01 X67.0424 Y55.3076
G01 X66.8822 Y55.1474
G01 X66.8722 Y55.1363
G01 X66.8514 Y55.1102
G01 X66.8457 Y55.1017
G01 X66.8384 Y55.0893
G01 X66.8320 Y55.0768
G01 X66.8281 Y55.0669
G01 X66.8250 Y55.0568
G01 X66.8178 Y55.0249
G01 X66.8097 Y54.9970
G01 X66.8064 Y54.9807
G00 Z1.2500
G00 X71.2712 Y55.9157
G01 F50.00
G01 Z-0.0400
G01 F100.00
G01 X71.3927 Y55.8408
G01 X71.5291 Y55.7956
G01 X71.6096 Y55.7874
G01 X73.3953 Y55.7874
G01 X73.4757 Y55.7956
G01 X73.6122 Y55.8408
G01 X73.7337 Y55.9157
G01 X73.8346 Y56.0167
G01 X73.9095 Y56.1381
G01 X73.9547 Y56.2746
G01 X73.9629 Y56.3550
G01 X73.9629 Y58.1408
G01 X73.9547 Y58.2212
G01 X73.9095 Y58.3576
G01 X73.8346 Y58.4791
G01 X73.7337 Y58.5800
G01 X73.6122 Y58.6550
G01 X73.4757 Y58.7002
G01 X73.3953 Y58.7084
G01 X71.6096 Y58.7084
G01 X71.5291 Y58.7002
G01 X71.3927 Y58.6550
G01 X71.2712 Y58.5800
G01 X71.1703 Y58.4791
G01 X71.0954 Y58.3577
G01 X71.0501 Y58.2212
G01 X71.0419 Y58.1408
G01 X71.0419 Y56.3550
G01 X71.0501 Y56.2746
G01 X71.0954 Y56.1381
G01 X71.1703 Y56.0167
G01 X71.2712 Y55.9157
G00 Z1.2500
G00 X71.6319 Y56.2594
G01 F50.00
G01 Z-0.0400
G01 F100.00
G01 X71.6421 Y56.2583
G01 X71.6524 Y56.2579
G01 X73.3559 Y56.2579
G01 X73.3696 Y56.2589
G01 X73.3831 Y56.2613
G01 X73.3963 Y56.2650
G01 X73.4092 Y56.2699
G01 X73.4214 Y56.2761
G01 X73.4330 Y56.2834
G01 X73.4439 Y56.2919
G01 X73.4538 Y56.3013
G01 X73.4607 Y56.3091
G01 X73.4688 Y56.3201
G01 X73.4759 Y56.3319
G01 X73.4818 Y56.3443
G01 X73.4864 Y56.3572
G01 X73.4890 Y56.3672
G01 X73.4914 Y56.3807
G01 X73.4924 Y56.3944
G01 X73.4924 Y58.0979
G01 X73.4918 Y58.1116
G01 X73.4897 Y58.1252
G01 X73.4874 Y58.1352
G01 X73.4854 Y58.1418
G01 X73.4804 Y58.1546
G01 X73.4742 Y58.1669
G01 X73.4669 Y58.1785
G01 X73.4584 Y58.1893
G01 X73.4490 Y58.1993
G01 X73.4386 Y58.2083
G01 X73.4302 Y58.2143
G01 X73.4184 Y58.2214
G01 X73.4060 Y58.2272
G01 X73.3963 Y58.2308
G01 X73.3831 Y58.2345
G01 X73.3696 Y58.2368
G01 X73.3559 Y58.2378
G01 X71.6524 Y58.2379
G01 X71.6387 Y58.2372
G01 X71.6251 Y58.2352
G01 X71.6151 Y58.2328
G01 X71.6085 Y58.2308
G01 X71.5957 Y58.2259
G01 X71.5834 Y58.2197
G01 X71.5718 Y58.2123
G01 X71.5610 Y58.2039
G01 X71.5510 Y58.1944
G01 X71.5421 Y58.1840
G01 X71.5342 Y58.1728
G01 X71.5290 Y58.1639
G01 X71.5231 Y58.1515
G01 X71.5185 Y58.1385
G01 X71.5158 Y58.1286
G01 X71.5135 Y58.1150
G01 X71.5125 Y58.1013
G01 X71.5126 Y56.3910
G01 X71.5135 Y56.3807
G01 X71.5158 Y56.3672
G01 X71.5185 Y56.3572
G01 X71.5231 Y56.3443
G01 X71.5274 Y56.3349
G01 X71.5342 Y56.3230
G01 X71.5421 Y56.3118
G01 X71.5487 Y56.3039
G01 X71.5559 Y56.2965
G01 X71.5663 Y56.2875
G01 X71.5775 Y56.2796
G01 X71.5864 Y56.2744
G01 X71.5957 Y56.2699
G01 X71.6085 Y56.2650
G01 X71.6184 Y56.2621
G01 X71.6319 Y56.2594
G00 Z1.2500
G00 X73.4880 Y64.7743
G01 F50.00
G01 Z-0.0400
G01 F100.00
G01 X73.4924 Y64.8679
G01 X73.4877 Y64.9649
G01 X73.4734 Y65.0610
G01 X73.4498 Y65.1553
G01 X73.4171 Y65.2467
G01 X73.3755 Y65.3346
G01 X73.3256 Y65.4179
G01 X73.2677 Y65.4959
G01 X73.2025 Y65.5679
G01 X73.1305 Y65.6332
G01 X73.0524 Y65.6910
G01 X72.9691 Y65.7410
G01 X72.8813 Y65.7825
G01 X72.7898 Y65.8153
G01 X72.6956 Y65.8389
G01 X72.5995 Y65.8531
G01 X72.5024 Y65.8579
G01 X72.4054 Y65.8531
G01 X72.3093 Y65.8389
G01 X72.2150 Y65.8153
G01 X72.1236 Y65.7825
G01 X72.0357 Y65.7410
G01 X71.9524 Y65.6910
G01 X71.8744 Y65.6332
G01 X71.8024 Y65.5679
G01 X71.7371 Y65.4959
G01 X71.6793 Y65.4179
G01 X71.6293 Y65.3346
G01 X71.5878 Y65.2467
G01 X71.5551 Y65.1553
G01 X71.5315 Y65.0610
G01 X71.5172 Y64.9649
G01 X71.5124 Y64.8679
G01 X71.5172 Y64.7708
G01 X71.5315 Y64.6747
G01 X71.5551 Y64.5805
G01 X71.5878 Y64.4890
G01 X71.6293 Y64.4012
G01 X71.6793 Y64.3179
G01 X71.7371 Y64.2398
G01 X71.8024 Y64.1678
G01 X71.8744 Y64.1026
G01 X71.9524 Y64.0447
G01 X72.0357 Y63.9948
G01 X72.1236 Y63.9532
G01 X72.2150 Y63.9205
G01 X72.3093 Y63.8969
G01 X72.4054 Y63.8827
G01 X72.5024 Y63.8779
G01 X72.5995 Y63.8827
G01 X72.6956 Y63.8969
G01 X72.7898 Y63.9205
G01 X72.8813 Y63.9532
G01 X72.9691 Y63.9948
G01 X73.0524 Y64.0447
G01 X73.1305 Y64.1026
G01 X73.2025 Y64.1678
G01 X73.2677 Y64.2398
G01 X73.3256 Y64.3179
G01 X73.3755 Y64.4012
G01 X73.4171 Y64.4890
G01 X73.4498 Y64.5805
G01 X73.4734 Y64.6747
G01 X73.4868 Y64.7640
G01 X73.4880 Y64.7743
G00 Z1.2500
G00 X71.6609 Y70.8644
G01 F50.00
G01 Z-0.0400
G01 F100.00
G01 X71.6711 Y70.8633
G01 X71.6814 Y70.8629
G01 X73.3849 Y70.8629
G01 X73.3986 Y70.8639
G01 X73.4121 Y70.8663
G01 X73.4253 Y70.8700
G01 X73.4382 Y70.8749
G01 X73.4504 Y70.8811
G01 X73.4620 Y70.8884
G01 X73.4729 Y70.8969
G01 X73.4828 Y70.9063
G01 X73.4918 Y70.9168
G01 X73.4978 Y70.9251
G01 X73.5049 Y70.9369
G01 X73.5108 Y70.9493
G01 X73.5154 Y70.9622
G01 X73.5180 Y70.9722
G01 X73.5204 Y70.9857
G01 X73.5214 Y70.9994
G01 X73.5214 Y72.7029
G01 X73.5208 Y72.7166
G01 X73.5187 Y72.7302
G01 X73.5164 Y72.7402
G01 X73.5144 Y72.7468
G01 X73.5094 Y72.7596
G01 X73.5032 Y72.7719
G01 X73.4959 Y72.7835
G01 X73.4874 Y72.7943
G01 X73.4780 Y72.8043
G01 X73.4676 Y72.8133
G01 X73.4592 Y72.8193
G01 X73.4474 Y72.8264
G01 X73.4350 Y72.8322
G01 X73.4221 Y72.8369
G01 X73.4121 Y72.8395
G01 X73.3986 Y72.8418
G01 X73.3849 Y72.8428
G01 X71.6814 Y72.8429
G01 X71.6677 Y72.8422
G01 X71.6541 Y72.8402
G01 X71.6441 Y72.8378
G01 X71.6375 Y72.8358
G01 X71.6247 Y72.8309
G01 X71.6124 Y72.8247
G01 X71.6008 Y72.8173
G01 X71.5900 Y72.8089
G01 X71.5800 Y72.7994
G01 X71.5711 Y72.7890
G01 X71.5650 Y72.7807
G01 X71.5580 Y72.7689
G01 X71.5521 Y72.7565
G01 X71.5475 Y72.7435
G01 X71.5448 Y72.7336
G01 X71.5425 Y72.7200
G01 X71.5415 Y72.7063
G01 X71.5416 Y70.9960
G01 X71.5425 Y70.9857
G01 X71.5448 Y70.9722
G01 X71.5475 Y70.9622
G01 X71.5521 Y70.9493
G01 X71.5580 Y70.9369
G01 X71.5632 Y70.9280
G01 X71.5711 Y70.9168
G01 X71.5777 Y70.9089
G01 X71.5849 Y70.9015
G01 X71.5953 Y70.8925
G01 X71.6037 Y70.8865
G01 X71.6154 Y70.8794
G01 X71.6247 Y70.8749
G01 X71.6375 Y70.8700
G01 X71.6474 Y70.8671
G01 X71.6609 Y70.8644
G00 Z1.2500
G00 X73.5170 Y79.3793
G01 F50.00
G01 Z-0.0400
G01 F100.00
G01 X73.5214 Y79.4729
G01 X73.5167 Y79.5699
G01 X73.5024 Y79.6660
G01 X73.4788 Y79.7603
G01 X73.4461 Y79.8517
G01 X73.4045 Y79.9396
G01 X73.3546 Y80.0229
G01 X73.2967 Y80.1009
G01 X73.2315 Y80.1729
G01 X73.1595 Y80.2382
G01 X73.0814 Y80.2960
G01 X72.9981 Y80.3460
G01 X72.9103 Y80.3875
G01 X72.8188 Y80.4203
G01 X72.7246 Y80.4439
G01 X72.6285 Y80.4581
G01 X72.5314 Y80.4629
G01 X72.4344 Y80.4581
G01 X72.3383 Y80.4439
G01 X72.2440 Y80.4203
G01 X72.1526 Y80.3875
G01 X72.0647 Y80.3460
G01 X71.9814 Y80.2960
G01 X71.9034 Y80.2382
G01 X71.8314 Y80.1729
G01 X71.7661 Y80.1009
G01 X71.7083 Y80.0229
G01 X71.6583 Y79.9396
G01 X71.6168 Y79.8517
G01 X71.5841 Y79.7603
G01 X71.5605 Y79.6660
G01 X71.5462 Y79.5699
G01 X71.5414 Y79.4729
G01 X71.5462 Y79.3758
G01 X71.5605 Y79.2797
G01 X71.5841 Y79.1855
G01 X71.6168 Y79.0940
G01 X71.6583 Y79.0062
G01 X71.7083 Y78.9229
G01 X71.7661 Y78.8448
G01 X71.8314 Y78.7728
G01 X71.9034 Y78.7076
G01 X71.9814 Y78.6497
G01 X72.0647 Y78.5998
G01 X72.1526 Y78.5582
G01 X72.2440 Y78.5255
G01 X72.3383 Y78.5019
G01 X72.4344 Y78.4877
G01 X72.5314 Y78.4829
G01 X72.6285 Y78.4877
G01 X72.7246 Y78.5019
G01 X72.8188 Y78.5255
G01 X72.9103 Y78.5582
G01 X72.9981 Y78.5998
G01 X73.0814 Y78.6497
G01 X73.1595 Y78.7076
G01 X73.2315 Y78.7728
G01 X73.2967 Y78.8448
G01 X73.3546 Y78.9229
G01 X73.4045 Y79.0062
G01 X73.4461 Y79.0940
G01 X73.4788 Y79.1855
G01 X73.5024 Y79.2797
G01 X73.5158 Y79.3690
G01 X73.5170 Y79.3793
G00 Z1.2500
G00 X71.5339 Y85.4694
G01 F50.00
G01 Z-0.0400
G01 F100.00
G01 X71.5441 Y85.4683
G01 X71.5544 Y85.4679
G01 X73.2579 Y85.4679
G01 X73.2716 Y85.4689
G01 X73.2851 Y85.4713
G01 X73.2983 Y85.4750
G01 X73.3112 Y85.4799
G01 X73.3234 Y85.4861
G01 X73.3350 Y85.4934
G01 X73.3459 Y85.5019
G01 X73.3558 Y85.5113
G01 X73.3648 Y85.5218
G01 X73.3708 Y85.5301
G01 X73.3779 Y85.5419
G01 X73.3838 Y85.5543
G01 X73.3884 Y85.5672
G01 X73.3910 Y85.5772
G01 X73.3934 Y85.5907
G01 X73.3944 Y85.6044
G01 X73.3944 Y87.3079
G01 X73.3938 Y87.3216
G01 X73.3917 Y87.3352
G01 X73.3894 Y87.3452
G01 X73.3874 Y87.3518
G01 X73.3824 Y87.3646
G01 X73.3762 Y87.3769
G01 X73.3689 Y87.3885
G01 X73.3604 Y87.3993
G01 X73.3510 Y87.4093
G01 X73.3406 Y87.4183
G01 X73.3322 Y87.4243
G01 X73.3204 Y87.4314
G01 X73.3080 Y87.4372
G01 X73.2951 Y87.4419
G01 X73.2851 Y87.4445
G01 X73.2716 Y87.4468
G01 X73.2579 Y87.4478
G01 X71.5544 Y87.4479
G01 X71.5407 Y87.4472
G01 X71.5271 Y87.4452
G01 X71.5171 Y87.4428
G01 X71.5105 Y87.4408
G01 X71.4977 Y87.4359
G01 X71.4854 Y87.4297
G01 X71.4738 Y87.4223
G01 X71.4630 Y87.4139
G01 X71.4530 Y87.4044
G01 X71.4441 Y87.3940
G01 X71.4380 Y87.3857
G01 X71.4310 Y87.3739
G01 X71.4251 Y87.3615
G01 X71.4205 Y87.3485
G01 X71.4178 Y87.3386
G01 X71.4155 Y87.3250
G01 X71.4145 Y87.3113
G01 X71.4146 Y85.6010
G01 X71.4155 Y85.5907
G01 X71.4178 Y85.5772
G01 X71.4205 Y85.5672
G01 X71.4251 Y85.5543
G01 X71.4310 Y85.5419
G01 X71.4362 Y85.5330
G01 X71.4441 Y85.5218
G01 X71.4507 Y85.5139
G01 X71.4579 Y85.5065
G01 X71.4683 Y85.4975
G01 X71.4767 Y85.4915
G01 X71.4884 Y85.4844
G01 X71.4977 Y85.4799
G01 X71.5105 Y85.4750
G01 X71.5204 Y85.4721
G01 X71.5339 Y85.4694
G00 Z1.2500
G00 X65.4190 Y86.9230
G01 F50.00
G01 Z-0.0400
G01 F100.00
G01 X65.4292 Y86.9221
G01 X65.5160 Y86.9179
G01 X65.7694 Y86.9179
G01 X65.8596 Y86.9221
G01 X65.8733 Y86.9235
G01 X65.9626 Y86.9369
G01 X66.0568 Y86.9605
G01 X66.1483 Y86.9932
G01 X66.2361 Y87.0348
G01 X66.3194 Y87.0847
G01 X66.3975 Y87.1426
G01 X66.4695 Y87.2078
G01 X66.5347 Y87.2798
G01 X66.5926 Y87.3579
G01 X66.6425 Y87.4412
G01 X66.6841 Y87.5290
G01 X66.7158 Y87.6172
G01 X66.7186 Y87.6271
G01 X66.7404 Y87.7147
G01 X66.7547 Y87.8108
G01 X66.7594 Y87.9079
G01 X66.7547 Y88.0049
G01 X66.7404 Y88.1010
G01 X66.7168 Y88.1953
G01 X66.6841 Y88.2867
G01 X66.6425 Y88.3746
G01 X66.5926 Y88.4579
G01 X66.5347 Y88.5359
G01 X66.4695 Y88.6079
G01 X66.3975 Y88.6732
G01 X66.3194 Y88.7310
G01 X66.2361 Y88.7810
G01 X66.1483 Y88.8225
G01 X66.0601 Y88.8542
G01 X66.0502 Y88.8571
G01 X65.9626 Y88.8789
G01 X65.8733 Y88.8923
G01 X65.8630 Y88.8934
G01 X65.7729 Y88.8978
G01 X65.5160 Y88.8978
G01 X65.4224 Y88.8931
G01 X65.3263 Y88.8789
G01 X65.2320 Y88.8553
G01 X65.1470 Y88.8250
G01 X65.1374 Y88.8212
G01 X65.0527 Y88.7810
G01 X64.9694 Y88.7310
G01 X64.8914 Y88.6732
G01 X64.8244 Y88.6127
G01 X64.8147 Y88.6029
G01 X64.7541 Y88.5359
G01 X64.7002 Y88.4635
G01 X64.6926 Y88.4521
G01 X64.6497 Y88.3805
G01 X64.6432 Y88.3684
G01 X64.6048 Y88.2867
G01 X64.5731 Y88.1985
G01 X64.5702 Y88.1886
G01 X64.5485 Y88.1010
G01 X64.5342 Y88.0049
G01 X64.5294 Y87.9079
G01 X64.5337 Y87.8177
G01 X64.5350 Y87.8040
G01 X64.5485 Y87.7147
G01 X64.5702 Y87.6271
G01 X64.5742 Y87.6140
G01 X64.6023 Y87.5354
G01 X64.6076 Y87.5227
G01 X64.6463 Y87.4412
G01 X64.6963 Y87.3579
G01 X64.7541 Y87.2798
G01 X64.8194 Y87.2078
G01 X64.8914 Y87.1426
G01 X64.9638 Y87.0887
G01 X64.9752 Y87.0811
G01 X65.0527 Y87.0348
G01 X65.1343 Y86.9960
G01 X65.1470 Y86.9908
G01 X65.2255 Y86.9627
G01 X65.2387 Y86.9587
G01 X65.3263 Y86.9369
G01 X65.4190 Y86.9230
G00 Z1.2500
G00 X65.4190 Y89.4230
G01 F50.00
G01 Z-0.0400
G01 F100.00
G01 X65.4292 Y89.4221
G01 X65.5160 Y89.4179
G01 X65.7694 Y89.4179
G01 X65.8596 Y89.4221
G01 X65.8733 Y89.4235
G01 X65.9626 Y89.4369
G01 X66.0568 Y89.4605
G01 X66.1483 Y89.4932
G01 X66.2361 Y89.5348
G01 X66.3194 Y89.5847
G01 X66.3975 Y89.6426
G01 X66.4695 Y89.7078
G01 X66.5347 Y89.7798
G01 X66.5926 Y89.8579
G01 X66.6425 Y89.9412
G01 X66.6841 Y90.0290
G01 X66.7158 Y90.1172
G01 X66.7186 Y90.1271
G01 X66.7404 Y90.2147
G01 X66.7547 Y90.3108
G01 X66.7594 Y90.4079
G01 X66.7547 Y90.5049
G01 X66.7404 Y90.6010
G01 X66.7168 Y90.6953
G01 X66.6841 Y90.7867
G01 X66.6425 Y90.8746
G01 X66.5926 Y90.9579
G01 X66.5347 Y91.0359
G01 X66.4695 Y91.1079
G01 X66.3975 Y91.1732
G01 X66.3194 Y91.2310
G01 X66.2361 Y91.2810
G01 X66.1483 Y91.3225
G01 X66.0601 Y91.3542
G01 X66.0502 Y91.3571
G01 X65.9626 Y91.3789
G01 X65.8733 Y91.3923
G01 X65.8630 Y91.3934
G01 X65.7729 Y91.3978
G01 X65.5160 Y91.3978
G01 X65.4224 Y91.3931
G01 X65.3263 Y91.3789
G01 X65.2320 Y91.3553
G01 X65.1470 Y91.3250
G01 X65.1374 Y91.3212
G01 X65.0527 Y91.2810
G01 X64.9694 Y91.2310
G01 X64.8914 Y91.1732
G01 X64.8244 Y91.1127
G01 X64.8147 Y91.1029
G01 X64.7541 Y91.0359
G01 X64.7002 Y90.9635
G01 X64.6926 Y90.9521
G01 X64.6497 Y90.8805
G01 X64.6432 Y90.8684
G01 X64.6048 Y90.7867
G01 X64.5731 Y90.6985
G01 X64.5702 Y90.6886
G01 X64.5485 Y90.6010
G01 X64.5342 Y90.5049
G01 X64.5294 Y90.4079
G01 X64.5337 Y90.3177
G01 X64.5350 Y90.3040
G01 X64.5485 Y90.2147
G01 X64.5702 Y90.1271
G01 X64.5742 Y90.1140
G01 X64.6023 Y90.0354
G01 X64.6076 Y90.0227
G01 X64.6463 Y89.9412
G01 X64.6963 Y89.8579
G01 X64.7541 Y89.7798
G01 X64.8194 Y89.7078
G01 X64.8914 Y89.6426
G01 X64.9638 Y89.5887
G01 X64.9752 Y89.5811
G01 X65.0527 Y89.5348
G01 X65.1343 Y89.4960
G01 X65.1470 Y89.4908
G01 X65.2255 Y89.4627
G01 X65.2387 Y89.4587
G01 X65.3263 Y89.4369
G01 X65.4190 Y89.4230
G00 Z1.2500
G00 X73.3900 Y93.9843
G01 F50.00
G01 Z-0.0400
G01 F100.00
G01 X73.3944 Y94.0779
G01 X73.3897 Y94.1749
G01 X73.3754 Y94.2710
G01 X73.3518 Y94.3653
G01 X73.3191 Y94.4567
G01 X73.2775 Y94.5446
G01 X73.2276 Y94.6279
G01 X73.1697 Y94.7059
G01 X73.1045 Y94.7779
G01 X73.0325 Y94.8432
G01 X72.9544 Y94.9010
G01 X72.8711 Y94.9510
G01 X72.7833 Y94.9925
G01 X72.6918 Y95.0253
G01 X72.5976 Y95.0489
G01 X72.5015 Y95.0631
G01 X72.4044 Y95.0679
G01 X72.3074 Y95.0631
G01 X72.2113 Y95.0489
G01 X72.1170 Y95.0253
G01 X72.0256 Y94.9925
G01 X71.9377 Y94.9510
G01 X71.8544 Y94.9010
G01 X71.7764 Y94.8432
G01 X71.7044 Y94.7779
G01 X71.6391 Y94.7059
G01 X71.5813 Y94.6279
G01 X71.5313 Y94.5446
G01 X71.4898 Y94.4567
G01 X71.4571 Y94.3653
G01 X71.4335 Y94.2710
G01 X71.4192 Y94.1749
G01 X71.4144 Y94.0779
G01 X71.4192 Y93.9808
G01 X71.4335 Y93.8847
G01 X71.4571 Y93.7905
G01 X71.4898 Y93.6990
G01 X71.5313 Y93.6112
G01 X71.5813 Y93.5279
G01 X71.6391 Y93.4498
G01 X71.7044 Y93.3778
G01 X71.7764 Y93.3126
G01 X71.8544 Y93.2547
G01 X71.9377 Y93.2048
G01 X72.0256 Y93.1632
G01 X72.1170 Y93.1305
G01 X72.2113 Y93.1069
G01 X72.3074 Y93.0927
G01 X72.4044 Y93.0879
G01 X72.5015 Y93.0927
G01 X72.5976 Y93.1069
G01 X72.6918 Y93.1305
G01 X72.7833 Y93.1632
G01 X72.8711 Y93.2048
G01 X72.9544 Y93.2547
G01 X73.0325 Y93.3126
G01 X73.1045 Y93.3778
G01 X73.1697 Y93.4498
G01 X73.2276 Y93.5279
G01 X73.2775 Y93.6112
G01 X73.3191 Y93.6990
G01 X73.3518 Y93.7905
G01 X73.3754 Y93.8847
G01 X73.3888 Y93.9740
G01 X73.3900 Y93.9843
G00 Z1.2500
G00 X71.7613 Y101.6502
G01 F50.00
G01 Z-0.0400
G01 F100.00
G01 X71.8978 Y101.4723
G01 X72.0563 Y101.3137
G01 X72.2342 Y101.1772
G01 X72.4284 Y101.0651
G01 X72.6356 Y100.9793
G01 X72.8522 Y100.9213
G01 X73.0745 Y100.8920
G01 X73.2987 Y100.8920
G01 X73.5210 Y100.9213
G01 X73.7376 Y100.9793
G01 X73.9447 Y101.0651
G01 X74.1389 Y101.1772
G01 X74.3168 Y101.3137
G01 X74.4754 Y101.4723
G01 X74.6119 Y101.6502
G01 X74.7240 Y101.8443
G01 X74.8098 Y102.0515
G01 X74.8678 Y102.2681
G01 X74.8971 Y102.4904
G01 X74.8971 Y102.7146
G01 X74.8678 Y102.9369
G01 X74.8098 Y103.1535
G01 X74.7240 Y103.3607
G01 X74.6119 Y103.5548
G01 X74.4754 Y103.7327
G01 X74.3168 Y103.8913
G01 X74.1389 Y104.0278
G01 X73.9447 Y104.1399
G01 X73.7376 Y104.2257
G01 X73.5210 Y104.2837
G01 X73.2987 Y104.3130
G01 X73.0745 Y104.3130
G01 X72.8522 Y104.2837
G01 X72.6356 Y104.2257
G01 X72.4284 Y104.1399
G01 X72.2342 Y104.0278
G01 X72.0563 Y103.8913
G01 X71.8978 Y103.7327
G01 X71.7613 Y103.5548
G01 X71.6492 Y103.3607
G01 X71.5634 Y103.1535
G01 X71.5053 Y102.9369
G01 X71.4761 Y102.7146
G01 X71.4761 Y102.4904
G01 X71.5053 Y102.2681
G01 X71.5634 Y102.0515
G01 X71.6492 Y101.8443
G01 X71.7613 Y101.6502
G00 Z1.2500
G00 X68.1180 Y104.7284
G01 F50.00
G01 Z-0.0400
G01 F100.00
G01 X68.1377 Y104.6889
G01 X68.1426 Y104.6841
G01 X68.1821 Y104.6643
G01 X68.2594 Y104.6643
G01 X68.2989 Y104.6841
G01 X68.3038 Y104.6889
G01 X68.3235 Y104.7284
G01 X68.3235 Y104.9413
G01 X68.1180 Y104.9413
G01 X68.1180 Y104.7284
G00 Z1.2500
G00 X66.8237 Y104.3645
G01 F50.00
G01 Z-0.0400
G01 F100.00
G01 X66.8256 Y104.3395
G01 X66.8304 Y104.3115
G01 X66.8379 Y104.2840
G01 X66.8455 Y104.2638
G01 X66.8510 Y104.2512
G01 X66.8625 Y104.2290
G01 X66.8760 Y104.2079
G01 X66.8934 Y104.1854
G01 X66.9130 Y104.1647
G01 X66.9345 Y104.1461
G01 X66.9577 Y104.1296
G01 X66.9764 Y104.1188
G01 X66.9886 Y104.1125
G01 X67.0052 Y104.1052
G01 X67.0149 Y104.1016
G01 X67.0388 Y104.0940
G01 X67.0565 Y104.0899
G01 X67.0666 Y104.0880
G01 X67.0914 Y104.0850
G01 X67.1165 Y104.0842
G01 X67.1414 Y104.0856
G01 X67.1551 Y104.0872
G01 X67.1763 Y104.0910
G01 X67.2038 Y104.0985
G01 X67.2304 Y104.1087
G01 X67.2528 Y104.1198
G01 X67.2618 Y104.1249
G01 X67.2799 Y104.1366
G01 X67.6394 Y104.3882
G01 X67.6451 Y104.3773
G01 X67.6520 Y104.3655
G01 X67.6601 Y104.3531
G01 X67.6723 Y104.3366
G01 X67.6864 Y104.3202
G01 X67.7713 Y104.2350
G01 X67.7841 Y104.2236
G01 X67.7956 Y104.2144
G01 X67.8068 Y104.2064
G01 X67.8162 Y104.2002
G01 X67.8310 Y104.1915
G01 X67.8410 Y104.1862
G01 X67.9870 Y104.1133
G01 X68.0058 Y104.1050
G01 X68.0261 Y104.0977
G01 X68.0403 Y104.0936
G01 X68.0604 Y104.0891
G01 X68.0818 Y104.0859
G01 X68.0965 Y104.0847
G01 X68.1136 Y104.0842
G01 X68.3279 Y104.0842
G01 X68.3450 Y104.0847
G01 X68.3597 Y104.0859
G01 X68.3767 Y104.0883
G01 X68.3878 Y104.0904
G01 X68.4045 Y104.0945
G01 X68.4154 Y104.0977
G01 X68.4316 Y104.1033
G01 X68.4421 Y104.1076
G01 X68.4576 Y104.1148
G01 X68.6044 Y104.1883
G01 X68.6223 Y104.1984
G01 X68.6347 Y104.2064
G01 X68.6459 Y104.2144
G01 X68.6548 Y104.2214
G01 X68.6702 Y104.2350
G01 X68.7528 Y104.3176
G01 X68.7642 Y104.3304
G01 X68.7734 Y104.3420
G01 X68.7814 Y104.3531
G01 X68.7877 Y104.3626
G01 X68.7980 Y104.3803
G01 X68.8746 Y104.5333
G01 X68.8829 Y104.5521
G01 X68.8901 Y104.5725
G01 X68.8942 Y104.5867
G01 X68.8974 Y104.6000
G01 X68.8995 Y104.6111
G01 X68.9023 Y104.6315
G01 X68.9031 Y104.6428
G01 X68.9036 Y104.6565
G01 X68.9036 Y105.2348
G01 X68.9028 Y105.2530
G01 X68.9019 Y105.2632
G01 X68.8987 Y105.2846
G01 X68.8966 Y105.2947
G01 X68.8921 Y105.3123
G01 X68.8890 Y105.3221
G01 X68.8816 Y105.3424
G01 X68.8725 Y105.3620
G01 X68.8678 Y105.3711
G01 X68.8548 Y105.3925
G01 X68.8421 Y105.4100
G01 X68.8356 Y105.4180
G01 X68.8187 Y105.4365
G01 X68.8028 Y105.4511
G01 X68.7949 Y105.4578
G01 X68.7748 Y105.4726
G01 X68.7534 Y105.4855
G01 X68.7442 Y105.4903
G01 X68.7246 Y105.4994
G01 X68.7043 Y105.5068
G01 X68.6945 Y105.5099
G01 X68.6702 Y105.5159
G01 X68.6489 Y105.5192
G01 X68.6386 Y105.5203
G01 X68.6136 Y105.5214
G01 X67.1102 Y105.5214
G01 X67.0920 Y105.5206
G01 X67.0818 Y105.5197
G01 X67.0604 Y105.5165
G01 X67.0503 Y105.5144
G01 X67.0327 Y105.5099
G01 X67.0229 Y105.5068
G01 X67.0026 Y105.4994
G01 X66.9830 Y105.4903
G01 X66.9739 Y105.4855
G01 X66.9553 Y105.4744
G01 X66.9468 Y105.4686
G01 X66.9296 Y105.4556
G01 X66.9085 Y105.4365
G01 X66.8939 Y105.4206
G01 X66.8872 Y105.4127
G01 X66.8744 Y105.3954
G01 X66.8687 Y105.3867
G01 X66.8578 Y105.3681
G01 X66.8484 Y105.3487
G01 X66.8443 Y105.3392
G01 X66.8371 Y105.3189
G01 X66.8342 Y105.3090
G01 X66.8298 Y105.2913
G01 X66.8279 Y105.2812
G01 X66.8249 Y105.2598
G01 X66.8235 Y105.2314
G01 X66.8244 Y105.2098
G01 X66.8253 Y105.1995
G01 X66.8285 Y105.1782
G01 X66.8306 Y105.1681
G01 X66.8351 Y105.1505
G01 X66.8382 Y105.1406
G01 X66.8456 Y105.1204
G01 X66.8547 Y105.1008
G01 X66.8594 Y105.0916
G01 X66.8705 Y105.0731
G01 X66.8764 Y105.0646
G01 X66.8872 Y105.0500
G01 X66.8939 Y105.0421
G01 X66.9061 Y105.0287
G01 X66.9244 Y105.0116
G01 X66.9323 Y105.0050
G01 X66.9468 Y104.9941
G01 X66.9582 Y104.9865
G01 X66.9769 Y104.9756
G01 X67.0026 Y104.9634
G01 X67.0294 Y104.9538
G01 X67.0570 Y104.9469
G01 X67.0852 Y104.9427
G01 X67.1102 Y104.9413
G01 X67.4179 Y104.9413
G01 X66.9473 Y104.6119
G01 X66.9248 Y104.5944
G01 X66.9065 Y104.5773
G01 X66.8995 Y104.5698
G01 X66.8854 Y104.5533
G01 X66.8690 Y104.5301
G01 X66.8549 Y104.5054
G01 X66.8433 Y104.4794
G01 X66.8343 Y104.4524
G01 X66.8279 Y104.4246
G01 X66.8244 Y104.3964
G01 X66.8236 Y104.3748
G01 X66.8237 Y104.3645
G00 Z1.2500
G00 X66.8236 Y103.3073
G01 F50.00
G01 Z-0.0400
G01 F100.00
G01 X66.8236 Y103.1520
G01 X66.8246 Y103.1349
G01 X66.8258 Y103.1237
G01 X66.8285 Y103.1067
G01 X66.8307 Y103.0956
G01 X66.8351 Y103.0790
G01 X66.8384 Y103.0682
G01 X66.9110 Y102.8507
G01 X66.9158 Y102.8378
G01 X66.9202 Y102.8274
G01 X66.9276 Y102.8120
G01 X66.9330 Y102.8020
G01 X66.9420 Y102.7874
G01 X66.9503 Y102.7752
G01 X66.9630 Y102.7590
G01 X66.9775 Y102.7430
G01 X67.0538 Y102.6667
G01 X67.0724 Y102.6500
G01 X67.0897 Y102.6370
G01 X67.0982 Y102.6312
G01 X67.1197 Y102.6184
G01 X67.1392 Y102.6090
G01 X67.1486 Y102.6050
G01 X67.1690 Y102.5977
G01 X67.1789 Y102.5948
G01 X67.1999 Y102.5897
G01 X67.2246 Y102.5859
G01 X67.2349 Y102.5850
G01 X67.2565 Y102.5842
G01 X67.7565 Y102.5842
G01 X67.7849 Y102.5856
G01 X67.8063 Y102.5886
G01 X67.8164 Y102.5904
G01 X67.8374 Y102.5957
G01 X67.8472 Y102.5988
G01 X67.8675 Y102.6062
G01 X67.8871 Y102.6153
G01 X67.8962 Y102.6201
G01 X67.9147 Y102.6312
G01 X67.9232 Y102.6370
G01 X67.9405 Y102.6500
G01 X67.9591 Y102.6667
G01 X67.9663 Y102.6741
G01 X67.9807 Y102.6902
G01 X67.9937 Y102.7075
G01 X67.9995 Y102.7160
G01 X68.0123 Y102.7375
G01 X68.0217 Y102.7569
G01 X68.0257 Y102.7664
G01 X68.0340 Y102.7900
G01 X68.0410 Y102.8176
G01 X68.0451 Y102.8458
G01 X68.0465 Y102.8708
G01 X68.0465 Y103.1634
G01 X68.0451 Y103.1884
G01 X68.0416 Y103.2132
G01 X68.0395 Y103.2232
G01 X68.0340 Y103.2441
G01 X68.0245 Y103.2710
G01 X68.0123 Y103.2967
G01 X67.9976 Y103.3211
G01 X67.9807 Y103.3440
G01 X67.9616 Y103.3651
G01 X67.9405 Y103.3842
G01 X67.9176 Y103.4011
G01 X67.8962 Y103.4141
G01 X67.8871 Y103.4189
G01 X67.8675 Y103.4279
G01 X67.8439 Y103.4365
G01 X67.8340 Y103.4394
G01 X67.8130 Y103.4444
G01 X67.7883 Y103.4482
G01 X67.7780 Y103.4491
G01 X67.7565 Y103.4500
G01 X67.7349 Y103.4491
G01 X67.7246 Y103.4482
G01 X67.6999 Y103.4444
G01 X67.6756 Y103.4385
G01 X67.6657 Y103.4354
G01 X67.6455 Y103.4279
G01 X67.6259 Y103.4189
G01 X67.6167 Y103.4141
G01 X67.5953 Y103.4011
G01 X67.5751 Y103.3863
G01 X67.5672 Y103.3797
G01 X67.5513 Y103.3651
G01 X67.5344 Y103.3466
G01 X67.5192 Y103.3267
G01 X67.5134 Y103.3182
G01 X67.5006 Y103.2967
G01 X67.4912 Y103.2772
G01 X67.4872 Y103.2678
G01 X67.4789 Y103.2441
G01 X67.4727 Y103.2199
G01 X67.4708 Y103.2098
G01 X67.4678 Y103.1884
G01 X67.4665 Y103.1643
G01 X67.4179 Y103.1643
G01 X67.4037 Y103.2070
G01 X67.4037 Y103.2557
G01 X67.4386 Y103.3604
G01 X67.4997 Y103.4215
G01 X67.5720 Y103.4577
G01 X67.7922 Y103.5127
G01 X67.9350 Y103.5127
G01 X68.1552 Y103.4577
G01 X68.2275 Y103.4215
G01 X68.2886 Y103.3604
G01 X68.3235 Y103.2557
G01 X68.3235 Y103.1570
G01 X68.2827 Y103.0754
G01 X68.2725 Y103.0525
G01 X68.2690 Y103.0429
G01 X68.2624 Y103.0223
G01 X68.2576 Y103.0012
G01 X68.2557 Y102.9911
G01 X68.2531 Y102.9696
G01 X68.2525 Y102.9594
G01 X68.2522 Y102.9378
G01 X68.2537 Y102.9162
G01 X68.2548 Y102.9060
G01 X68.2586 Y102.8847
G01 X68.2610 Y102.8747
G01 X68.2659 Y102.8572
G01 X68.2693 Y102.8475
G01 X68.2773 Y102.8274
G01 X68.2885 Y102.8050
G01 X68.2937 Y102.7961
G01 X68.3055 Y102.7780
G01 X68.3187 Y102.7609
G01 X68.3253 Y102.7530
G01 X68.3427 Y102.7350
G01 X68.3590 Y102.7208
G01 X68.3671 Y102.7144
G01 X68.3848 Y102.7020
G01 X68.3935 Y102.6967
G01 X68.4124 Y102.6862
G01 X68.4321 Y102.6774
G01 X68.4417 Y102.6736
G01 X68.4623 Y102.6668
G01 X68.4722 Y102.6642
G01 X68.4933 Y102.6597
G01 X68.5182 Y102.6566
G01 X68.5285 Y102.6560
G01 X68.5501 Y102.6557
G01 X68.5716 Y102.6572
G01 X68.5819 Y102.6583
G01 X68.6065 Y102.6628
G01 X68.6306 Y102.6694
G01 X68.6404 Y102.6728
G01 X68.6604 Y102.6808
G01 X68.6798 Y102.6904
G01 X68.6888 Y102.6954
G01 X68.7070 Y102.7070
G01 X68.7153 Y102.7131
G01 X68.7322 Y102.7265
G01 X68.7528 Y102.7462
G01 X68.7713 Y102.7678
G01 X68.7877 Y102.7911
G01 X68.8016 Y102.8159
G01 X68.8731 Y102.9588
G01 X68.8816 Y102.9775
G01 X68.8857 Y102.9881
G01 X68.8901 Y103.0010
G01 X68.8942 Y103.0152
G01 X68.8987 Y103.0353
G01 X68.9019 Y103.0567
G01 X68.9031 Y103.0714
G01 X68.9037 Y103.0885
G01 X68.9036 Y103.3107
G01 X68.9026 Y103.3278
G01 X68.9014 Y103.3391
G01 X68.8987 Y103.3560
G01 X68.8965 Y103.3671
G01 X68.8921 Y103.3837
G01 X68.8888 Y103.3945
G01 X68.8174 Y103.6088
G01 X68.8114 Y103.6249
G01 X68.8056 Y103.6385
G01 X68.7980 Y103.6538
G01 X68.7924 Y103.6637
G01 X68.7852 Y103.6754
G01 X68.7789 Y103.6848
G01 X68.7685 Y103.6984
G01 X68.7613 Y103.7071
G01 X68.7473 Y103.7222
G01 X68.5962 Y103.8729
G01 X68.5807 Y103.8863
G01 X68.5633 Y103.8992
G01 X68.5509 Y103.9072
G01 X68.5391 Y103.9141
G01 X68.5290 Y103.9194
G01 X68.3804 Y103.9937
G01 X68.3633 Y104.0010
G01 X68.3508 Y104.0057
G01 X68.3268 Y104.0128
G01 X68.0411 Y104.0842
G01 X68.0240 Y104.0879
G01 X68.0026 Y104.0911
G01 X67.9848 Y104.0925
G01 X67.9707 Y104.0929
G01 X67.7530 Y104.0928
G01 X67.7389 Y104.0923
G01 X67.7246 Y104.0911
G01 X67.7106 Y104.0892
G01 X67.6894 Y104.0850
G01 X67.4004 Y104.0128
G01 X67.3908 Y104.0102
G01 X67.3731 Y104.0045
G01 X67.3607 Y103.9997
G01 X67.3410 Y103.9908
G01 X67.1982 Y103.9194
G01 X67.1881 Y103.9141
G01 X67.1763 Y103.9072
G01 X67.1667 Y103.9011
G01 X67.1473 Y103.8870
G01 X67.1284 Y103.8706
G01 X66.9775 Y103.7197
G01 X66.9637 Y103.7045
G01 X66.9503 Y103.6875
G01 X66.9420 Y103.6754
G01 X66.9330 Y103.6607
G01 X66.9276 Y103.6508
G01 X66.9202 Y103.6353
G01 X66.9158 Y103.6249
G01 X66.9110 Y103.6121
G01 X66.8360 Y103.3870
G01 X66.8307 Y103.3671
G01 X66.8285 Y103.3560
G01 X66.8263 Y103.3425
G01 X66.8246 Y103.3278
G01 X66.8236 Y103.3073
G00 Z1.2500
G00 X66.8240 Y106.3176
G01 F50.00
G01 Z-0.0400
G01 F100.00
G01 X66.8235 Y106.3028
G01 X66.8236 Y106.1520
G01 X66.8253 Y106.1281
G01 X66.8291 Y106.1034
G01 X66.8315 Y106.0923
