(G-CODE GENERATED BY FLATCAM v2024.4 - www.flatcam.org - Version Date: 2024/04/15)

(Name: power_board-F_Cu.gbr_iso_combined_3_cnc)
(Type: G-code from Geometry)
(Units: MM)

(Created on Monday, 06 October 2025 at 15:31)

(This preprocessor is the default preprocessor used by FlatCAM.)
(It is made to work with MACH3 compatible motion controllers.)

(TOOL DIAMETER: 0.2536 mm)
(Feedrate_XY: 60.0 mm/min)
(Feedrate_Z: 30.0 mm/min)
(Feedrate rapids 1500.0 mm/min)

(Z_Cut: -0.005 mm)
(Z_Move: 2.0 mm)
(Z Start: None mm)
(Z End: 15.0 mm)
(X,Y End: None mm)
(Steps per circle: 64)
(Preprocessor Geometry: default)

(X range:   20.6981 ...  133.7633  mm)
(Y range:    6.6608 ...  143.3950  mm)

(Spindle Speed: 17000.0 RPM)
G21
G90
G94

G01 F60.00

M5
G00 Z15.0000
G00 X0.0000 Y0.0000
T1
M6    
(MSG, Change to Tool Dia = 0.2536)
M0
G00 Z15.0000

M03 S17000.0
G01 F60.00
G00 X27.6666 Y27.3818
G01 F30.00
G01 Z-0.0050
G01 F60.00
G01 X27.7560 Y27.4356
G01 X27.8368 Y27.4953
G01 X29.9430 Y27.4953
G01 X29.9528 Y27.4294
G01 X29.9545 Y27.4203
G01 X29.9910 Y27.2744
G01 X29.9936 Y27.2655
G01 X30.0464 Y27.1181
G01 X30.1119 Y26.9794
G01 X30.1162 Y26.9711
G01 X30.1968 Y26.8369
G01 X30.2919 Y26.7086
G01 X30.3991 Y26.5904
G01 X30.5126 Y26.4872
G01 X30.5198 Y26.4812
G01 X30.6456 Y26.3880
G01 X30.7825 Y26.3060
G01 X30.9268 Y26.2377
G01 X31.0772 Y26.1839
G01 X31.2320 Y26.1451
G01 X31.3899 Y26.1217
G01 X31.5494 Y26.1139
G01 X31.7088 Y26.1217
G01 X31.8668 Y26.1451
G01 X32.0216 Y26.1839
G01 X32.1719 Y26.2377
G01 X32.3163 Y26.3060
G01 X32.4532 Y26.3880
G01 X32.5814 Y26.4831
G01 X32.6997 Y26.5904
G01 X32.8069 Y26.7086
G01 X32.9020 Y26.8369
G01 X32.9841 Y26.9738
G01 X33.0524 Y27.1181
G01 X33.1061 Y27.2684
G01 X33.1449 Y27.4233
G01 X33.1684 Y27.5812
G01 X33.1762 Y27.7407
G01 X33.1684 Y27.9001
G01 X33.1460 Y28.0519
G01 X33.1436 Y28.0641
G01 X33.1061 Y28.2129
G01 X33.0524 Y28.3632
G01 X32.9841 Y28.5075
G01 X32.9054 Y28.6392
G01 X32.8984 Y28.6496
G01 X32.8108 Y28.7678
G01 X32.8029 Y28.7774
G01 X32.6997 Y28.8910
G01 X32.5814 Y28.9982
G01 X32.4532 Y29.0933
G01 X32.3217 Y29.1723
G01 X32.3107 Y29.1782
G01 X32.1776 Y29.2411
G01 X32.1661 Y29.2459
G01 X32.0216 Y29.2974
G01 X31.8698 Y29.3356
G01 X31.8606 Y29.3373
G01 X31.7150 Y29.3589
G01 X31.7026 Y29.3601
G01 X31.5494 Y29.3675
G01 X31.3899 Y29.3596
G01 X31.2381 Y29.3373
G01 X31.2259 Y29.3349
G01 X31.0772 Y29.2974
G01 X30.9405 Y29.2487
G01 X30.9176 Y29.2497
G01 X27.8368 Y29.2497
G01 X27.7560 Y29.3094
G01 X27.6612 Y29.3663
G01 X27.5612 Y29.4135
G01 X27.4630 Y29.4488
G01 X27.4511 Y29.4524
G01 X27.3559 Y29.4763
G01 X27.3437 Y29.4787
G01 X27.2405 Y29.4939
G01 X27.1300 Y29.4993
G01 X27.0196 Y29.4939
G01 X26.9163 Y29.4787
G01 X26.9041 Y29.4763
G01 X26.8029 Y29.4508
G01 X26.7046 Y29.4158
G01 X26.6931 Y29.4110
G01 X26.5988 Y29.3663
G01 X26.5040 Y29.3094
G01 X26.4152 Y29.2435
G01 X26.3332 Y29.1693
G01 X26.2590 Y29.0873
G01 X26.1931 Y28.9985
G01 X26.1363 Y28.9037
G01 X26.0890 Y28.8037
G01 X26.0517 Y28.6996
G01 X26.0249 Y28.5923
G01 X26.0086 Y28.4829
G01 X26.0032 Y28.3725
G01 X26.0086 Y28.2621
G01 X26.0249 Y28.1527
G01 X26.0517 Y28.0454
G01 X26.0890 Y27.9413
G01 X26.1363 Y27.8413
G01 X26.1931 Y27.7465
G01 X26.2590 Y27.6577
G01 X26.3332 Y27.5757
G01 X26.4152 Y27.5015
G01 X26.5040 Y27.4356
G01 X26.5988 Y27.3788
G01 X26.6988 Y27.3315
G01 X26.8029 Y27.2942
G01 X26.9102 Y27.2674
G01 X27.0196 Y27.2511
G01 X27.1300 Y27.2457
G01 X27.2405 Y27.2511
G01 X27.3498 Y27.2674
G01 X27.4571 Y27.2942
G01 X27.5612 Y27.3315
G01 X27.6556 Y27.3760
G01 X27.6666 Y27.3818
G00 Z2.0000
G00 X28.0810 Y30.8572
G01 F30.00
G01 Z-0.0050
G01 F60.00
G01 X28.1704 Y30.9110
G01 X28.2512 Y30.9707
G01 X30.3574 Y30.9707
G01 X30.3672 Y30.9048
G01 X30.3689 Y30.8956
G01 X30.4054 Y30.7498
G01 X30.4080 Y30.7409
G01 X30.4608 Y30.5935
G01 X30.5263 Y30.4547
G01 X30.5306 Y30.4465
G01 X30.6112 Y30.3123
G01 X30.7063 Y30.1840
G01 X30.8135 Y30.0657
G01 X30.9271 Y29.9626
G01 X30.9342 Y29.9566
G01 X31.0600 Y29.8634
G01 X31.1969 Y29.7813
G01 X31.3413 Y29.7131
G01 X31.4916 Y29.6593
G01 X31.6464 Y29.6205
G01 X31.8043 Y29.5971
G01 X31.9638 Y29.5893
G01 X32.1233 Y29.5971
G01 X32.2812 Y29.6205
G01 X32.4360 Y29.6593
G01 X32.5864 Y29.7131
G01 X32.7307 Y29.7813
G01 X32.8676 Y29.8634
G01 X32.9958 Y29.9585
G01 X33.1141 Y30.0657
G01 X33.2213 Y30.1840
G01 X33.3164 Y30.3123
G01 X33.3985 Y30.4492
G01 X33.4668 Y30.5935
G01 X33.5206 Y30.7438
G01 X33.5593 Y30.8987
G01 X33.5828 Y31.0566
G01 X33.5906 Y31.2161
G01 X33.5828 Y31.3755
G01 X33.5604 Y31.5273
G01 X33.5580 Y31.5395
G01 X33.5206 Y31.6883
G01 X33.4668 Y31.8386
G01 X33.3985 Y31.9829
G01 X33.3198 Y32.1146
G01 X33.3129 Y32.1249
G01 X33.2252 Y32.2432
G01 X33.2173 Y32.2528
G01 X33.1141 Y32.3664
G01 X32.9958 Y32.4736
G01 X32.8676 Y32.5687
G01 X32.7361 Y32.6477
G01 X32.7251 Y32.6536
G01 X32.5920 Y32.7165
G01 X32.5805 Y32.7213
G01 X32.4360 Y32.7728
G01 X32.2842 Y32.8110
G01 X32.2750 Y32.8127
G01 X32.1294 Y32.8343
G01 X32.1171 Y32.8355
G01 X31.9638 Y32.8429
G01 X31.8043 Y32.8350
G01 X31.6526 Y32.8127
G01 X31.6404 Y32.8102
G01 X31.4916 Y32.7728
G01 X31.3549 Y32.7241
G01 X31.3320 Y32.7251
G01 X28.2512 Y32.7251
G01 X28.1704 Y32.7848
G01 X28.0756 Y32.8416
G01 X27.9756 Y32.8889
G01 X27.8774 Y32.9242
G01 X27.8655 Y32.9278
G01 X27.7703 Y32.9517
G01 X27.7581 Y32.9541
G01 X27.6549 Y32.9693
G01 X27.5444 Y32.9747
G01 X27.4340 Y32.9693
G01 X27.3307 Y32.9541
G01 X27.3185 Y32.9517
G01 X27.2173 Y32.9262
G01 X27.1190 Y32.8912
G01 X27.1075 Y32.8864
G01 X27.0133 Y32.8416
G01 X26.9184 Y32.7848
G01 X26.8296 Y32.7189
G01 X26.7477 Y32.6447
G01 X26.6734 Y32.5627
G01 X26.6075 Y32.4739
G01 X26.5507 Y32.3791
G01 X26.5034 Y32.2791
G01 X26.4661 Y32.1750
G01 X26.4393 Y32.0677
G01 X26.4231 Y31.9583
G01 X26.4176 Y31.8479
G01 X26.4231 Y31.7374
G01 X26.4393 Y31.6281
G01 X26.4661 Y31.5208
G01 X26.5034 Y31.4167
G01 X26.5507 Y31.3167
G01 X26.6075 Y31.2219
G01 X26.6734 Y31.1330
G01 X26.7477 Y31.0511
G01 X26.8296 Y30.9769
G01 X26.9184 Y30.9110
G01 X27.0133 Y30.8541
G01 X27.1132 Y30.8069
G01 X27.2173 Y30.7696
G01 X27.3246 Y30.7427
G01 X27.4340 Y30.7265
G01 X27.5444 Y30.7211
G01 X27.6549 Y30.7265
G01 X27.7643 Y30.7427
G01 X27.8715 Y30.7696
G01 X27.9756 Y30.8069
G01 X28.0700 Y30.8513
G01 X28.0810 Y30.8572
G00 Z2.0000
G00 X40.1142 Y22.7154
G01 F30.00
G01 Z-0.0050
G01 F60.00
G01 X40.2615 Y22.5681
G01 X40.4301 Y22.4456
G01 X40.6157 Y22.3510
G01 X40.8139 Y22.2866
G01 X41.0197 Y22.2540
G01 X41.2280 Y22.2540
G01 X41.4338 Y22.2866
G01 X41.6320 Y22.3510
G01 X41.8176 Y22.4456
G01 X41.9862 Y22.5681
G01 X42.1335 Y22.7154
G01 X42.2560 Y22.8840
G01 X42.3506 Y23.0696
G01 X42.4149 Y23.2678
G01 X42.4475 Y23.4736
G01 X42.4475 Y23.6819
G01 X42.4149 Y23.8877
G01 X42.3506 Y24.0859
G01 X42.2560 Y24.2715
G01 X42.1335 Y24.4401
G01 X41.9862 Y24.5874
G01 X41.8176 Y24.7099
G01 X41.6320 Y24.8045
G01 X41.4338 Y24.8689
G01 X41.2280 Y24.9014
G01 X41.0197 Y24.9014
G01 X40.8139 Y24.8689
G01 X40.6157 Y24.8045
G01 X40.4301 Y24.7099
G01 X40.2615 Y24.5874
G01 X40.1142 Y24.4401
G01 X39.9917 Y24.2715
G01 X39.8971 Y24.0859
G01 X39.8327 Y23.8877
G01 X39.8001 Y23.6819
G01 X39.8001 Y23.4736
G01 X39.8327 Y23.2678
G01 X39.8971 Y23.0696
G01 X39.9917 Y22.8840
G01 X40.1142 Y22.7154
G00 Z2.0000
G00 X41.9469 Y23.4998
G01 F30.00
G01 Z-0.0050
G01 F60.00
G01 X41.9506 Y23.5777
G01 X41.9467 Y23.6588
G01 X41.9347 Y23.7390
G01 X41.9150 Y23.8178
G01 X41.8877 Y23.8941
G01 X41.8530 Y23.9675
G01 X41.8113 Y24.0371
G01 X41.7630 Y24.1023
G01 X41.7085 Y24.1624
G01 X41.6484 Y24.2169
G01 X41.5832 Y24.2652
G01 X41.5136 Y24.3069
G01 X41.4402 Y24.3416
G01 X41.3638 Y24.3689
G01 X41.2851 Y24.3887
G01 X41.2049 Y24.4006
G01 X41.1238 Y24.4045
G01 X41.0428 Y24.4006
G01 X40.9625 Y24.3887
G01 X40.8838 Y24.3689
G01 X40.8074 Y24.3416
G01 X40.7341 Y24.3069
G01 X40.6645 Y24.2652
G01 X40.5993 Y24.2169
G01 X40.5392 Y24.1624
G01 X40.4847 Y24.1023
G01 X40.4364 Y24.0371
G01 X40.3947 Y23.9675
G01 X40.3600 Y23.8941
G01 X40.3326 Y23.8178
G01 X40.3129 Y23.7390
G01 X40.3010 Y23.6588
G01 X40.2970 Y23.5777
G01 X40.3010 Y23.4967
G01 X40.3129 Y23.4164
G01 X40.3326 Y23.3377
G01 X40.3600 Y23.2613
G01 X40.3947 Y23.1880
G01 X40.4364 Y23.1184
G01 X40.4847 Y23.0532
G01 X40.5392 Y22.9931
G01 X40.5993 Y22.9386
G01 X40.6645 Y22.8903
G01 X40.7341 Y22.8486
G01 X40.8074 Y22.8139
G01 X40.8838 Y22.7865
G01 X40.9625 Y22.7668
G01 X41.0428 Y22.7549
G01 X41.1238 Y22.7509
G01 X41.2049 Y22.7549
G01 X41.2851 Y22.7668
G01 X41.3638 Y22.7865
G01 X41.4402 Y22.8139
G01 X41.5136 Y22.8486
G01 X41.5832 Y22.8903
G01 X41.6484 Y22.9386
G01 X41.7085 Y22.9931
G01 X41.7630 Y23.0532
G01 X41.8113 Y23.1184
G01 X41.8530 Y23.1880
G01 X41.8877 Y23.2613
G01 X41.9150 Y23.3377
G01 X41.9347 Y23.4164
G01 X41.9459 Y23.4905
G01 X41.9469 Y23.4998
G00 Z2.0000
G00 X49.9565 Y21.0758
G01 F30.00
G01 Z-0.0050
G01 F60.00
G01 X49.9651 Y21.0722
G01 X49.9740 Y21.0692
G01 X50.9379 Y20.7822
G01 X50.7559 Y19.2605
G01 X50.5529 Y17.5342
G01 X50.5480 Y17.4873
G01 X50.5447 Y17.4391
G01 X50.5431 Y17.3872
G01 X50.5434 Y17.3408
G01 X50.5452 Y17.2979
G01 X50.5486 Y17.2561
G01 X50.5541 Y17.2104
G01 X50.5615 Y17.1656
G01 X50.5694 Y17.1272
G01 X50.5788 Y17.0900
G01 X50.5911 Y17.0485
G01 X50.6053 Y17.0082
G01 X50.6189 Y16.9746
G01 X50.6350 Y16.9395
G01 X50.6542 Y16.9030
G01 X50.6716 Y16.8733
G01 X50.6901 Y16.8450
G01 X50.7137 Y16.8126
G01 X50.7390 Y16.7819
G01 X50.7610 Y16.7578
G01 X50.7840 Y16.7352
G01 X50.8132 Y16.7093
G01 X50.8439 Y16.6854
G01 X50.8699 Y16.6674
G01 X50.8965 Y16.6509
G01 X50.9304 Y16.6325
G01 X50.9586 Y16.6193
G01 X50.9978 Y16.6038
G01 X51.0274 Y16.5940
G01 X51.0611 Y16.5850
G01 X51.0953 Y16.5779
G01 X51.1299 Y16.5728
G01 X58.4180 Y15.7038
G01 X58.5167 Y15.6916
G01 X58.5330 Y15.6901
G01 X58.5496 Y15.6896
G01 X58.5662 Y15.6903
G01 X58.5790 Y15.6917
G01 X58.5963 Y15.6949
G01 X58.6098 Y15.6984
G01 X58.6203 Y15.7018
G01 X58.6340 Y15.7074
G01 X58.6476 Y15.7142
G01 X58.6597 Y15.7214
G01 X58.6713 Y15.7297
G01 X58.6803 Y15.7370
G01 X58.6906 Y15.7467
G01 X58.7009 Y15.7580
G01 X58.7101 Y15.7698
G01 X58.7181 Y15.7819
G01 X58.7254 Y15.7949
G01 X58.7313 Y15.8071
G01 X58.7362 Y15.8193
G01 X58.7416 Y15.8356
G01 X58.7448 Y15.8473
G01 X58.7479 Y15.8618
G01 X58.7547 Y15.9085
G01 X59.0752 Y18.5954
G01 X59.0768 Y18.6052
G01 X59.0775 Y18.6145
G01 X59.0775 Y18.6248
G01 X59.3914 Y21.2566
G01 X59.3967 Y21.3045
G01 X59.3989 Y21.3301
G01 X59.3997 Y21.3493
G01 X59.3997 Y21.3658
G01 X59.3989 Y21.3788
G01 X59.3972 Y21.3942
G01 X59.3943 Y21.4094
G01 X59.3905 Y21.4237
G01 X59.3868 Y21.4342
G01 X59.3829 Y21.4436
G01 X59.3751 Y21.4589
G01 X59.3677 Y21.4705
G01 X59.3603 Y21.4803
G01 X59.3512 Y21.4907
G01 X59.3391 Y21.5021
G01 X59.3257 Y21.5124
G01 X59.3176 Y21.5177
G01 X59.3058 Y21.5244
G01 X59.2926 Y21.5307
G01 X59.2769 Y21.5367
G01 X59.2580 Y21.5424
G01 X59.2328 Y21.5479
G01 X59.2119 Y21.5514
G01 X59.1621 Y21.5579
G01 X52.0432 Y22.4110
G01 X51.8250 Y22.4324
G01 X51.7853 Y22.4369
G01 X51.7425 Y22.4404
G01 X51.6967 Y22.4425
G01 X51.6588 Y22.4429
G01 X51.6200 Y22.4419
G01 X51.5824 Y22.4393
G01 X51.5460 Y22.4352
G01 X51.5108 Y22.4296
G01 X51.4768 Y22.4223
G01 X51.4439 Y22.4135
G01 X51.4122 Y22.4031
G01 X51.3830 Y22.3915
G01 X51.3562 Y22.3791
G01 X51.3260 Y22.3627
G01 X51.3018 Y22.3474
G01 X51.2767 Y22.3293
G01 X51.2701 Y22.3241
G01 X51.2489 Y22.3061
G01 X51.2272 Y22.2850
G01 X51.2071 Y22.2628
G01 X51.1871 Y22.2375
G01 X51.1724 Y22.2166
G01 X51.1571 Y22.1918
G01 X51.1432 Y22.1664
G01 X51.1308 Y22.1404
G01 X51.1101 Y22.0872
G01 X51.0937 Y22.0310
G01 X51.0824 Y21.9781
G01 X51.0743 Y21.9236
G01 X51.0375 Y21.6153
G01 X50.0297 Y21.5628
G01 X50.0205 Y21.5617
G01 X50.0113 Y21.5600
G01 X50.0023 Y21.5576
G01 X49.9934 Y21.5545
G01 X49.9849 Y21.5508
G01 X49.9766 Y21.5465
G01 X49.9686 Y21.5415
G01 X49.9587 Y21.5341
G01 X49.9517 Y21.5279
G01 X49.9431 Y21.5188
G01 X49.9373 Y21.5115
G01 X49.9321 Y21.5038
G01 X49.9260 Y21.4929
G01 X49.9221 Y21.4844
G01 X49.9180 Y21.4727
G01 X49.9156 Y21.4636
G01 X49.9135 Y21.4514
G01 X49.8843 Y21.2058
G01 X49.8834 Y21.1902
G01 X49.8837 Y21.1809
G01 X49.8848 Y21.1716
G01 X49.8866 Y21.1624
G01 X49.8890 Y21.1534
G01 X49.8945 Y21.1388
G01 X49.8986 Y21.1305
G01 X49.9033 Y21.1224
G01 X49.9087 Y21.1147
G01 X49.9145 Y21.1075
G01 X49.9209 Y21.1007
G01 X49.9278 Y21.0943
G01 X49.9402 Y21.0850
G01 X49.9482 Y21.0801
G01 X49.9565 Y21.0758
G00 Z2.0000
G00 X49.8378 Y20.5861
G01 F30.00
G01 Z-0.0050
G01 F60.00
G01 X50.1868 Y20.4822
G01 X50.2010 Y20.4770
G01 X50.2144 Y20.4702
G01 X50.2834 Y20.4255
G01 X50.2956 Y20.4155
G01 X50.3022 Y20.4089
G01 X50.3084 Y20.4017
G01 X50.3157 Y20.3915
G01 X50.3220 Y20.3806
G01 X50.3536 Y20.3112
G01 X50.3591 Y20.2968
G01 X50.3615 Y20.2878
G01 X50.3633 Y20.2787
G01 X50.3644 Y20.2695
G01 X50.3648 Y20.2603
G01 X50.3651 Y20.2251
G01 X50.3642 Y20.2120
G01 X50.2574 Y19.3191
G01 X50.0533 Y17.5828
G01 X50.0489 Y17.5394
G01 X50.0468 Y17.5156
G01 X50.0440 Y17.4740
G01 X50.0428 Y17.4494
G01 X50.0415 Y17.4089
G01 X50.0412 Y17.3837
G01 X50.0414 Y17.3444
G01 X50.0420 Y17.3183
G01 X50.0436 Y17.2803
G01 X50.0453 Y17.2536
G01 X50.0483 Y17.2167
G01 X50.0510 Y17.1894
G01 X50.0554 Y17.1537
G01 X50.0593 Y17.1257
G01 X50.0649 Y17.0913
G01 X50.0702 Y17.0627
G01 X50.0771 Y17.0296
G01 X50.0837 Y17.0006
G01 X50.0918 Y16.9687
G01 X50.0999 Y16.9391
G01 X50.1091 Y16.9086
G01 X50.1188 Y16.8787
G01 X50.1290 Y16.8494
G01 X50.1404 Y16.8192
G01 X50.1517 Y16.7912
G01 X50.1647 Y16.7609
G01 X50.1770 Y16.7341
G01 X50.1919 Y16.7038
G01 X50.2051 Y16.6783
G01 X50.2218 Y16.6481
G01 X50.2360 Y16.6240
G01 X50.2546 Y16.5940
G01 X50.2696 Y16.5711
G01 X50.2901 Y16.5415
G01 X50.3059 Y16.5200
G01 X50.3283 Y16.4910
G01 X50.3449 Y16.4707
G01 X50.3693 Y16.4425
G01 X50.3866 Y16.4234
G01 X50.4129 Y16.3962
G01 X50.4309 Y16.3785
G01 X50.4590 Y16.3524
G01 X50.4777 Y16.3359
G01 X50.5076 Y16.3111
G01 X50.5270 Y16.2959
G01 X50.5585 Y16.2726
G01 X50.5785 Y16.2587
G01 X50.6116 Y16.2370
G01 X50.6321 Y16.2243
G01 X50.6666 Y16.2045
G01 X50.6877 Y16.1931
G01 X50.7234 Y16.1752
G01 X50.7450 Y16.1651
G01 X50.7819 Y16.1492
G01 X50.8040 Y16.1405
G01 X50.8417 Y16.1268
G01 X50.8643 Y16.1193
G01 X50.9026 Y16.1078
G01 X50.9257 Y16.1016
G01 X50.9645 Y16.0924
G01 X50.9880 Y16.0875
G01 X51.0270 Y16.0806
G01 X51.0714 Y16.0743
G01 X55.7470 Y15.5167
G01 X55.7618 Y15.5141
G01 X55.7762 Y15.5097
G01 X55.8490 Y15.4787
G01 X55.8601 Y15.4729
G01 X55.8707 Y15.4660
G01 X55.8805 Y15.4581
G01 X55.8916 Y15.4469
G01 X55.9012 Y15.4345
G01 X55.9404 Y15.3766
G01 X55.9469 Y15.3658
G01 X55.9511 Y15.3573
G01 X55.9557 Y15.3454
G01 X55.9584 Y15.3363
G01 X55.9603 Y15.3270
G01 X55.9616 Y15.3176
G01 X55.9666 Y15.2651
G01 X55.9672 Y15.2561
G01 X55.9671 Y15.2470
G01 X55.9663 Y15.2380
G01 X55.8666 Y14.4014
G01 X55.8643 Y14.3795
G01 X55.8619 Y14.3443
G01 X55.8612 Y14.3020
G01 X55.8625 Y14.2636
G01 X55.8658 Y14.2253
G01 X55.8704 Y14.1911
G01 X55.8772 Y14.1538
G01 X55.8858 Y14.1170
G01 X55.8961 Y14.0811
G01 X55.9081 Y14.0458
G01 X55.9232 Y14.0079
G01 X55.9385 Y13.9744
G01 X55.9555 Y13.9416
G01 X55.9720 Y13.9129
G01 X55.9938 Y13.8791
G01 X56.0151 Y13.8494
G01 X56.0356 Y13.8233
G01 X56.0594 Y13.7958
G01 X56.0871 Y13.7667
G01 X56.1112 Y13.7437
G01 X56.1389 Y13.7197
G01 X56.1680 Y13.6968
G01 X56.2010 Y13.6734
G01 X56.2327 Y13.6532
G01 X56.2653 Y13.6348
G01 X56.2958 Y13.6193
G01 X56.3304 Y13.6037
G01 X56.3693 Y13.5886
G01 X56.4057 Y13.5766
G01 X56.4393 Y13.5673
G01 X56.4769 Y13.5588
G01 X56.5152 Y13.5522
G01 X56.5372 Y13.5492
G01 X59.0408 Y13.2507
G01 X59.0628 Y13.2484
G01 X59.0978 Y13.2460
G01 X59.1366 Y13.2452
G01 X59.1787 Y13.2466
G01 X59.2169 Y13.2499
G01 X59.2546 Y13.2550
G01 X59.2885 Y13.2613
G01 X59.3251 Y13.2699
G01 X59.3613 Y13.2802
G01 X59.3997 Y13.2934
G01 X59.4344 Y13.3073
G01 X59.4648 Y13.3211
G01 X59.4975 Y13.3379
G01 X59.5294 Y13.3562
G01 X59.5632 Y13.3779
G01 X59.5928 Y13.3991
G01 X59.6189 Y13.4196
G01 X59.6465 Y13.4435
G01 X59.6756 Y13.4713
G01 X59.7009 Y13.4979
G01 X59.7227 Y13.5231
G01 X59.7455 Y13.5521
G01 X59.7670 Y13.5824
G01 X59.7890 Y13.6168
G01 X59.8075 Y13.6494
G01 X59.8245 Y13.6831
G01 X59.8385 Y13.7144
G01 X59.8523 Y13.7499
G01 X59.8645 Y13.7864
G01 X59.8749 Y13.8234
G01 X59.8834 Y13.8611
G01 X59.8901 Y13.8994
G01 X59.8930 Y13.9213
G01 X60.0470 Y15.2147
G01 X60.0498 Y15.2543
G01 X60.0506 Y15.2967
G01 X60.0492 Y15.3352
G01 X60.0463 Y15.3699
G01 X60.0408 Y15.4111
G01 X60.0338 Y15.4486
G01 X60.0260 Y15.4817
G01 X60.0157 Y15.5177
G01 X60.0036 Y15.5531
G01 X59.9886 Y15.5909
G01 X59.9748 Y15.6212
G01 X59.9579 Y15.6541
G01 X59.9379 Y15.6889
G01 X59.9200 Y15.7167
G01 X59.8988 Y15.7466
G01 X59.8740 Y15.7781
G01 X59.8499 Y15.8057
G01 X59.8246 Y15.8321
G01 X59.8005 Y15.8550
G01 X59.7728 Y15.8791
G01 X59.7408 Y15.9042
G01 X59.7105 Y15.9256
G01 X59.6822 Y15.9436
G01 X59.6464 Y15.9641
G01 X59.6127 Y15.9811
G01 X59.5815 Y15.9950
G01 X59.5424 Y16.0102
G01 X59.5096 Y16.0211
G01 X59.4830 Y16.0287
G01 X59.4746 Y16.0318
G01 X59.4663 Y16.0355
G01 X59.4558 Y16.0414
G01 X59.3938 Y16.0800
G01 X59.3861 Y16.0854
G01 X59.3788 Y16.0915
G01 X59.3720 Y16.0980
G01 X59.3657 Y16.1051
G01 X59.3599 Y16.1126
G01 X59.3532 Y16.1232
G01 X59.3488 Y16.1315
G01 X59.3188 Y16.1946
G01 X59.3140 Y16.2063
G01 X59.3096 Y16.2215
G01 X59.3071 Y16.2371
G01 X59.3066 Y16.2466
G01 X59.3059 Y16.2808
G01 X59.3064 Y16.2954
G01 X59.5741 Y18.5402
G01 X59.5758 Y18.5644
G01 X59.8418 Y20.7953
G01 X59.8432 Y20.8043
G01 X59.8460 Y20.8160
G01 X59.8511 Y20.8302
G01 X59.8799 Y20.8973
G01 X59.8873 Y20.9112
G01 X59.8964 Y20.9241
G01 X59.9070 Y20.9357
G01 X59.9190 Y20.9459
G01 X59.9819 Y20.9887
G01 X59.9928 Y20.9953
G01 X60.0042 Y21.0007
G01 X60.0191 Y21.0059
G01 X60.0283 Y21.0081
G01 X60.0652 Y21.0145
G01 X60.0768 Y21.0160
G01 X60.1052 Y21.0171
G01 X60.1436 Y21.0204
G01 X60.1812 Y21.0256
G01 X60.2151 Y21.0318
G01 X60.2552 Y21.0413
G01 X60.2879 Y21.0508
G01 X60.3230 Y21.0627
G01 X60.3609 Y21.0778
G01 X60.3945 Y21.0932
G01 X60.4272 Y21.1102
G01 X60.4589 Y21.1285
G01 X60.4897 Y21.1484
G01 X60.5195 Y21.1697
G01 X60.5482 Y21.1924
G01 X60.5758 Y21.2165
G01 X60.6022 Y21.2418
G01 X60.6274 Y21.2684
G01 X60.6492 Y21.2937
G01 X60.6720 Y21.3226
G01 X60.6936 Y21.3529
G01 X60.7155 Y21.3873
G01 X60.7341 Y21.4200
G01 X60.7511 Y21.4537
G01 X60.7664 Y21.4883
G01 X60.7790 Y21.5205
G01 X60.7911 Y21.5568
G01 X60.8015 Y21.5940
G01 X60.8107 Y21.6353
G01 X60.8166 Y21.6699
G01 X60.8196 Y21.6918
G01 X60.9718 Y22.9679
G01 X60.9740 Y22.9898
G01 X60.9766 Y23.0287
G01 X60.9772 Y23.0674
G01 X60.9758 Y23.1057
G01 X60.9725 Y23.1441
G01 X60.9674 Y23.1817
G01 X60.9604 Y23.2191
G01 X60.9516 Y23.2557
G01 X60.9411 Y23.2917
G01 X60.9290 Y23.3268
G01 X60.9165 Y23.3582
G01 X60.8998 Y23.3949
G01 X60.8828 Y23.4277
G01 X60.8644 Y23.4594
G01 X60.8445 Y23.4902
G01 X60.8254 Y23.5171
G01 X60.8005 Y23.5487
G01 X60.7765 Y23.5763
G01 X60.7512 Y23.6027
G01 X60.7271 Y23.6256
G01 X60.6993 Y23.6497
G01 X60.6703 Y23.6726
G01 X60.6401 Y23.6941
G01 X60.6057 Y23.7160
G01 X60.5730 Y23.7346
G01 X60.5392 Y23.7516
G01 X60.5080 Y23.7655
G01 X60.4725 Y23.7794
G01 X60.4361 Y23.7916
G01 X60.3955 Y23.8029
G01 X60.3576 Y23.8112
G01 X60.3231 Y23.8171
G01 X60.3011 Y23.8201
G01 X57.7802 Y24.1205
G01 X57.7406 Y24.1233
G01 X57.7017 Y24.1241
G01 X57.6634 Y24.1229
G01 X57.6249 Y24.1198
G01 X57.5873 Y24.1148
G01 X57.5498 Y24.1080
G01 X57.5131 Y24.0994
G01 X57.4737 Y24.0880
G01 X57.4386 Y24.0759
G01 X57.4039 Y24.0620
G01 X57.3705 Y24.0467
G01 X57.3376 Y24.0297
G01 X57.3059 Y24.0113
G01 X57.2752 Y23.9914
G01 X57.2454 Y23.9701
G01 X57.2168 Y23.9475
G01 X57.1892 Y23.9234
G01 X57.1627 Y23.8980
G01 X57.1375 Y23.8715
G01 X57.1133 Y23.8434
G01 X57.0908 Y23.8144
G01 X57.0693 Y23.7840
G01 X57.0493 Y23.7525
G01 X57.0309 Y23.7200
G01 X57.0138 Y23.6862
G01 X56.9984 Y23.6514
G01 X56.9847 Y23.6160
G01 X56.9738 Y23.5830
G01 X56.9625 Y23.5423
G01 X56.9542 Y23.5046
G01 X56.9482 Y23.4698
G01 X56.9453 Y23.4480
G01 X56.8435 Y22.5940
G01 X56.8415 Y22.5821
G01 X56.8384 Y22.5704
G01 X56.8341 Y22.5591
G01 X56.8067 Y22.4949
G01 X56.8011 Y22.4836
G01 X56.7945 Y22.4729
G01 X56.7869 Y22.4629
G01 X56.7783 Y22.4537
G01 X56.7688 Y22.4454
G01 X56.7612 Y22.4398
G01 X56.7007 Y22.3989
G01 X56.6897 Y22.3926
G01 X56.6781 Y22.3874
G01 X56.6630 Y22.3826
G01 X56.6506 Y22.3801
G01 X56.5917 Y22.3743
G01 X56.5766 Y22.3738
G01 X56.5646 Y22.3747
G01 X52.1035 Y22.9092
G01 X51.8791 Y22.9314
G01 X51.8420 Y22.9356
G01 X51.7838 Y22.9406
G01 X51.7609 Y22.9420
G01 X51.7260 Y22.9437
G01 X51.7013 Y22.9444
G01 X51.6682 Y22.9448
G01 X51.6417 Y22.9446
G01 X51.6104 Y22.9437
G01 X51.5819 Y22.9424
G01 X51.5525 Y22.9404
G01 X51.5221 Y22.9376
G01 X51.4943 Y22.9345
G01 X51.4620 Y22.9301
G01 X51.4359 Y22.9259
G01 X51.4019 Y22.9196
G01 X51.3775 Y22.9144
G01 X51.3417 Y22.9058
G01 X51.3188 Y22.8997
G01 X51.2817 Y22.8885
G01 X51.2604 Y22.8815
G01 X51.2220 Y22.8676
G01 X51.2023 Y22.8598
G01 X51.1632 Y22.8429
G01 X51.1448 Y22.8342
G01 X51.1056 Y22.8143
G01 X51.0885 Y22.8049
G01 X51.0497 Y22.7819
G01 X51.0338 Y22.7718
G01 X50.9960 Y22.7459
G01 X50.9812 Y22.7350
G01 X50.9450 Y22.7065
G01 X50.9313 Y22.6949
G01 X50.8972 Y22.6642
G01 X50.8844 Y22.6519
G01 X50.8529 Y22.6195
G01 X50.8409 Y22.6064
G01 X50.8123 Y22.5729
G01 X50.8012 Y22.5590
G01 X50.7756 Y22.5249
G01 X50.7652 Y22.5102
G01 X50.7427 Y22.4760
G01 X50.7331 Y22.4605
G01 X50.7135 Y22.4269
G01 X50.7047 Y22.4106
G01 X50.6879 Y22.3777
G01 X50.6801 Y22.3613
G01 X50.6599 Y22.3146
G01 X50.6453 Y22.2771
G01 X50.6357 Y22.2494
G01 X50.6321 Y22.2411
G01 X50.6279 Y22.2331
G01 X50.6214 Y22.2229
G01 X50.5812 Y22.1658
G01 X50.5755 Y22.1583
G01 X50.5670 Y22.1489
G01 X50.5601 Y22.1425
G01 X50.5527 Y22.1367
G01 X50.5449 Y22.1313
G01 X50.5367 Y22.1266
G01 X50.5282 Y22.1225
G01 X50.4578 Y22.0939
G01 X50.4433 Y22.0894
G01 X50.4285 Y22.0866
G01 X50.4134 Y22.0854
G01 X50.0115 Y22.0644
G01 X49.8608 Y22.0382
G01 X49.7268 Y21.9808
G01 X49.6097 Y21.8940
G01 X49.5157 Y21.7826
G01 X49.4500 Y21.6524
G01 X49.4143 Y21.5034
G01 X49.3865 Y21.2699
G01 X49.3867 Y21.1169
G01 X49.4205 Y20.9751
G01 X49.4861 Y20.8450
G01 X49.5800 Y20.7334
G01 X49.6971 Y20.6466
G01 X49.8378 Y20.5861
G00 Z2.0000
G00 X52.7152 Y20.5378
G01 F30.00
G01 Z-0.0050
G01 F60.00
G01 X52.7227 Y20.5135
G01 X52.7313 Y20.4896
G01 X52.7411 Y20.4662
G01 X52.7521 Y20.4431
G01 X52.7642 Y20.4206
G01 X52.7775 Y20.3987
G01 X52.7918 Y20.3774
G01 X52.8073 Y20.3567
G01 X52.8238 Y20.3368
G01 X52.8411 Y20.3178
G01 X52.8593 Y20.2997
G01 X52.8784 Y20.2827
G01 X52.8982 Y20.2666
G01 X52.9187 Y20.2515
G01 X52.9399 Y20.2375
G01 X52.9617 Y20.2245
G01 X52.9842 Y20.2126
G01 X53.0072 Y20.2019
G01 X53.0307 Y20.1922
G01 X53.0548 Y20.1837
G01 X53.0792 Y20.1763
G01 X53.1041 Y20.1702
G01 X53.1294 Y20.1653
G01 X53.1550 Y20.1616
G01 X53.1807 Y20.1591
G01 X53.2064 Y20.1580
G01 X53.2320 Y20.1581
G01 X53.2575 Y20.1595
G01 X53.2829 Y20.1621
G01 X53.3081 Y20.1660
G01 X53.3330 Y20.1711
G01 X53.3576 Y20.1773
G01 X53.3819 Y20.1848
G01 X53.4058 Y20.1935
G01 X53.4293 Y20.2033
G01 X53.4523 Y20.2142
G01 X53.4748 Y20.2264
G01 X53.4967 Y20.2396
G01 X53.5180 Y20.2540
G01 X53.5388 Y20.2694
G01 X53.5587 Y20.2859
G01 X53.5776 Y20.3033
G01 X53.5957 Y20.3215
G01 X53.6127 Y20.3405
G01 X53.6288 Y20.3603
G01 X53.6439 Y20.3808
G01 X53.6579 Y20.4020
G01 X53.6709 Y20.4239
G01 X53.6828 Y20.4463
G01 X53.6936 Y20.4693
G01 X53.7032 Y20.4929
G01 X53.7117 Y20.5169
G01 X53.7191 Y20.5414
G01 X53.7252 Y20.5663
G01 X53.7301 Y20.5915
G01 X53.7338 Y20.6171
G01 X53.7363 Y20.6439
G01 X53.7375 Y20.6704
G01 X53.7373 Y20.6967
G01 X53.7358 Y20.7227
G01 X53.7330 Y20.7484
G01 X53.7289 Y20.7737
G01 X53.7237 Y20.7986
G01 X53.7172 Y20.8232
G01 X53.7096 Y20.8473
G01 X53.7009 Y20.8709
G01 X53.6910 Y20.8941
G01 X53.6800 Y20.9167
G01 X53.6680 Y20.9387
G01 X53.6550 Y20.9601
G01 X53.6410 Y20.9808
G01 X53.6259 Y21.0008
G01 X53.6100 Y21.0201
G01 X53.5932 Y21.0386
G01 X53.5754 Y21.0563
G01 X53.5569 Y21.0732
G01 X53.5375 Y21.0891
G01 X53.5173 Y21.1042
G01 X53.4964 Y21.1182
G01 X53.4747 Y21.1313
G01 X53.4524 Y21.1434
G01 X53.4294 Y21.1543
G01 X53.4057 Y21.1642
G01 X53.3814 Y21.1730
G01 X53.3565 Y21.1805
G01 X53.3310 Y21.1869
G01 X53.3049 Y21.1920
G01 X53.2783 Y21.1959
G01 X53.2515 Y21.1984
G01 X53.2249 Y21.1996
G01 X53.1987 Y21.1994
G01 X53.1727 Y21.1978
G01 X53.1470 Y21.1951
G01 X53.1217 Y21.1910
G01 X53.0967 Y21.1858
G01 X53.0722 Y21.1793
G01 X53.0481 Y21.1717
G01 X53.0244 Y21.1630
G01 X53.0013 Y21.1531
G01 X52.9787 Y21.1421
G01 X52.9567 Y21.1301
G01 X52.9353 Y21.1171
G01 X52.9146 Y21.1031
G01 X52.8945 Y21.0881
G01 X52.8752 Y21.0721
G01 X52.8567 Y21.0553
G01 X52.8390 Y21.0375
G01 X52.8222 Y21.0190
G01 X52.8062 Y20.9996
G01 X52.7912 Y20.9794
G01 X52.7771 Y20.9585
G01 X52.7640 Y20.9369
G01 X52.7520 Y20.9145
G01 X52.7410 Y20.8915
G01 X52.7311 Y20.8678
G01 X52.7224 Y20.8436
G01 X52.7148 Y20.8187
G01 X52.7084 Y20.7932
G01 X52.7033 Y20.7671
G01 X52.6994 Y20.7404
G01 X52.6970 Y20.7147
G01 X52.6959 Y20.6890
G01 X52.6960 Y20.6634
G01 X52.6974 Y20.6379
G01 X52.7000 Y20.6125
G01 X52.7038 Y20.5874
G01 X52.7089 Y20.5625
G01 X52.7152 Y20.5378
G00 Z2.0000
G00 X52.4013 Y17.9057
G01 F30.00
G01 Z-0.0050
G01 F60.00
G01 X52.4088 Y17.8814
G01 X52.4174 Y17.8575
G01 X52.4273 Y17.8340
G01 X52.4382 Y17.8110
G01 X52.4503 Y17.7885
G01 X52.4636 Y17.7666
G01 X52.4780 Y17.7453
G01 X52.4934 Y17.7245
G01 X52.5099 Y17.7046
G01 X52.5273 Y17.6857
G01 X52.5455 Y17.6676
G01 X52.5645 Y17.6506
G01 X52.5843 Y17.6345
G01 X52.6048 Y17.6194
G01 X52.6260 Y17.6054
G01 X52.6479 Y17.5924
G01 X52.6703 Y17.5805
G01 X52.6933 Y17.5697
G01 X52.7169 Y17.5601
G01 X52.7409 Y17.5516
G01 X52.7654 Y17.5442
G01 X52.7903 Y17.5381
G01 X52.8155 Y17.5331
G01 X52.8411 Y17.5294
G01 X52.8668 Y17.5270
G01 X52.8925 Y17.5259
G01 X52.9182 Y17.5260
G01 X52.9437 Y17.5274
G01 X52.9690 Y17.5300
G01 X52.9942 Y17.5339
G01 X53.0191 Y17.5389
G01 X53.0437 Y17.5452
G01 X53.0680 Y17.5527
G01 X53.0919 Y17.5613
G01 X53.1154 Y17.5711
G01 X53.1384 Y17.5821
G01 X53.1609 Y17.5942
G01 X53.1828 Y17.6075
G01 X53.2042 Y17.6218
G01 X53.2249 Y17.6373
G01 X53.2448 Y17.6538
G01 X53.2638 Y17.6712
G01 X53.2818 Y17.6894
G01 X53.2989 Y17.7084
G01 X53.3149 Y17.7282
G01 X53.3300 Y17.7487
G01 X53.3440 Y17.7699
G01 X53.3570 Y17.7917
G01 X53.3689 Y17.8142
G01 X53.3797 Y17.8372
G01 X53.3894 Y17.8608
G01 X53.3979 Y17.8848
G01 X53.4052 Y17.9093
G01 X53.4114 Y17.9341
G01 X53.4163 Y17.9594
G01 X53.4200 Y17.9850
G01 X53.4224 Y18.0107
G01 X53.4236 Y18.0364
G01 X53.4234 Y18.0620
G01 X53.4220 Y18.0875
G01 X53.4194 Y18.1129
G01 X53.4156 Y18.1381
G01 X53.4105 Y18.1630
G01 X53.4042 Y18.1876
G01 X53.3968 Y18.2119
G01 X53.3881 Y18.2358
G01 X53.3783 Y18.2593
G01 X53.3673 Y18.2823
G01 X53.3552 Y18.3048
G01 X53.3420 Y18.3267
G01 X53.3276 Y18.3481
G01 X53.3121 Y18.3688
G01 X53.2956 Y18.3887
G01 X53.2783 Y18.4077
G01 X53.2601 Y18.4257
G01 X53.2410 Y18.4427
G01 X53.2213 Y18.4588
G01 X53.2007 Y18.4739
G01 X53.1795 Y18.4879
G01 X53.1577 Y18.5009
G01 X53.1352 Y18.5128
G01 X53.1122 Y18.5236
G01 X53.0887 Y18.5332
G01 X53.0646 Y18.5417
G01 X53.0402 Y18.5491
G01 X53.0153 Y18.5552
G01 X52.9900 Y18.5602
G01 X52.9644 Y18.5639
G01 X52.9387 Y18.5663
G01 X52.9130 Y18.5674
G01 X52.8874 Y18.5673
G01 X52.8619 Y18.5659
G01 X52.8365 Y18.5633
G01 X52.8114 Y18.5594
G01 X52.7864 Y18.5544
G01 X52.7618 Y18.5481
G01 X52.7375 Y18.5406
G01 X52.7136 Y18.5320
G01 X52.6901 Y18.5222
G01 X52.6671 Y18.5112
G01 X52.6446 Y18.4991
G01 X52.6227 Y18.4858
G01 X52.6014 Y18.4715
G01 X52.5807 Y18.4560
G01 X52.5607 Y18.4395
G01 X52.5418 Y18.4221
G01 X52.5237 Y18.4039
G01 X52.5067 Y18.3849
G01 X52.4906 Y18.3651
G01 X52.4755 Y18.3446
G01 X52.4615 Y18.3234
G01 X52.4485 Y18.3016
G01 X52.4366 Y18.2791
G01 X52.4259 Y18.2561
G01 X52.4162 Y18.2325
G01 X52.4077 Y18.2085
G01 X52.4003 Y18.1840
G01 X52.3942 Y18.1592
G01 X52.3893 Y18.1339
G01 X52.3856 Y18.1083
G01 X52.3831 Y18.0826
G01 X52.3820 Y18.0569
G01 X52.3821 Y18.0313
G01 X52.3835 Y18.0058
G01 X52.3861 Y17.9804
G01 X52.3900 Y17.9552
G01 X52.3950 Y17.9303
G01 X52.4013 Y17.9057
G00 Z2.0000
G00 X59.3191 Y15.5507
G01 F30.00
G01 Z-0.0050
G01 F60.00
G01 X56.8075 Y15.8502
G01 X56.7871 Y15.8516
G01 X56.7706 Y15.8516
G01 X56.7542 Y15.8505
G01 X56.7345 Y15.8478
G01 X56.7187 Y15.8446
G01 X56.7032 Y15.8404
G01 X56.6847 Y15.8341
G01 X56.6701 Y15.8280
G01 X56.6587 Y15.8225
G01 X56.6449 Y15.8148
G01 X56.6287 Y15.8044
G01 X56.6161 Y15.7951
G01 X56.6041 Y15.7851
G01 X56.5902 Y15.7718
G01 X56.5795 Y15.7602
G01 X56.5715 Y15.7504
G01 X56.5621 Y15.7376
G01 X56.5516 Y15.7212
G01 X56.5439 Y15.7071
G01 X56.5383 Y15.6954
G01 X56.5322 Y15.6803
G01 X56.5258 Y15.6613
G01 X56.5217 Y15.6453
G01 X56.5191 Y15.6322
G01 X56.5172 Y15.6188
G01 X56.3638 Y14.3310
G01 X56.3630 Y14.3144
G01 X56.3633 Y14.2979
G01 X56.3649 Y14.2779
G01 X56.3674 Y14.2619
G01 X56.3700 Y14.2491
G01 X56.3742 Y14.2337
G01 X56.3805 Y14.2152
G01 X56.3867 Y14.2006
G01 X56.3922 Y14.1892
G01 X56.3998 Y14.1754
G01 X56.4102 Y14.1592
G01 X56.4196 Y14.1466
G01 X56.4296 Y14.1346
G01 X56.4429 Y14.1207
G01 X56.4545 Y14.1100
G01 X56.4667 Y14.1001
G01 X56.4826 Y14.0889
G01 X56.4962 Y14.0805
G01 X56.5076 Y14.0744
G01 X56.5222 Y14.0675
G01 X56.5408 Y14.0603
G01 X56.5564 Y14.0554
G01 X56.5693 Y14.0522
G01 X56.5857 Y14.0491
G01 X59.1042 Y13.7486
G01 X59.1246 Y13.7472
G01 X59.1412 Y13.7472
G01 X59.1575 Y13.7483
G01 X59.1772 Y13.7509
G01 X59.1931 Y13.7542
G01 X59.2086 Y13.7583
G01 X59.2270 Y13.7647
G01 X59.2416 Y13.7708
G01 X59.2531 Y13.7763
G01 X59.2668 Y13.7840
G01 X59.2830 Y13.7944
G01 X59.2956 Y13.8037
G01 X59.3076 Y13.8137
G01 X59.3215 Y13.8270
G01 X59.3322 Y13.8386
G01 X59.3403 Y13.8484
G01 X59.3479 Y13.8586
G01 X59.3567 Y13.8719
G01 X59.3664 Y13.8889
G01 X59.3721 Y13.9006
G01 X59.3785 Y13.9155
G01 X59.3829 Y13.9279
G01 X59.3868 Y13.9405
G01 X59.3907 Y13.9566
G01 X59.3926 Y13.9666
G01 X59.3945 Y13.9799
G01 X59.5469 Y15.2576
G01 X59.5483 Y15.2742
G01 X59.5487 Y15.2844
G01 X59.5486 Y15.2977
G01 X59.5479 Y15.3109
G01 X59.5464 Y15.3240
G01 X59.5444 Y15.3369
G01 X59.5417 Y15.3496
G01 X59.5384 Y15.3621
G01 X59.5345 Y15.3744
G01 X59.5301 Y15.3864
G01 X59.5251 Y15.3982
G01 X59.5195 Y15.4096
G01 X59.5135 Y15.4208
G01 X59.5069 Y15.4316
G01 X59.4998 Y15.4421
G01 X59.4861 Y15.4596
G01 X59.4756 Y15.4713
G01 X59.4667 Y15.4802
G01 X59.4498 Y15.4949
G01 X59.4372 Y15.5045
G01 X59.4292 Y15.5099
G01 X59.4128 Y15.5198
G01 X59.4042 Y15.5244
G01 X59.3924 Y15.5300
G01 X59.3804 Y15.5350
G01 X59.3680 Y15.5395
G01 X59.3553 Y15.5433
G01 X59.3424 Y15.5466
G01 X59.3293 Y15.5492
G01 X59.3191 Y15.5507
G00 Z2.0000
G00 X57.4751 Y23.4863
G01 F30.00
G01 Z-0.0050
G01 F60.00
G01 X57.4705 Y23.4776
G01 X57.4649 Y23.4659
G01 X57.4598 Y23.4538
G01 X57.4554 Y23.4414
G01 X57.4515 Y23.4288
G01 X57.4483 Y23.4159
G01 X57.4457 Y23.4027
G01 X57.4442 Y23.3925
G01 X57.2914 Y22.1117
G01 X57.2902 Y22.0983
G01 X57.2897 Y22.0881
G01 X57.2897 Y22.0716
G01 X57.2908 Y22.0552
G01 X57.2934 Y22.0355
G01 X57.2966 Y22.0197
G01 X57.2999 Y22.0072
G01 X57.3048 Y21.9920
G01 X57.3120 Y21.9739
G01 X57.3188 Y21.9597
G01 X57.3264 Y21.9459
G01 X57.3368 Y21.9297
G01 X57.3461 Y21.9171
G01 X57.3562 Y21.9051
G01 X57.3695 Y21.8912
G01 X57.3810 Y21.8806
G01 X57.3933 Y21.8706
G01 X57.4092 Y21.8594
G01 X57.4228 Y21.8511
G01 X57.4341 Y21.8449
G01 X57.4459 Y21.8393
G01 X57.4609 Y21.8332
G01 X57.4799 Y21.8269
G01 X57.4928 Y21.8235
G01 X57.5091 Y21.8202
G01 X57.5224 Y21.8182
G01 X60.0276 Y21.5195
G01 X60.0410 Y21.5182
G01 X60.0576 Y21.5176
G01 X60.0777 Y21.5183
G01 X60.0940 Y21.5199
G01 X60.1100 Y21.5226
G01 X60.1292 Y21.5271
G01 X60.1444 Y21.5318
G01 X60.1593 Y21.5375
G01 X60.1769 Y21.5455
G01 X60.1908 Y21.5529
G01 X60.2041 Y21.5612
G01 X60.2198 Y21.5723
G01 X60.2342 Y21.5843
G01 X60.2481 Y21.5975
G01 X60.2588 Y21.6091
G01 X60.2687 Y21.6214
G01 X60.2799 Y21.6372
G01 X60.2883 Y21.6508
G01 X60.2944 Y21.6622
G01 X60.3000 Y21.6740
G01 X60.3062 Y21.6890
G01 X60.3125 Y21.7080
G01 X60.3159 Y21.7209
G01 X60.3192 Y21.7371
G01 X60.3207 Y21.7473
G01 X60.4735 Y23.0281
G01 X60.4749 Y23.0447
G01 X60.4753 Y23.0650
G01 X60.4744 Y23.0814
G01 X60.4726 Y23.0976
G01 X60.4690 Y23.1171
G01 X60.4650 Y23.1327
G01 X60.4601 Y23.1478
G01 X60.4529 Y23.1659
G01 X60.4461 Y23.1802
G01 X60.4385 Y23.1939
G01 X60.4281 Y23.2101
G01 X60.4188 Y23.2227
G01 X60.4087 Y23.2347
G01 X60.3954 Y23.2486
G01 X60.3839 Y23.2593
G01 X60.3716 Y23.2692
G01 X60.3557 Y23.2804
G01 X60.3421 Y23.2888
G01 X60.3307 Y23.2949
G01 X60.3190 Y23.3005
G01 X60.3040 Y23.3067
G01 X60.2850 Y23.3130
G01 X60.2721 Y23.3164
G01 X60.2558 Y23.3197
G01 X60.2425 Y23.3216
G01 X57.7373 Y23.6204
G01 X57.7239 Y23.6216
G01 X57.7073 Y23.6222
G01 X57.6972 Y23.6221
G01 X57.6840 Y23.6213
G01 X57.6678 Y23.6194
G01 X57.6483 Y23.6158
G01 X57.6327 Y23.6119
G01 X57.6176 Y23.6070
G01 X57.5995 Y23.5998
G01 X57.5825 Y23.5916
G01 X57.5659 Y23.5819
G01 X57.5528 Y23.5732
G01 X57.5353 Y23.5596
G01 X57.5214 Y23.5470
G01 X57.5082 Y23.5330
G01 X57.4962 Y23.5185
G01 X57.4849 Y23.5026
G01 X57.4751 Y23.4863
G00 Z2.0000
G00 X43.4862 Y36.4084
G01 F30.00
G01 Z-0.0050
G01 F60.00
G01 X43.4899 Y36.4863
G01 X43.4859 Y36.5673
G01 X43.4740 Y36.6476
G01 X43.4543 Y36.7263
G01 X43.4269 Y36.8027
G01 X43.3923 Y36.8760
G01 X43.3505 Y36.9456
G01 X43.3022 Y37.0108
G01 X43.2477 Y37.0709
G01 X43.1876 Y37.1254
G01 X43.1224 Y37.1738
G01 X43.0528 Y37.2155
G01 X42.9795 Y37.2502
G01 X42.9031 Y37.2775
G01 X42.8244 Y37.2972
G01 X42.7441 Y37.3091
G01 X42.6631 Y37.3131
G01 X42.5820 Y37.3091
G01 X42.5018 Y37.2972
G01 X42.4231 Y37.2775
G01 X42.3467 Y37.2502
G01 X42.2733 Y37.2155
G01 X42.2037 Y37.1738
G01 X42.1386 Y37.1254
G01 X42.0784 Y37.0709
G01 X42.0240 Y37.0108
G01 X41.9756 Y36.9456
G01 X41.9339 Y36.8760
G01 X41.8992 Y36.8027
G01 X41.8719 Y36.7263
G01 X41.8522 Y36.6476
G01 X41.8403 Y36.5673
G01 X41.8363 Y36.4863
G01 X41.8403 Y36.4053
G01 X41.8522 Y36.3250
G01 X41.8719 Y36.2463
G01 X41.8992 Y36.1699
G01 X41.9339 Y36.0965
G01 X41.9756 Y36.0269
G01 X42.0240 Y35.9618
G01 X42.0784 Y35.9017
G01 X42.1386 Y35.8472
G01 X42.2037 Y35.7988
G01 X42.2733 Y35.7571
G01 X42.3467 Y35.7224
G01 X42.4231 Y35.6951
G01 X42.5018 Y35.6754
G01 X42.5820 Y35.6635
G01 X42.6631 Y35.6595
G01 X42.7441 Y35.6635
G01 X42.8244 Y35.6754
G01 X42.9031 Y35.6951
G01 X42.9795 Y35.7224
G01 X43.0528 Y35.7571
G01 X43.1224 Y35.7988
G01 X43.1876 Y35.8472
G01 X43.2477 Y35.9017
G01 X43.3022 Y35.9618
G01 X43.3505 Y36.0269
G01 X43.3923 Y36.0965
G01 X43.4269 Y36.1699
G01 X43.4543 Y36.2463
G01 X43.4740 Y36.3250
G01 X43.4851 Y36.3991
G01 X43.4862 Y36.4084
G00 Z2.0000
G00 X41.5323 Y37.4126
G01 F30.00
G01 Z-0.0050
G01 F60.00
G01 X41.5413 Y37.4110
G01 X41.5504 Y37.4100
G01 X41.6201 Y37.4050
G01 X41.6326 Y37.4047
G01 X41.6452 Y37.4057
G01 X41.6576 Y37.4079
G01 X41.6727 Y37.4124
G01 X41.6843 Y37.4173
G01 X41.7512 Y37.4537
G01 X41.7640 Y37.4617
G01 X41.7712 Y37.4672
G01 X41.7779 Y37.4732
G01 X41.8008 Y37.4960
G01 X41.9693 Y37.6184
G01 X42.1550 Y37.7130
G01 X42.3531 Y37.7774
G01 X42.5589 Y37.8100
G01 X42.7673 Y37.8100
G01 X42.9731 Y37.7774
G01 X43.1712 Y37.7130
G01 X43.3569 Y37.6184
G01 X43.5254 Y37.4960
G01 X43.6727 Y37.3486
G01 X43.7952 Y37.1801
G01 X43.8898 Y36.9944
G01 X43.9542 Y36.7963
G01 X43.9868 Y36.5905
G01 X43.9868 Y36.3821
G01 X43.9542 Y36.1763
G01 X43.8923 Y35.9852
G01 X43.8866 Y35.9624
G01 X43.8848 Y35.9529
G01 X43.8837 Y35.9401
G01 X43.8838 Y35.9272
G01 X43.8930 Y35.8451
G01 X43.8965 Y35.8298
G01 X43.9018 Y35.8150
G01 X43.9090 Y35.8009
G01 X43.9178 Y35.7879
G01 X43.9658 Y35.7289
G01 X43.9719 Y35.7223
G01 X43.9785 Y35.7160
G01 X43.9904 Y35.7068
G01 X51.3475 Y30.6488
G01 X51.3815 Y30.6259
G01 X51.3936 Y30.6184
G01 X51.4618 Y30.5797
G01 X51.4785 Y30.5710
G01 X51.5545 Y30.5363
G01 X51.5695 Y30.5303
G01 X51.6405 Y30.5048
G01 X51.6611 Y30.4984
G01 X51.7392 Y30.4779
G01 X51.7550 Y30.4746
G01 X51.8320 Y30.4613
G01 X51.8507 Y30.4589
G01 X51.9288 Y30.4522
G01 X51.9430 Y30.4515
G01 X51.9838 Y30.4511
G01 X58.2938 Y30.4511
G01 X58.3370 Y30.4515
G01 X58.3515 Y30.4522
G01 X58.4307 Y30.4591
G01 X58.4524 Y30.4620
G01 X58.5277 Y30.4753
G01 X58.5490 Y30.4800
G01 X58.6229 Y30.4998
G01 X58.6385 Y30.5046
G01 X58.7208 Y30.5345
G01 X58.7358 Y30.5409
G01 X58.8101 Y30.5757
G01 X58.8245 Y30.5833
G01 X58.8907 Y30.6215
G01 X58.9092 Y30.6333
G01 X58.9718 Y30.6771
G01 X58.9892 Y30.6905
G01 X59.0477 Y30.7396
G01 X59.0599 Y30.7506
G01 X59.1179 Y30.8084
G01 X59.1291 Y30.8204
G01 X59.1853 Y30.8875
G01 X59.1952 Y30.9005
G01 X59.2390 Y30.9631
G01 X59.2508 Y30.9816
G01 X59.2890 Y31.0478
G01 X59.2991 Y31.0672
G01 X59.3314 Y31.1365
G01 X59.3378 Y31.1516
G01 X59.3669 Y31.2312
G01 X59.3725 Y31.2494
G01 X59.3936 Y31.3287
G01 X59.3971 Y31.3447
G01 X59.4108 Y31.4227
G01 X59.4132 Y31.4416
G01 X59.4201 Y31.5208
G01 X59.4208 Y31.5353
G01 X59.4212 Y31.5760
G01 X59.4212 Y37.7289
G01 X59.4208 Y37.7722
G01 X59.4199 Y37.7892
G01 X59.4125 Y37.8718
G01 X59.4103 Y37.8881
G01 X59.3969 Y37.9637
G01 X59.3921 Y37.9851
G01 X59.3722 Y38.0592
G01 X59.3655 Y38.0801
G01 X59.3392 Y38.1522
G01 X59.3330 Y38.1674
G01 X59.2982 Y38.2420
G01 X59.2907 Y38.2566
G01 X59.2495 Y38.3279
G01 X59.2407 Y38.3418
G01 X59.1902 Y38.4136
G01 X59.1801 Y38.4265
G01 X59.1305 Y38.4852
G01 X59.1176 Y38.4993
G01 X59.0590 Y38.5576
G01 X59.0483 Y38.5674
G01 X59.0153 Y38.5956
G01 X44.4142 Y50.7631
G01 X44.3809 Y50.7903
G01 X44.3674 Y50.8004
G01 X44.3045 Y50.8442
G01 X44.2908 Y50.8530
G01 X44.2152 Y50.8963
G01 X44.2008 Y50.9037
G01 X44.1266 Y50.9379
G01 X44.1116 Y50.9440
G01 X44.0400 Y50.9699
G01 X44.0193 Y50.9764
G01 X43.9457 Y50.9960
G01 X43.9245 Y51.0007
G01 X43.8496 Y51.0139
G01 X43.8334 Y51.0161
G01 X43.7515 Y51.0233
G01 X43.7324 Y51.0243
G01 X43.6917 Y51.0247
G01 X32.3550 Y51.0247
G01 X32.3119 Y51.0242
G01 X32.2974 Y51.0235
G01 X32.2182 Y51.0166
G01 X32.1992 Y51.0142
G01 X32.1212 Y51.0005
G01 X32.1052 Y50.9971
G01 X32.0260 Y50.9760
G01 X32.0077 Y50.9703
G01 X31.9332 Y50.9432
G01 X31.9181 Y50.9371
G01 X31.8437 Y50.9026
G01 X31.8292 Y50.8951
G01 X31.7534 Y50.8514
G01 X31.7397 Y50.8425
G01 X31.6748 Y50.7970
G01 X31.6597 Y50.7853
G01 X31.6011 Y50.7362
G01 X31.5890 Y50.7252
G01 X31.5309 Y50.6673
G01 X31.5162 Y50.6512
G01 X31.4670 Y50.5926
G01 X31.4570 Y50.5798
G01 X31.4098 Y50.5126
G01 X31.3981 Y50.4942
G01 X31.3572 Y50.4231
G01 X31.3498 Y50.4086
G01 X31.3174 Y50.3392
G01 X31.3091 Y50.3191
G01 X31.2811 Y50.2419
G01 X31.2763 Y50.2264
G01 X31.2565 Y50.1525
G01 X31.2518 Y50.1311
G01 X31.2377 Y50.0504
G01 X31.2357 Y50.0342
G01 X31.2290 Y49.9573
G01 X31.2281 Y49.9404
G01 X31.2276 Y49.8973
G01 X31.2276 Y45.0745
G01 X31.2282 Y45.0285
G01 X31.2290 Y45.0139
G01 X31.2364 Y44.9309
G01 X31.2387 Y44.9146
G01 X31.2522 Y44.8386
G01 X31.2571 Y44.8171
G01 X31.2772 Y44.7426
G01 X31.2839 Y44.7216
G01 X31.3105 Y44.6492
G01 X31.3168 Y44.6339
G01 X31.3519 Y44.5590
G01 X31.3595 Y44.5444
G01 X31.4040 Y44.4681
G01 X31.4130 Y44.4543
G01 X31.4593 Y44.3891
G01 X31.4712 Y44.3739
G01 X31.5248 Y44.3110
G01 X31.5342 Y44.3010
G01 X31.5536 Y44.2818
G01 X31.5714 Y44.2659
G01 X31.5777 Y44.2608
G01 X31.8462 Y44.0563
G01 X31.8561 Y44.0491
G01 X41.4607 Y37.4460
G01 X41.4712 Y37.4394
G01 X41.5064 Y37.4213
G01 X41.5205 Y37.4158
G01 X41.5323 Y37.4126
G00 Z2.0000
G00 X66.8194 Y54.9788
G01 F30.00
G01 Z-0.0050
G01 F60.00
G01 X66.8185 Y54.9698
G01 X66.8181 Y54.9608
G01 X66.8181 Y53.0474
G01 X66.8190 Y53.0323
G01 X66.8210 Y53.0204
G01 X66.8337 Y52.9628
G01 X66.8377 Y52.9507
G01 X66.8442 Y52.9363
G01 X66.8507 Y52.9254
G01 X66.8583 Y52.9153
G01 X66.9061 Y52.8600
G01 X66.9148 Y52.8509
G01 X66.9243 Y52.8428
G01 X66.9347 Y52.8356
G01 X66.9457 Y52.8294
G01 X66.9572 Y52.8244
G01 X66.9662 Y52.8214
G01 X67.0361 Y52.8009
G01 X67.0509 Y52.7979
G01 X67.0629 Y52.7967
G01 X112.0419 Y52.7966
G01 X112.0510 Y52.7969
G01 X112.0630 Y52.7983
G01 X112.1204 Y52.8107
G01 X112.1356 Y52.8150
G01 X112.1502 Y52.8212
G01 X112.1639 Y52.8292
G01 X112.1741 Y52.8367
G01 X112.2316 Y52.8866
G01 X112.2426 Y52.8979
G01 X112.2503 Y52.9079
G01 X112.2570 Y52.9185
G01 X112.2625 Y52.9298
G01 X112.2660 Y52.9386
G01 X112.2892 Y53.0175
G01 X112.2918 Y53.0323
G01 X112.2927 Y53.0474
G01 X112.2927 Y92.6872
G01 X112.3226 Y92.9521
G01 X112.3819 Y93.2121
G01 X112.4700 Y93.4637
G01 X112.5856 Y93.7039
G01 X112.7275 Y93.9296
G01 X112.8937 Y94.1381
G01 X120.3473 Y101.5916
G01 X120.3563 Y101.6017
G01 X120.3730 Y101.6224
G01 X120.3786 Y101.6299
G01 X120.3836 Y101.6377
G01 X120.3880 Y101.6460
G01 X120.3940 Y101.6603
G01 X120.4172 Y101.7391
G01 X120.4198 Y101.7539
G01 X120.4207 Y101.7690
G01 X120.4207 Y110.7702
G01 X120.4200 Y110.7837
G01 X120.4172 Y110.8101
G01 X120.4158 Y110.8193
G01 X120.4138 Y110.8284
G01 X120.4111 Y110.8374
G01 X120.4078 Y110.8461
G01 X120.4038 Y110.8546
G01 X120.3659 Y110.9239
G01 X120.3573 Y110.9362
G01 X120.3494 Y110.9454
G01 X118.6669 Y112.6279
G01 X118.5007 Y112.8364
G01 X118.3588 Y113.0621
G01 X118.3018 Y113.1804
G01 X118.2946 Y113.1933
G01 X118.2681 Y113.2313
G01 X118.2628 Y113.2384
G01 X118.2549 Y113.2473
G01 X118.2266 Y113.2760
G01 X118.1512 Y113.4008
G01 X118.1067 Y113.5397
G01 X118.0953 Y113.6850
G01 X118.1004 Y113.7181
G01 X118.1014 Y113.7301
G01 X118.1015 Y113.7391
G01 X118.0995 Y113.7918
G01 X118.0979 Y113.8037
G01 X118.0958 Y113.8139
G01 X118.0659 Y114.0788
G01 X118.0659 Y114.3454
G01 X118.0958 Y114.6103
G01 X118.1551 Y114.8703
G01 X118.2431 Y115.1219
G01 X118.3588 Y115.3621
G01 X118.5007 Y115.5879
G01 X118.6669 Y115.7963
G01 X118.8554 Y115.9848
G01 X119.0638 Y116.1511
G01 X119.2896 Y116.2929
G01 X119.4079 Y116.3499
G01 X119.4208 Y116.3571
G01 X119.4588 Y116.3836
G01 X119.4659 Y116.3889
G01 X119.4747 Y116.3968
G01 X119.5035 Y116.4251
G01 X119.6283 Y116.5005
G01 X119.7672 Y116.5450
G01 X119.9125 Y116.5564
G01 X119.9456 Y116.5513
G01 X119.9576 Y116.5503
G01 X119.9666 Y116.5503
G01 X120.0193 Y116.5522
G01 X120.0312 Y116.5538
G01 X120.0414 Y116.5560
G01 X120.3063 Y116.5858
G01 X120.5729 Y116.5858
G01 X120.8378 Y116.5560
G01 X121.0978 Y116.4966
G01 X121.3494 Y116.4086
G01 X121.5896 Y116.2929
G01 X121.8154 Y116.1511
G01 X122.0238 Y115.9848
G01 X124.5671 Y113.4415
G01 X124.7334 Y113.2330
G01 X124.8752 Y113.0073
G01 X124.9909 Y112.7671
G01 X125.0790 Y112.5154
G01 X125.1383 Y112.2555
G01 X125.1681 Y111.9906
G01 X125.1681 Y100.5486
G01 X125.1383 Y100.2836
G01 X125.0790 Y100.0237
G01 X124.9909 Y99.7721
G01 X124.8752 Y99.5319
G01 X124.7334 Y99.3061
G01 X124.5671 Y99.0977
G01 X117.1136 Y91.6441
G01 X117.1045 Y91.6340
G01 X117.0841 Y91.6084
G01 X117.0773 Y91.5980
G01 X117.0715 Y91.5870
G01 X117.0679 Y91.5784
G01 X117.0650 Y91.5695
G01 X117.0445 Y91.4996
G01 X117.0414 Y91.4848
G01 X117.0405 Y91.4758
G01 X117.0401 Y91.4668
G01 X117.0401 Y50.6491
G01 X117.0406 Y50.6380
G01 X117.0431 Y50.6107
G01 X117.0475 Y50.5848
G01 X117.0507 Y50.5634
G01 X117.0656 Y50.4487
G01 X117.0686 Y50.4214
G01 X117.0703 Y50.3998
G01 X117.0791 Y50.2645
G01 X117.0797 Y50.2399
G01 X117.0803 Y50.1822
G01 X117.1053 Y43.3066
G01 X117.1051 Y43.2483
G01 X117.1046 Y43.2249
G01 X117.0974 Y43.0941
G01 X117.0959 Y43.0732
G01 X117.0933 Y43.0468
G01 X117.0802 Y42.9357
G01 X117.0766 Y42.9094
G01 X117.0731 Y42.8887
G01 X117.0533 Y42.7786
G01 X117.0493 Y42.7580
G01 X117.0435 Y42.7320
G01 X117.0170 Y42.6234
G01 X117.0102 Y42.5976
G01 X117.0043 Y42.5776
G01 X116.9713 Y42.4707
G01 X116.9649 Y42.4508
G01 X116.9559 Y42.4257
G01 X116.9165 Y42.3210
G01 X116.9088 Y42.3014
G01 X116.8984 Y42.2770
G01 X116.8527 Y42.1750
G01 X116.8415 Y42.1510
G01 X116.8320 Y42.1322
G01 X116.7802 Y42.0330
G01 X116.7674 Y42.0097
G01 X116.7569 Y41.9916
G01 X116.6992 Y41.8958
G01 X116.6881 Y41.8780
G01 X116.6734 Y41.8558
G01 X116.6100 Y41.7637
G01 X116.5946 Y41.7421
G01 X116.5819 Y41.7253
G01 X116.5130 Y41.6372
G01 X116.4998 Y41.6208
G01 X116.4826 Y41.6006
G01 X116.4085 Y41.5168
G01 X116.3906 Y41.4973
G01 X116.3760 Y41.4822
G01 X116.2969 Y41.4030
G01 X116.2819 Y41.3884
G01 X116.2623 Y41.3704
G01 X116.1787 Y41.2962
G01 X116.1627 Y41.2825
G01 X116.1421 Y41.2657
G01 X116.0541 Y41.1967
G01 X116.0374 Y41.1840
G01 X116.0158 Y41.1686
G01 X115.9238 Y41.1050
G01 X115.9063 Y41.0933
G01 X115.8839 Y41.0792
G01 X115.7881 Y41.0213
G01 X115.7652 Y41.0080
G01 X115.7467 Y40.9980
G01 X115.6306 Y40.9374
G01 X115.6093 Y40.9272
G01 X115.5536 Y40.9017
G01 X113.4684 Y39.9647
G01 X113.4572 Y39.9587
G01 X113.4280 Y39.9408
G01 X113.4202 Y39.9354
G01 X113.2905 Y39.8320
G01 X113.0648 Y39.6901
G01 X112.8246 Y39.5744
G01 X112.5729 Y39.4864
G01 X112.3130 Y39.4271
G01 X112.2936 Y39.4248
G01 X112.2808 Y39.4224
G01 X112.2375 Y39.4105
G01 X112.2282 Y39.4073
G01 X112.2222 Y39.4048
G01 X91.9905 Y30.3138
G01 X91.9797 Y30.3082
G01 X91.9694 Y30.3017
G01 X91.9180 Y30.2618
G01 X91.9061 Y30.2513
G01 X91.8957 Y30.2394
G01 X91.8868 Y30.2262
G01 X91.8796 Y30.2121
G01 X91.8511 Y30.1414
G01 X91.8482 Y30.1324
G01 X91.8459 Y30.1233
G01 X91.8439 Y30.1109
G01 X91.8431 Y30.0983
G01 X91.8434 Y30.0888
G01 X91.8448 Y30.0763
G01 X91.8597 Y29.9987
G01 X91.8641 Y29.9843
G01 X91.8702 Y29.9705
G01 X100.0171 Y14.0973
G01 X100.0233 Y14.0865
G01 X100.0305 Y14.0765
G01 X100.0691 Y14.0301
G01 X100.0798 Y14.0193
G01 X100.0868 Y14.0134
G01 X100.0968 Y14.0064
G01 X100.1047 Y14.0018
G01 X100.1158 Y13.9965
G01 X100.1896 Y13.9679
G01 X100.2048 Y13.9639
G01 X100.2173 Y13.9620
G01 X100.2267 Y13.9615
G01 X100.2362 Y13.9616
G01 X100.2456 Y13.9624
G01 X100.2549 Y13.9640
G01 X100.3293 Y13.9792
G01 X100.3436 Y13.9838
G01 X100.3574 Y13.9900
G01 X101.2120 Y14.4412
G01 X102.5988 Y15.2149
G01 X103.9725 Y16.0232
G01 X105.3259 Y16.8624
G01 X106.6618 Y17.7341
G01 X107.9727 Y18.6333
G01 X109.2682 Y19.5667
G01 X110.5371 Y20.5263
G01 X111.7826 Y21.5141
G01 X113.0092 Y22.5340
G01 X114.2076 Y23.5782
G01 X115.3858 Y24.6537
G01 X116.5368 Y25.7541
G01 X117.6601 Y26.8789
G01 X118.7620 Y28.0344
G01 X119.8330 Y29.2109
G01 X120.8757 Y30.4107
G01 X121.8923 Y31.6364
G01 X122.8820 Y32.8875
G01 X123.8391 Y34.1567
G01 X124.7699 Y35.4521
G01 X125.6690 Y36.7665
G01 X126.5375 Y38.1012
G01 X127.3734 Y39.4533
G01 X128.1807 Y40.8291
G01 X128.9533 Y42.2183
G01 X129.6963 Y43.6300
G01 X130.4039 Y45.0533
G01 X131.0809 Y46.4978
G01 X131.7231 Y47.9550
G01 X132.3299 Y49.4226
G01 X132.9063 Y50.9132
G01 X133.4446 Y52.4072
G01 X133.7512 Y53.3238
G01 X133.7546 Y53.3357
G01 X133.7567 Y53.3479
G01 X133.7629 Y53.4078
G01 X133.7632 Y53.4231
G01 X133.7625 Y53.4322
G01 X133.7611 Y53.4413
G01 X133.7583 Y53.4532
G01 X133.7543 Y53.4647
G01 X133.7245 Y53.5347
G01 X133.7203 Y53.5431
G01 X133.7154 Y53.5512
G01 X133.7100 Y53.5589
G01 X133.7040 Y53.5662
G01 X133.6952 Y53.5752
G01 X133.6855 Y53.5833
G01 X133.6226 Y53.6262
G01 X133.6149 Y53.6311
G01 X133.6069 Y53.6353
G01 X133.5987 Y53.6390
G01 X133.5902 Y53.6421
G01 X126.5290 Y55.9134
G01 X126.4463 Y55.9667
G01 X126.3802 Y56.0397
G01 X126.3353 Y56.1272
G01 X126.3146 Y56.2234
G01 X126.3194 Y56.3217
G01 X126.3352 Y56.3706
G01 X126.7641 Y57.7610
G01 X127.1614 Y59.1677
G01 X127.5242 Y60.5805
G01 X127.8521 Y61.9973
G01 X128.1481 Y63.4319
G01 X128.4078 Y64.8628
G01 X128.6337 Y66.3024
G01 X128.8260 Y67.7544
G01 X128.9826 Y69.2032
G01 X129.1044 Y70.6538
G01 X129.1919 Y72.1145
G01 X129.2441 Y73.5678
G01 X129.2616 Y75.0263
G01 X129.2441 Y76.4895
G01 X129.1917 Y77.9458
G01 X129.1046 Y79.3990
G01 X128.9826 Y80.8526
G01 X128.8260 Y82.3013
G01 X128.6337 Y83.7534
G01 X128.4078 Y85.1930
G01 X128.1481 Y86.6239
G01 X127.8521 Y88.0584
G01 X127.5242 Y89.4752
G01 X127.1614 Y90.8881
G01 X126.7641 Y92.2948
G01 X126.3351 Y93.6853
G01 X126.3194 Y93.7341
G01 X126.3146 Y93.8324
G01 X126.3353 Y93.9286
G01 X126.3802 Y94.0161
G01 X126.4463 Y94.0890
G01 X126.5290 Y94.1424
G01 X133.5902 Y96.4137
G01 X133.6018 Y96.4181
G01 X133.6129 Y96.4235
G01 X133.6648 Y96.4541
G01 X133.6773 Y96.4629
G01 X133.6842 Y96.4689
G01 X133.6928 Y96.4776
G01 X133.6986 Y96.4846
G01 X133.7055 Y96.4947
G01 X133.7443 Y96.5601
G01 X133.7498 Y96.5714
G01 X133.7552 Y96.5862
G01 X133.7575 Y96.5954
G01 X133.7592 Y96.6047
G01 X133.7601 Y96.6141
G01 X133.7603 Y96.6235
G01 X133.7575 Y96.6995
G01 X133.7562 Y96.7115
G01 X133.7530 Y96.7262
G01 X133.4446 Y97.6485
G01 X132.9058 Y99.1439
G01 X132.3305 Y100.6318
G01 X131.7231 Y102.1008
G01 X131.0809 Y103.5579
G01 X130.4039 Y105.0024
G01 X129.6963 Y106.4258
G01 X128.9533 Y107.8375
G01 X128.1793 Y109.2291
G01 X127.3734 Y110.6025
G01 X126.5375 Y111.9545
G01 X125.6674 Y113.2916
G01 X124.7699 Y114.6037
G01 X123.8391 Y115.8991
G01 X122.8802 Y117.1705
G01 X121.8923 Y118.4194
G01 X120.8775 Y119.6429
G01 X119.8330 Y120.8449
G01 X118.7591 Y122.0245
G01 X117.6601 Y123.1769
G01 X116.5368 Y124.3016
G01 X115.3858 Y125.4021
G01 X114.2076 Y126.4775
G01 X113.0092 Y127.5218
G01 X111.7826 Y128.5417
G01 X110.5371 Y129.5295
G01 X109.2670 Y130.4899
G01 X107.9727 Y131.4224
G01 X106.6618 Y132.3217
G01 X105.3283 Y133.1918
G01 X103.9725 Y134.0325
G01 X102.6026 Y134.8388
G01 X101.2120 Y135.6146
G01 X100.3574 Y136.0658
G01 X100.3461 Y136.0710
G01 X100.3344 Y136.0751
G01 X100.2763 Y136.0910
G01 X100.2613 Y136.0937
G01 X100.2461 Y136.0946
G01 X100.2339 Y136.0941
G01 X100.2188 Y136.0917
G01 X100.1480 Y136.0744
G01 X100.1359 Y136.0708
G01 X100.1242 Y136.0661
G01 X100.1131 Y136.0602
G01 X100.1001 Y136.0513
G01 X100.0906 Y136.0430
G01 X100.0340 Y135.9835
G01 X100.0248 Y135.9715
G01 X100.0171 Y135.9585
G01 X89.8719 Y116.1918
G01 X89.8665 Y116.1800
G01 X89.8625 Y116.1677
G01 X89.8472 Y116.1065
G01 X89.8455 Y116.0973
G01 X89.8445 Y116.0880
G01 X89.8442 Y116.0787
G01 X89.8446 Y116.0694
G01 X89.8461 Y116.0570
G01 X89.8481 Y116.0479
G01 X89.8685 Y115.9745
G01 X89.8741 Y115.9598
G01 X89.8783 Y115.9513
G01 X89.8831 Y115.9432
G01 X89.8904 Y115.9330
G01 X89.9009 Y115.9212
G01 X89.9577 Y115.8705
G01 X89.9646 Y115.8647
G01 X89.9720 Y115.8594
G01 X89.9797 Y115.8547
G01 X89.9878 Y115.8506
G01 X104.1581 Y109.1484
G01 X104.2149 Y109.1210
G01 X104.2361 Y109.1104
G01 X104.2527 Y109.1015
G01 X104.3531 Y109.0462
G01 X104.3765 Y109.0327
G01 X104.3948 Y109.0215
G01 X104.4911 Y108.9604
G01 X104.5137 Y108.9455
G01 X104.5312 Y108.9331
G01 X104.6235 Y108.8662
G01 X104.6407 Y108.8534
G01 X104.6619 Y108.8366
G01 X104.7499 Y108.7641
G01 X104.7704 Y108.7465
G01 X104.7863 Y108.7321
G01 X104.8697 Y108.6543
G01 X104.8892 Y108.6354
G01 X104.9041 Y108.6201
G01 X104.9825 Y108.5373
G01 X104.9970 Y108.5215
G01 X105.0147 Y108.5011
G01 X105.0879 Y108.4136
G01 X105.1014 Y108.3969
G01 X105.1178 Y108.3754
G01 X105.1854 Y108.2836
G01 X105.2010 Y108.2615
G01 X105.2129 Y108.2437
G01 X105.2747 Y108.1478
G01 X105.2889 Y108.1248
G01 X105.2997 Y108.1063
G01 X105.3555 Y108.0068
G01 X105.3656 Y107.9879
G01 X105.3778 Y107.9638
G01 X105.4275 Y107.8607
G01 X105.4363 Y107.8417
G01 X105.4470 Y107.8167
G01 X105.4900 Y107.7111
G01 X105.4998 Y107.6858
G01 X105.5070 Y107.6657
G01 X105.5434 Y107.5576
G01 X105.5516 Y107.5318
G01 X105.5575 Y107.5112
G01 X105.5872 Y107.4011
G01 X105.5937 Y107.3748
G01 X105.5983 Y107.3539
G01 X105.6212 Y107.2422
G01 X105.6261 Y107.2156
G01 X105.6294 Y107.1944
G01 X105.6453 Y107.0815
G01 X105.6479 Y107.0602
G01 X105.6506 Y107.0333
G01 X105.6607 Y106.9004
G01 X105.6616 Y106.8766
G01 X105.6631 Y106.8161
G01 X106.1183 Y78.5949
G01 X106.1188 Y78.5302
G01 X106.1186 Y78.5058
G01 X106.1124 Y78.3690
G01 X106.1105 Y78.3412
G01 X106.1085 Y78.3194
G01 X106.0955 Y78.2030
G01 X106.0919 Y78.1755
G01 X106.0884 Y78.1537
G01 X106.0681 Y78.0384
G01 X106.0640 Y78.0169
G01 X106.0580 Y77.9897
G01 X106.0304 Y77.8759
G01 X106.0249 Y77.8546
G01 X106.0171 Y77.8279
G01 X105.9824 Y77.7161
G01 X105.9755 Y77.6953
G01 X105.9661 Y77.6691
G01 X105.9244 Y77.5597
G01 X105.9140 Y77.5340
G01 X105.9051 Y77.5138
G01 X105.8565 Y77.4073
G01 X105.8445 Y77.3822
G01 X105.8344 Y77.3627
G01 X105.7791 Y77.2595
G01 X105.7684 Y77.2402
G01 X105.7542 Y77.2163
G01 X105.6925 Y77.1169
G01 X105.6807 Y77.0984
G01 X105.6650 Y77.0754
G01 X105.5971 Y76.9800
G01 X105.5840 Y76.9623
G01 X105.5669 Y76.9404
G01 X105.4931 Y76.8495
G01 X105.4790 Y76.8327
G01 X105.4605 Y76.8119
G01 X105.3811 Y76.7259
G01 X105.3618 Y76.7058
G01 X105.3462 Y76.6904
G01 X105.2615 Y76.6096
G01 X105.2409 Y76.5907
G01 X105.2244 Y76.5764
G01 X105.1347 Y76.5011
G01 X105.1131 Y76.4837
G01 X105.0955 Y76.4703
G01 X105.0013 Y76.4009
G01 X104.9833 Y76.3881
G01 X104.9603 Y76.3727
G01 X104.8618 Y76.3094
G01 X104.8431 Y76.2978
G01 X104.8191 Y76.2838
G01 X104.7168 Y76.2269
G01 X104.6922 Y76.2138
G01 X104.6725 Y76.2041
G01 X104.5668 Y76.1537
G01 X104.5415 Y76.1423
G01 X104.5212 Y76.1338
G01 X104.4125 Y76.0903
G01 X104.3920 Y76.0824
G01 X104.3657 Y76.0732
G01 X104.2545 Y76.0367
G01 X104.2279 Y76.0285
G01 X104.2067 Y76.0227
G01 X104.0934 Y75.9933
G01 X104.0664 Y75.9868
G01 X104.0449 Y75.9823
G01 X103.9298 Y75.9601
G01 X103.9082 Y75.9563
G01 X103.8807 Y75.9523
G01 X103.7646 Y75.9374
G01 X103.7369 Y75.9344
G01 X103.7150 Y75.9327
G01 X103.5785 Y75.9243
G01 X103.5542 Y75.9237
G01 X103.4893 Y75.9232
G01 X102.7209 Y75.9232
G01 X102.6955 Y75.9219
G01 X102.6801 Y75.9196
G01 X102.6710 Y75.9173
G01 X102.6621 Y75.9144
G01 X102.5891 Y75.8833
G01 X102.5753 Y75.8759
G01 X102.5649 Y75.8687
G01 X102.5553 Y75.8606
G01 X102.5465 Y75.8515
G01 X102.5369 Y75.8391
G01 X102.4960 Y75.7786
G01 X102.4884 Y75.7648
G01 X102.4825 Y75.7502
G01 X102.4784 Y75.7350
G01 X102.4763 Y75.7194
G01 X102.4744 Y75.6373
G01 X102.4756 Y75.6222
G01 X102.4779 Y75.6104
G01 X102.5227 Y75.4431
G01 X102.5590 Y75.1671
G01 X102.5590 Y74.8887
G01 X102.5227 Y74.6127
G01 X102.4506 Y74.3438
G01 X102.4328 Y74.3007
G01 X102.4289 Y74.2887
G01 X102.4207 Y74.2589
G01 X102.4186 Y74.2500
G01 X102.4168 Y74.2379
G01 X102.4162 Y74.2256
G01 X102.4165 Y74.2164
G01 X102.4175 Y74.2073
G01 X102.4274 Y74.1382
G01 X102.4306 Y74.1227
G01 X102.4357 Y74.1079
G01 X102.4411 Y74.0965
G01 X102.4493 Y74.0831
G01 X102.4571 Y74.0732
G01 X102.5071 Y74.0157
G01 X102.5187 Y74.0050
G01 X102.5315 Y73.9959
G01 X102.5453 Y73.9884
G01 X102.5600 Y73.9827
G01 X102.6300 Y73.9620
G01 X102.6417 Y73.9592
G01 X102.6537 Y73.9575
G01 X102.6657 Y73.9569
G01 X104.0174 Y73.9569
G01 X104.0586 Y73.9565
G01 X104.0852 Y73.9557
G01 X104.1188 Y73.9535
G01 X104.1931 Y73.9470
G01 X104.2310 Y73.9427
G01 X104.2609 Y73.9381
G01 X104.3335 Y73.9253
G01 X104.3709 Y73.9177
G01 X104.4002 Y73.9105
G01 X104.4714 Y73.8914
G01 X104.5005 Y73.8830
G01 X104.5367 Y73.8709
G01 X104.6059 Y73.8457
G01 X104.6415 Y73.8317
G01 X104.6692 Y73.8195
G01 X104.7359 Y73.7883
G01 X104.7702 Y73.7713
G01 X104.7966 Y73.7567
G01 X104.8605 Y73.7199
G01 X104.8931 Y73.6999
G01 X104.9182 Y73.6831
G01 X104.9785 Y73.6409
G01 X105.0029 Y73.6230
G01 X105.0328 Y73.5992
G01 X105.0893 Y73.5519
G01 X105.1120 Y73.5319
G01 X105.1397 Y73.5056
G01 X105.1918 Y73.4535
G01 X105.2182 Y73.4258
G01 X105.2381 Y73.4031
G01 X105.2854 Y73.3466
G01 X105.3043 Y73.3231
G01 X105.3271 Y73.2923
G01 X105.3693 Y73.2320
G01 X105.3905 Y73.2001
G01 X105.4061 Y73.1743
G01 X105.4430 Y73.1104
G01 X105.4575 Y73.0840
G01 X105.4746 Y73.0497
G01 X105.5057 Y72.9829
G01 X105.5209 Y72.9479
G01 X105.5319 Y72.9197
G01 X105.5571 Y72.8505
G01 X105.5668 Y72.8219
G01 X105.5777 Y72.7852
G01 X105.5967 Y72.7141
G01 X105.6039 Y72.6847
G01 X105.6116 Y72.6472
G01 X105.6244 Y72.5747
G01 X105.6300 Y72.5369
G01 X105.6333 Y72.5069
G01 X105.6398 Y72.4327
G01 X105.6416 Y72.4059
G01 X105.6427 Y72.3720
G01 X105.6431 Y72.3307
G01 X105.6431 Y62.0509
G01 X105.6427 Y62.0141
G01 X105.6416 Y61.9802
G01 X105.6398 Y61.9534
G01 X105.6333 Y61.8793
G01 X105.6300 Y61.8492
G01 X105.6244 Y61.8114
G01 X105.6116 Y61.7389
G01 X105.6057 Y61.7093
G01 X105.5968 Y61.6721
G01 X105.5777 Y61.6009
G01 X105.5692 Y61.5719
G01 X105.5571 Y61.5356
G01 X105.5319 Y61.4664
G01 X105.5209 Y61.4382
G01 X105.5057 Y61.4031
G01 X105.4746 Y61.3364
G01 X105.4612 Y61.3093
G01 X105.4430 Y61.2756
G01 X105.4061 Y61.2118
G01 X105.3861 Y61.1792
G01 X105.3694 Y61.1541
G01 X105.3271 Y61.0938
G01 X105.3043 Y61.0630
G01 X105.2854 Y61.0395
G01 X105.2381 Y60.9830
G01 X105.2182 Y60.9603
G01 X105.1918 Y60.9326
G01 X105.1397 Y60.8805
G01 X105.1120 Y60.8542
G01 X105.0893 Y60.8342
G01 X105.0328 Y60.7869
G01 X105.0029 Y60.7631
G01 X104.9785 Y60.7452
G01 X104.9182 Y60.7029
G01 X104.8863 Y60.6818
G01 X104.8605 Y60.6662
G01 X104.7966 Y60.6293
G01 X104.7631 Y60.6111
G01 X104.7360 Y60.5977
G01 X104.6692 Y60.5666
G01 X104.6416 Y60.5544
G01 X104.6060 Y60.5404
G01 X104.5367 Y60.5152
G01 X104.5004 Y60.5031
G01 X104.4714 Y60.4946
G01 X104.4003 Y60.4756
G01 X104.3709 Y60.4684
G01 X104.3334 Y60.4607
G01 X104.2609 Y60.4480
G01 X104.2231 Y60.4423
G01 X104.1931 Y60.4390
G01 X104.1189 Y60.4325
G01 X104.0850 Y60.4304
G01 X104.0582 Y60.4296
G01 X104.0137 Y60.4292
G01 X99.0151 Y60.4292
G01 X98.9708 Y60.4296
G01 X98.9367 Y60.4307
G01 X98.9098 Y60.4325
G01 X98.8357 Y60.4390
G01 X98.8057 Y60.4423
G01 X98.7679 Y60.4479
G01 X98.6953 Y60.4607
G01 X98.6578 Y60.4684
G01 X98.6285 Y60.4755
G01 X98.5573 Y60.4946
G01 X98.5283 Y60.5031
G01 X98.4920 Y60.5152
G01 X98.4228 Y60.5404
G01 X98.3938 Y60.5517
G01 X98.3596 Y60.5666
G01 X98.2928 Y60.5977
G01 X98.2657 Y60.6111
G01 X98.2321 Y60.6293
G01 X98.1683 Y60.6662
G01 X98.1424 Y60.6819
G01 X98.1106 Y60.7029
G01 X98.0502 Y60.7452
G01 X98.0195 Y60.7680
G01 X97.9959 Y60.7869
G01 X97.9394 Y60.8342
G01 X97.9167 Y60.8542
G01 X97.8890 Y60.8805
G01 X97.8369 Y60.9326
G01 X97.8160 Y60.9544
G01 X97.7907 Y60.9830
G01 X97.7433 Y61.0395
G01 X97.7244 Y61.0631
G01 X97.7016 Y61.0938
G01 X97.6594 Y61.1542
G01 X97.6426 Y61.1793
G01 X97.6226 Y61.2118
G01 X97.5858 Y61.2757
G01 X97.5712 Y61.3022
G01 X97.5542 Y61.3363
G01 X97.5230 Y61.4031
G01 X97.5078 Y61.4382
G01 X97.4968 Y61.4663
G01 X97.4716 Y61.5356
G01 X97.4619 Y61.5643
G01 X97.4511 Y61.6009
G01 X97.4320 Y61.6720
G01 X97.4248 Y61.7014
G01 X97.4172 Y61.7388
G01 X97.4044 Y61.8114
G01 X97.3987 Y61.8492
G01 X97.3954 Y61.8792
G01 X97.3890 Y61.9534
G01 X97.3868 Y61.9874
G01 X97.3860 Y62.0141
G01 X97.3856 Y62.0586
G01 X97.3856 Y69.9034
G01 X97.3850 Y69.9154
G01 X97.3827 Y69.9303
G01 X97.3708 Y69.9849
G01 X97.3682 Y69.9941
G01 X97.3649 Y70.0030
G01 X97.3580 Y70.0172
G01 X97.3530 Y70.0253
G01 X97.3475 Y70.0330
G01 X97.2977 Y70.0907
G01 X97.2912 Y70.0976
G01 X97.2794 Y70.1080
G01 X97.2691 Y70.1152
G01 X97.2552 Y70.1227
G01 X97.2406 Y70.1284
G01 X97.1676 Y70.1499
G01 X97.1558 Y70.1524
G01 X97.1439 Y70.1539
G01 X97.1348 Y70.1542
G01 X96.8797 Y70.1542
G01 X96.8647 Y70.1533
G01 X96.8498 Y70.1506
G01 X96.7849 Y70.1333
G01 X96.7706 Y70.1285
G01 X96.7623 Y70.1248
G01 X96.7543 Y70.1206
G01 X96.6641 Y70.0685
G01 X96.4675 Y69.9871
G01 X96.2619 Y69.9320
G01 X96.0509 Y69.9042
G01 X95.8380 Y69.9042
G01 X95.6270 Y69.9320
G01 X95.4214 Y69.9871
G01 X95.2247 Y70.0685
G01 X95.0404 Y70.1749
G01 X94.8715 Y70.3045
G01 X94.7210 Y70.4550
G01 X94.5915 Y70.6239
G01 X94.4850 Y70.8082
G01 X94.4036 Y71.0048
G01 X94.3485 Y71.2104
G01 X94.3207 Y71.4215
G01 X94.3207 Y71.6343
G01 X94.3485 Y71.8453
G01 X94.4036 Y72.0509
G01 X94.4851 Y72.2476
G01 X94.5915 Y72.4319
G01 X94.7210 Y72.6008
G01 X94.8716 Y72.7513
G01 X95.0404 Y72.8808
G01 X95.2248 Y72.9873
G01 X95.3711 Y73.0480
G01 X95.3820 Y73.0530
G01 X95.3903 Y73.0574
G01 X95.3982 Y73.0624
G01 X95.4082 Y73.0700
G01 X95.4640 Y73.1218
G01 X95.4707 Y73.1285
G01 X95.4769 Y73.1357
G01 X95.4825 Y73.1433
G01 X95.4905 Y73.1568
G01 X95.4957 Y73.1683
G01 X95.4997 Y73.1802
G01 X95.5178 Y73.2510
G01 X95.5198 Y73.2602
G01 X95.5211 Y73.2695
G01 X95.5217 Y73.2853
G01 X95.5203 Y73.3009
G01 X95.5171 Y73.3163
G01 X95.4932 Y73.3886
G01 X95.4899 Y73.3975
G01 X95.4844 Y73.4089
G01 X95.4761 Y73.4222
G01 X95.4662 Y73.4344
G01 X95.4548 Y73.4453
G01 X95.3956 Y73.4930
G01 X95.3883 Y73.4983
G01 X95.3805 Y73.5030
G01 X95.3670 Y73.5096
G01 X95.2247 Y73.5685
G01 X95.0404 Y73.6749
G01 X94.8715 Y73.8045
G01 X94.7210 Y73.9550
G01 X94.5915 Y74.1239
G01 X94.5899 Y74.1266
G01 X94.4850 Y74.3082
G01 X94.4036 Y74.5048
G01 X94.3485 Y74.7104
G01 X94.3207 Y74.9215
G01 X94.3207 Y75.1343
G01 X94.3485 Y75.3453
G01 X94.4036 Y75.5509
G01 X94.4851 Y75.7476
G01 X94.5417 Y75.8457
G01 X94.5461 Y75.8539
G01 X94.5498 Y75.8625
G01 X94.5546 Y75.8774
G01 X94.5720 Y75.9445
G01 X94.5745 Y75.9597
G01 X94.5753 Y75.9750
G01 X94.5741 Y75.9902
G01 X94.5712 Y76.0053
G01 X94.5486 Y76.0779
G01 X94.5432 Y76.0920
G01 X94.5392 Y76.1001
G01 X94.5347 Y76.1079
G01 X94.4671 Y76.2091
G01 X94.4125 Y76.3408
G01 X94.3847 Y76.4806
G01 X94.3847 Y76.6415
G01 X94.3844 Y76.6504
G01 X94.3830 Y76.6623
G01 X94.3793 Y76.6817
G01 X94.3783 Y76.6941
G01 X94.3767 Y76.7034
G01 X94.3735 Y76.7156
G01 X94.3688 Y76.7292
G01 X94.3653 Y76.7381
G01 X94.3612 Y76.7466
G01 X94.3547 Y76.7575
G01 X94.3492 Y76.7652
G01 X94.3340 Y76.7846
G01 X94.3188 Y76.8077
G01 X94.3095 Y76.8196
G01 X94.2989 Y76.8303
G01 X94.2871 Y76.8404
G01 X94.2811 Y76.8450
G01 X94.2650 Y76.8593
G01 X94.2463 Y76.8736
G01 X94.2395 Y76.8784
G01 X94.2001 Y76.9172
G01 X94.1833 Y76.9325
G01 X94.1644 Y76.9524
G01 X94.1523 Y76.9665
G01 X94.1058 Y77.0270
G01 X94.0445 Y77.1165
G01 X94.0307 Y77.1374
G01 X94.0203 Y77.1541
G01 X93.9862 Y77.2104
G01 X93.7325 Y77.6378
G01 X93.6675 Y77.7835
G01 X93.6476 Y77.8549
G01 X93.6235 Y78.0126
G01 X93.6233 Y78.0278
G01 X93.6242 Y78.0382
G01 X93.6281 Y78.1167
G01 X93.6281 Y78.1291
G01 X93.6238 Y78.2137
G01 X93.6110 Y78.3006
G01 X93.6091 Y78.3098
G01 X93.5883 Y78.3919
G01 X93.5599 Y78.4717
G01 X93.5552 Y78.4832
G01 X93.5216 Y78.5542
G01 X93.5157 Y78.5652
G01 X93.4720 Y78.6378
G01 X93.4217 Y78.7059
G01 X93.4138 Y78.7156
G01 X93.3611 Y78.7737
G01 X93.3523 Y78.7825
G01 X93.2894 Y78.8393
G01 X93.2163 Y78.8935
G01 X93.1383 Y78.9402
G01 X93.0677 Y78.9738
G01 X92.9545 Y79.0493
G01 X92.9346 Y79.0670
G01 X92.8908 Y79.1080
G01 X92.7881 Y79.2296
G01 X92.7740 Y79.2521
G01 X89.0135 Y85.5855
G01 X88.9488 Y85.7307
G01 X88.9408 Y85.7588
G01 X88.9258 Y85.8177
G01 X88.9043 Y85.9769
G01 X88.9031 Y85.9922
G01 X88.9008 Y86.0045
G01 X88.8971 Y86.0169
G01 X88.8906 Y86.0547
G01 X88.8863 Y86.0699
G01 X88.8815 Y86.0816
G01 X88.8755 Y86.0928
G01 X88.8685 Y86.1033
G01 X88.8626 Y86.1107
G01 X88.8126 Y86.1682
G01 X88.8010 Y86.1788
G01 X88.7935 Y86.1845
G01 X88.7855 Y86.1896
G01 X88.7715 Y86.1968
G01 X88.7567 Y86.2021
G01 X88.6868 Y86.2226
G01 X88.6750 Y86.2252
G01 X88.6630 Y86.2266
G01 X88.6539 Y86.2269
G01 X87.1612 Y86.2269
G01 X87.1612 Y89.6050
G01 X87.1605 Y89.6178
G01 X87.1586 Y89.6305
G01 X87.1453 Y89.6881
G01 X87.1419 Y89.7000
G01 X87.1374 Y89.7116
G01 X87.1318 Y89.7226
G01 X87.1251 Y89.7330
G01 X87.1174 Y89.7428
G01 X87.0682 Y89.7966
G01 X87.0616 Y89.8034
G01 X87.0495 Y89.8134
G01 X87.0417 Y89.8187
G01 X87.0335 Y89.8234
G01 X87.0221 Y89.8287
G01 X87.0102 Y89.8328
G01 X86.9396 Y89.8516
G01 X86.9308 Y89.8536
G01 X86.9188 Y89.8553
G01 X86.9068 Y89.8558
G01 X86.8364 Y89.8540
G01 X86.6897 Y89.8847
G01 X86.6285 Y89.9088
G01 X86.5747 Y89.9333
G01 X86.4432 Y90.0131
G01 X86.3425 Y90.1103
G01 X86.3247 Y90.1316
G01 X86.2606 Y90.2221
G01 X85.3645 Y91.7313
G01 X85.3450 Y91.7635
G01 X85.3375 Y91.7752
G01 X85.2954 Y91.8368
G01 X85.2861 Y91.8496
G01 X85.2423 Y91.9057
G01 X85.2347 Y91.9149
G01 X85.1849 Y91.9711
G01 X85.1768 Y91.9797
G01 X85.1235 Y92.0327
G01 X85.1148 Y92.0408
G01 X85.0583 Y92.0903
G01 X85.0459 Y92.1004
G01 X84.9895 Y92.1436
G01 X84.9766 Y92.1529
G01 X84.9175 Y92.1925
G01 X84.9075 Y92.1989
G01 X84.8426 Y92.2367
G01 X84.8286 Y92.2443
G01 X84.7614 Y92.2779
G01 X84.7506 Y92.2828
G01 X84.6851 Y92.3105
G01 X84.6740 Y92.3148
G01 X84.6031 Y92.3397
G01 X84.5918 Y92.3434
G01 X84.5161 Y92.3647
G01 X84.5026 Y92.3680
G01 X84.4663 Y92.3761
G01 X74.1633 Y94.5718
G01 X74.1521 Y94.5737
G01 X74.1154 Y94.5771
G01 X74.1028 Y94.5771
G01 X74.0871 Y94.5753
G01 X74.0718 Y94.5716
G01 X73.9991 Y94.5490
G01 X73.9904 Y94.5454
G01 X73.9819 Y94.5412
G01 X73.9711 Y94.5347
G01 X73.9635 Y94.5290
G01 X73.9541 Y94.5207
G01 X73.9476 Y94.5139
G01 X73.8966 Y94.4531
G01 X73.8895 Y94.4427
G01 X73.8834 Y94.4317
G01 X73.8785 Y94.4201
G01 X73.8756 Y94.4111
G01 X73.8733 Y94.4020
G01 X73.8718 Y94.3926
G01 X73.8625 Y94.3204
G01 X73.8618 Y94.3053
G01 X73.8622 Y94.2963
G01 X73.8633 Y94.2873
G01 X73.8781 Y94.1939
G01 X73.8781 Y93.9619
G01 X73.8418 Y93.7328
G01 X73.7702 Y93.5122
G01 X73.6649 Y93.3055
G01 X73.5285 Y93.1178
G01 X73.3959 Y92.9852
G01 X73.3897 Y92.9786
G01 X73.3841 Y92.9716
G01 X73.3789 Y92.9641
G01 X73.3504 Y92.9198
G01 X73.3427 Y92.9059
G01 X73.3378 Y92.8943
G01 X73.3349 Y92.8852
G01 X73.3321 Y92.8728
G01 X73.3308 Y92.8634
G01 X73.3256 Y92.7906
G01 X73.3255 Y92.7748
G01 X73.3267 Y92.7623
G01 X73.3293 Y92.7500
G01 X73.3341 Y92.7350
G01 X73.3393 Y92.7235
G01 X73.3757 Y92.6568
G01 X73.3806 Y92.6491
G01 X73.3859 Y92.6418
G01 X73.3959 Y92.6305
G01 X73.5285 Y92.4979
G01 X73.6649 Y92.3103
G01 X73.7702 Y92.1036
G01 X73.8418 Y91.8830
G01 X73.8781 Y91.6539
G01 X73.8781 Y91.4219
G01 X73.8418 Y91.1928
G01 X73.7702 Y90.9722
G01 X73.6649 Y90.7655
G01 X73.5285 Y90.5778
G01 X73.3645 Y90.4138
G01 X73.1768 Y90.2775
G01 X72.9701 Y90.1722
G01 X72.7495 Y90.1005
G01 X72.5204 Y90.0642
G01 X72.2884 Y90.0642
G01 X72.0593 Y90.1005
G01 X71.8990 Y90.1525
G01 X71.8682 Y90.1598
G01 X71.8527 Y90.1621
G01 X71.8402 Y90.1624
G01 X71.8276 Y90.1616
G01 X71.7554 Y90.1512
G01 X71.7430 Y90.1488
G01 X71.7280 Y90.1441
G01 X71.7165 Y90.1390
G01 X71.7055 Y90.1328
G01 X71.6928 Y90.1236
G01 X71.6329 Y90.0716
G01 X71.6223 Y90.0600
G01 X71.6131 Y90.0472
G01 X71.6070 Y90.0362
G01 X71.6009 Y90.0217
G01 X71.5777 Y89.9428
G01 X71.5750 Y89.9280
G01 X71.5741 Y89.9129
G01 X71.5741 Y89.5106
G01 X71.5430 Y89.4583
G01 X71.5032 Y89.3745
G01 X71.4997 Y89.3659
G01 X71.4716 Y89.2873
G01 X71.4688 Y89.2784
G01 X71.4464 Y89.1884
G01 X71.4331 Y89.0998
G01 X71.4319 Y89.0874
G01 X71.4276 Y88.9979
G01 X71.4319 Y88.9083
G01 X71.4331 Y88.8960
G01 X71.4464 Y88.8073
G01 X71.4688 Y88.7173
G01 X71.4716 Y88.7084
G01 X71.4997 Y88.6299
G01 X71.5032 Y88.6212
G01 X71.5430 Y88.5374
G01 X71.5741 Y88.4851
G01 X71.5743 Y88.1764
G01 X71.5750 Y88.1673
G01 X71.5764 Y88.1584
G01 X71.5889 Y88.1008
G01 X71.5926 Y88.0887
G01 X71.5974 Y88.0770
G01 X71.6050 Y88.0631
G01 X71.6123 Y88.0527
G01 X71.6663 Y87.9904
G01 X71.6755 Y87.9817
G01 X71.6880 Y87.9723
G01 X71.6961 Y87.9674
G01 X71.7045 Y87.9631
G01 X71.7132 Y87.9594
G01 X71.7222 Y87.9564
G01 X71.7950 Y87.9352
G01 X71.8099 Y87.9325
G01 X71.8219 Y87.9316
G01 X73.2980 Y87.9316
G01 X73.3805 Y87.9232
G01 X73.5198 Y87.8770
G01 X73.6439 Y87.8005
G01 X73.7470 Y87.6974
G01 X73.8235 Y87.5733
G01 X73.8697 Y87.4340
G01 X73.8781 Y87.3514
G01 X73.8781 Y85.5643
G01 X73.8697 Y85.4818
G01 X73.8235 Y85.3425
G01 X73.7470 Y85.2184
G01 X73.6439 Y85.1153
G01 X73.5198 Y85.0388
G01 X73.3805 Y84.9926
G01 X73.2980 Y84.9842
G01 X71.8249 Y84.9842
G01 X71.8159 Y84.9839
G01 X71.8009 Y84.9819
G01 X71.7403 Y84.9686
G01 X71.7312 Y84.9658
G01 X71.7224 Y84.9623
G01 X71.7138 Y84.9581
G01 X71.7056 Y84.9533
G01 X71.6978 Y84.9480
G01 X71.6904 Y84.9420
G01 X71.6376 Y84.8963
G01 X71.6285 Y84.8875
G01 X71.6203 Y84.8780
G01 X71.6131 Y84.8676
G01 X71.6070 Y84.8567
G01 X71.6019 Y84.8451
G01 X71.5990 Y84.8361
G01 X71.5777 Y84.7633
G01 X71.5750 Y84.7484
G01 X71.5741 Y84.7334
G01 X71.5741 Y81.0484
G01 X71.5744 Y81.0394
G01 X71.5754 Y81.0306
G01 X71.5830 Y80.9845
G01 X71.5870 Y80.9692
G01 X71.5915 Y80.9573
G01 X71.5956 Y80.9488
G01 X71.6021 Y80.9379
G01 X71.6442 Y80.8782
G01 X71.6540 Y80.8659
G01 X71.6629 Y80.8570
G01 X71.6727 Y80.8491
G01 X71.6832 Y80.8421
G01 X71.6944 Y80.8363
G01 X71.7678 Y80.8063
G01 X71.7798 Y80.8025
G01 X71.7952 Y80.7994
G01 X71.8109 Y80.7982
G01 X71.8203 Y80.7984
G01 X71.8297 Y80.7993
G01 X71.9046 Y80.8132
G01 X71.9164 Y80.8160
G01 X71.9250 Y80.8189
G01 X71.9333 Y80.8223
G01 X71.9657 Y80.8386
G01 X72.1863 Y80.9103
G01 X72.4154 Y80.9466
G01 X72.6474 Y80.9466
G01 X72.8765 Y80.9103
G01 X73.0971 Y80.8386
G01 X73.3038 Y80.7333
G01 X73.4915 Y80.5970
G01 X73.6555 Y80.4329
G01 X73.7919 Y80.2453
G01 X73.8972 Y80.0386
G01 X73.9688 Y79.8180
G01 X74.0051 Y79.5889
G01 X74.0051 Y79.3569
G01 X73.9688 Y79.1278
G01 X73.8972 Y78.9072
G01 X73.7919 Y78.7005
G01 X73.6555 Y78.5128
G01 X73.5208 Y78.3781
G01 X73.5129 Y78.3689
G01 X73.4862 Y78.3331
G01 X73.4781 Y78.3193
G01 X73.4727 Y78.3068
G01 X73.4683 Y78.2981
G01 X73.4648 Y78.2893
G01 X73.4611 Y78.2771
G01 X73.4582 Y78.2616
G01 X73.4563 Y78.2379
G01 X73.4520 Y78.2179
G01 X73.4506 Y78.2086
G01 X73.4498 Y78.1960
G01 X73.4500 Y78.1866
G01 X73.4509 Y78.1772
G01 X73.4526 Y78.1673
G01 X73.4543 Y78.1542
G01 X73.4563 Y78.1450
G01 X73.4600 Y78.1329
G01 X73.4649 Y78.1214
G01 X73.4761 Y78.1005
G01 X73.4833 Y78.0813
G01 X73.4871 Y78.0727
G01 X73.4916 Y78.0644
G01 X73.4967 Y78.0564
G01 X73.5044 Y78.0464
G01 X73.5112 Y78.0391
G01 X73.5208 Y78.0277
G01 X73.6555 Y77.8929
G01 X73.7919 Y77.7053
G01 X73.8972 Y77.4986
G01 X73.9688 Y77.2780
G01 X74.0051 Y77.0489
G01 X74.0051 Y76.8169
G01 X73.9688 Y76.5878
G01 X73.8972 Y76.3672
G01 X73.7919 Y76.1605
G01 X73.6555 Y75.9728
G01 X73.4915 Y75.8088
G01 X73.3038 Y75.6725
G01 X73.0971 Y75.5672
G01 X72.8765 Y75.4955
G01 X72.6474 Y75.4592
G01 X72.4154 Y75.4592
G01 X72.1863 Y75.4955
G01 X72.0217 Y75.5488
G01 X72.0120 Y75.5510
G01 X71.9704 Y75.5576
G01 X71.9605 Y75.5588
G01 X71.9538 Y75.5591
G01 X71.8189 Y75.5590
G01 X71.8099 Y75.5583
G01 X71.7719 Y75.5529
G01 X71.7594 Y75.5504
G01 X71.7472 Y75.5467
G01 X71.7375 Y75.5428
G01 X71.7253 Y75.5385
G01 X71.7167 Y75.5346
G01 X71.7083 Y75.5300
G01 X71.6953 Y75.5210
G01 X71.6773 Y75.5056
G01 X71.6574 Y75.4927
G01 X71.6452 Y75.4828
G01 X71.6344 Y75.4714
G01 X71.6184 Y75.4505
G01 X71.6115 Y75.4400
G01 X71.6056 Y75.4288
G01 X71.6009 Y75.4171
G01 X71.5941 Y75.3945
G01 X71.5856 Y75.3758
G01 X71.5812 Y75.3640
G01 X71.5780 Y75.3518
G01 X71.5758 Y75.3363
G01 X71.5741 Y75.3084
G01 X71.5741 Y74.5869
G01 X71.5723 Y74.5773
G01 X71.5593 Y74.4886
G01 X71.5546 Y74.3929
G01 X71.5593 Y74.2971
G01 X71.5723 Y74.2085
G01 X71.5741 Y74.1989
G01 X71.5741 Y73.5774
G01 X71.5745 Y73.5683
G01 X71.5754 Y73.5593
G01 X71.5770 Y73.5504
G01 X71.5897 Y73.4928
G01 X71.5948 Y73.4778
G01 X71.5987 Y73.4691
G01 X71.6033 Y73.4608
G01 X71.6085 Y73.4528
G01 X71.6143 Y73.4453
G01 X71.6642 Y73.3877
G01 X71.6708 Y73.3809
G01 X71.6779 Y73.3747
G01 X71.6907 Y73.3656
G01 X71.6989 Y73.3608
G01 X71.7074 Y73.3568
G01 X71.7222 Y73.3514
G01 X71.7950 Y73.3302
G01 X71.8099 Y73.3275
G01 X71.8219 Y73.3266
G01 X73.4250 Y73.3266
G01 X73.5075 Y73.3182
G01 X73.6468 Y73.2720
G01 X73.7709 Y73.1955
G01 X73.8740 Y73.0924
G01 X73.9505 Y72.9683
G01 X73.9967 Y72.8290
G01 X74.0051 Y72.7464
G01 X74.0051 Y70.9593
G01 X73.9967 Y70.8768
G01 X73.9505 Y70.7375
G01 X73.8740 Y70.6134
G01 X73.7709 Y70.5103
G01 X73.6468 Y70.4338
G01 X73.5075 Y70.3876
G01 X73.4250 Y70.3792
G01 X71.8249 Y70.3792
G01 X71.8129 Y70.3786
G01 X71.7980 Y70.3763
G01 X71.7465 Y70.3651
G01 X71.7373 Y70.3627
G01 X71.7253 Y70.3585
G01 X71.7111 Y70.3516
G01 X71.7030 Y70.3466
G01 X71.6928 Y70.3391
G01 X71.6376 Y70.2913
G01 X71.6263 Y70.2802
G01 X71.6184 Y70.2705
G01 X71.6115 Y70.2600
G01 X71.6056 Y70.2488
G01 X71.6009 Y70.2371
G01 X71.5777 Y70.1583
G01 X71.5750 Y70.1434
G01 X71.5741 Y70.1284
G01 X71.5741 Y66.4581
G01 X71.5744 Y66.4492
G01 X71.5758 Y66.4374
G01 X71.5830 Y66.3943
G01 X71.5860 Y66.3820
G01 X71.5891 Y66.3730
G01 X71.5928 Y66.3642
G01 X71.5971 Y66.3558
G01 X71.6021 Y66.3477
G01 X71.6479 Y66.2829
G01 X71.6562 Y66.2734
G01 X71.6677 Y66.2627
G01 X71.6753 Y66.2570
G01 X71.6832 Y66.2519
G01 X71.6915 Y66.2474
G01 X71.7001 Y66.2435
G01 X71.7707 Y66.2150
G01 X71.7859 Y66.2108
G01 X71.8015 Y66.2084
G01 X71.8172 Y66.2080
G01 X71.8297 Y66.2091
G01 X71.9046 Y66.2230
G01 X71.9134 Y66.2250
G01 X71.9250 Y66.2286
G01 X71.9365 Y66.2336
G01 X72.1573 Y66.3053
G01 X72.3864 Y66.3416
G01 X72.6184 Y66.3416
G01 X72.8475 Y66.3053
G01 X73.0681 Y66.2336
G01 X73.2748 Y66.1283
G01 X73.4625 Y65.9920
G01 X73.6265 Y65.8279
G01 X73.7629 Y65.6403
G01 X73.8682 Y65.4336
G01 X73.9398 Y65.2130
G01 X73.9761 Y64.9839
G01 X73.9761 Y64.7519
G01 X73.9398 Y64.5228
G01 X73.8682 Y64.3022
G01 X73.7629 Y64.0955
G01 X73.6265 Y63.9078
G01 X73.4939 Y63.7752
G01 X73.4877 Y63.7686
G01 X73.4821 Y63.7616
G01 X73.4769 Y63.7541
G01 X73.4484 Y63.7098
G01 X73.4436 Y63.7016
G01 X73.4381 Y63.6902
G01 X73.4347 Y63.6813
G01 X73.4321 Y63.6721
G01 X73.4296 Y63.6597
G01 X73.4286 Y63.6503
G01 X73.4236 Y63.5806
G01 X73.4235 Y63.5648
G01 X73.4247 Y63.5523
G01 X73.4273 Y63.5400
G01 X73.4310 Y63.5280
G01 X73.4346 Y63.5192
G01 X73.4388 Y63.5108
G01 X73.4723 Y63.4494
G01 X73.4769 Y63.4416
G01 X73.4821 Y63.4342
G01 X73.4877 Y63.4272
G01 X73.4939 Y63.4205
G01 X73.6265 Y63.2879
G01 X73.7629 Y63.1003
G01 X73.8682 Y62.8936
G01 X73.9398 Y62.6730
G01 X73.9761 Y62.4439
G01 X73.9761 Y62.2119
G01 X73.9398 Y61.9828
G01 X73.8682 Y61.7622
G01 X73.7629 Y61.5555
G01 X73.6265 Y61.3678
G01 X73.4625 Y61.2038
G01 X73.2748 Y61.0675
G01 X73.0681 Y60.9622
G01 X72.8475 Y60.8905
G01 X72.6184 Y60.8542
G01 X72.3864 Y60.8542
G01 X72.1573 Y60.8905
G01 X71.9927 Y60.9438
G01 X71.9830 Y60.9460
G01 X71.9414 Y60.9526
G01 X71.9315 Y60.9538
G01 X71.9248 Y60.9541
G01 X71.8189 Y60.9540
G01 X71.8099 Y60.9533
G01 X71.7719 Y60.9479
G01 X71.7563 Y60.9446
G01 X71.7472 Y60.9417
G01 X71.7375 Y60.9378
G01 X71.7253 Y60.9335
G01 X71.7167 Y60.9296
G01 X71.7083 Y60.9250
G01 X71.6953 Y60.9160
G01 X71.6773 Y60.9006
G01 X71.6549 Y60.8859
G01 X71.6430 Y60.8756
G01 X71.6364 Y60.8688
G01 X71.6304 Y60.8615
G01 X71.6247 Y60.8533
G01 X71.6166 Y60.8429
G01 X71.6084 Y60.8295
G01 X71.6019 Y60.8151
G01 X71.5941 Y60.7895
G01 X71.5844 Y60.7679
G01 X71.5795 Y60.7530
G01 X71.5765 Y60.7375
G01 X71.5745 Y60.7124
G01 X71.5741 Y60.7034
G01 X71.5741 Y60.6706
G01 X71.5443 Y60.4057
G01 X71.4850 Y60.1457
G01 X71.3969 Y59.8941
G01 X71.2812 Y59.6539
G01 X71.1394 Y59.4281
G01 X70.9731 Y59.2197
G01 X67.5917 Y55.8382
G01 X67.5832 Y55.8282
G01 X67.5775 Y55.8202
G01 X67.5457 Y55.7688
G01 X67.5409 Y55.7602
G01 X67.5381 Y55.7543
G01 X67.5344 Y55.7452
G01 X67.5135 Y55.6825
G01 X67.4370 Y55.5584
G01 X67.3339 Y55.4553
G01 X67.2098 Y55.3788
G01 X67.1471 Y55.3580
G01 X67.1350 Y55.3529
G01 X67.1235 Y55.3466
G01 X67.0749 Y55.3166
G01 X67.0667 Y55.3111
G01 X67.0590 Y55.3050
G01 X67.0518 Y55.2983
G01 X66.8916 Y55.1381
G01 X66.8825 Y55.1280
G01 X66.8621 Y55.1024
G01 X66.8569 Y55.0947
G01 X66.8498 Y55.0828
G01 X66.8441 Y55.0714
G01 X66.8406 Y55.0625
G01 X66.8377 Y55.0534
G01 X66.8306 Y55.0216
G01 X66.8225 Y54.9936
G01 X66.8194 Y54.9788
G00 Z2.0000
G00 X71.2630 Y55.9053
G01 F30.00
G01 Z-0.0050
G01 F60.00
G01 X71.3870 Y55.8288
G01 X71.5263 Y55.7826
G01 X71.6089 Y55.7742
G01 X73.3960 Y55.7742
G01 X73.4785 Y55.7826
G01 X73.6178 Y55.8288
G01 X73.7419 Y55.9053
G01 X73.8450 Y56.0084
G01 X73.9215 Y56.1325
G01 X73.9677 Y56.2718
G01 X73.9761 Y56.3543
G01 X73.9761 Y58.1414
G01 X73.9677 Y58.2240
G01 X73.9215 Y58.3633
G01 X73.8450 Y58.4874
G01 X73.7419 Y58.5905
G01 X73.6178 Y58.6670
G01 X73.4785 Y58.7132
G01 X73.3960 Y58.7216
G01 X71.6089 Y58.7216
G01 X71.5263 Y58.7132
G01 X71.3871 Y58.6670
G01 X71.2630 Y58.5905
G01 X71.1599 Y58.4874
G01 X71.0833 Y58.3633
G01 X71.0372 Y58.2240
G01 X71.0287 Y58.1414
G01 X71.0287 Y56.3543
G01 X71.0372 Y56.2718
G01 X71.0833 Y56.1325
G01 X71.1599 Y56.0084
G01 X71.2630 Y55.9053
G00 Z2.0000
G00 X71.6338 Y56.2725
G01 F30.00
G01 Z-0.0050
G01 F60.00
G01 X71.6431 Y56.2714
G01 X71.6524 Y56.2711
G01 X73.3555 Y56.2711
G01 X73.3680 Y56.2720
G01 X73.3802 Y56.2742
G01 X73.3922 Y56.2775
G01 X73.4038 Y56.2820
G01 X73.4149 Y56.2876
G01 X73.4254 Y56.2942
G01 X73.4353 Y56.3019
G01 X73.4443 Y56.3105
G01 X73.4524 Y56.3199
G01 X73.4579 Y56.3274
G01 X73.4643 Y56.3381
G01 X73.4696 Y56.3494
G01 X73.4738 Y56.3611
G01 X73.4768 Y56.3731
G01 X73.4783 Y56.3824
G01 X73.4792 Y56.3948
G01 X73.4792 Y58.0979
G01 X73.4786 Y58.1103
G01 X73.4768 Y58.1226
G01 X73.4738 Y58.1347
G01 X73.4696 Y58.1464
G01 X73.4643 Y58.1577
G01 X73.4561 Y58.1709
G01 X73.4484 Y58.1807
G01 X73.4399 Y58.1897
G01 X73.4329 Y58.1959
G01 X73.4229 Y58.2033
G01 X73.4122 Y58.2097
G01 X73.4010 Y58.2150
G01 X73.3922 Y58.2183
G01 X73.3802 Y58.2216
G01 X73.3680 Y58.2237
G01 X73.3555 Y58.2246
G01 X71.6524 Y58.2247
G01 X71.6400 Y58.2241
G01 X71.6277 Y58.2222
G01 X71.6156 Y58.2192
G01 X71.6039 Y58.2150
G01 X71.5899 Y58.2082
G01 X71.5794 Y58.2016
G01 X71.5696 Y58.1939
G01 X71.5606 Y58.1853
G01 X71.5525 Y58.1759
G01 X71.5470 Y58.1683
G01 X71.5406 Y58.1577
G01 X71.5353 Y58.1464
G01 X71.5311 Y58.1347
G01 X71.5287 Y58.1257
G01 X71.5266 Y58.1134
G01 X71.5257 Y58.1010
G01 X71.5258 Y56.3917
G01 X71.5270 Y56.3793
G01 X71.5287 Y56.3701
G01 X71.5320 Y56.3581
G01 X71.5353 Y56.3494
G01 X71.5406 Y56.3381
G01 X71.5453 Y56.3300
G01 X71.5525 Y56.3199
G01 X71.5585 Y56.3127
G01 X71.5673 Y56.3039
G01 X71.5744 Y56.2979
G01 X71.5820 Y56.2925
G01 X71.5927 Y56.2861
G01 X71.6010 Y56.2820
G01 X71.6127 Y56.2775
G01 X71.6216 Y56.2749
G01 X71.6338 Y56.2725
G00 Z2.0000
G00 X73.4748 Y64.7752
G01 F30.00
G01 Z-0.0050
G01 F60.00
G01 X73.4792 Y64.8679
G01 X73.4745 Y64.9636
G01 X73.4605 Y65.0584
G01 X73.4372 Y65.1514
G01 X73.4049 Y65.2417
G01 X73.3639 Y65.3283
G01 X73.3146 Y65.4106
G01 X73.2575 Y65.4876
G01 X73.1931 Y65.5586
G01 X73.1221 Y65.6230
G01 X73.0451 Y65.6801
G01 X72.9629 Y65.7293
G01 X72.8762 Y65.7703
G01 X72.7860 Y65.8026
G01 X72.6930 Y65.8259
G01 X72.5982 Y65.8400
G01 X72.5024 Y65.8447
G01 X72.4067 Y65.8400
G01 X72.3119 Y65.8259
G01 X72.2189 Y65.8026
G01 X72.1286 Y65.7703
G01 X72.0420 Y65.7293
G01 X71.9597 Y65.6801
G01 X71.8828 Y65.6230
G01 X71.8117 Y65.5586
G01 X71.7474 Y65.4876
G01 X71.6903 Y65.4106
G01 X71.6410 Y65.3283
G01 X71.6000 Y65.2417
G01 X71.5677 Y65.1514
G01 X71.5444 Y65.0584
G01 X71.5303 Y64.9636
G01 X71.5256 Y64.8679
G01 X71.5303 Y64.7721
G01 X71.5444 Y64.6773
G01 X71.5677 Y64.5843
G01 X71.6000 Y64.4941
G01 X71.6410 Y64.4074
G01 X71.6903 Y64.3252
G01 X71.7474 Y64.2482
G01 X71.8117 Y64.1772
G01 X71.8828 Y64.1128
G01 X71.9597 Y64.0557
G01 X72.0420 Y64.0064
G01 X72.1286 Y63.9654
G01 X72.2189 Y63.9331
G01 X72.3119 Y63.9099
G01 X72.4067 Y63.8958
G01 X72.5024 Y63.8911
G01 X72.5982 Y63.8958
G01 X72.6930 Y63.9099
G01 X72.7860 Y63.9331
G01 X72.8762 Y63.9654
G01 X72.9629 Y64.0064
G01 X73.0451 Y64.0557
G01 X73.1221 Y64.1128
G01 X73.1931 Y64.1772
G01 X73.2575 Y64.2482
G01 X73.3146 Y64.3252
G01 X73.3639 Y64.4074
G01 X73.4049 Y64.4941
G01 X73.4372 Y64.5843
G01 X73.4605 Y64.6773
G01 X73.4738 Y64.7660
G01 X73.4748 Y64.7752
G00 Z2.0000
G00 X71.6628 Y70.8775
G01 F30.00
G01 Z-0.0050
G01 F60.00
G01 X71.6721 Y70.8764
G01 X71.6814 Y70.8761
G01 X73.3845 Y70.8761
G01 X73.3970 Y70.8770
G01 X73.4092 Y70.8792
G01 X73.4212 Y70.8825
G01 X73.4328 Y70.8870
G01 X73.4439 Y70.8926
G01 X73.4544 Y70.8992
G01 X73.4643 Y70.9069
G01 X73.4733 Y70.9155
G01 X73.4814 Y70.9249
G01 X73.4869 Y70.9324
G01 X73.4933 Y70.9431
G01 X73.4986 Y70.9544
G01 X73.5028 Y70.9661
G01 X73.5058 Y70.9781
G01 X73.5073 Y70.9874
G01 X73.5082 Y70.9998
G01 X73.5082 Y72.7029
G01 X73.5076 Y72.7153
G01 X73.5058 Y72.7276
G01 X73.5028 Y72.7397
G01 X73.4986 Y72.7514
G01 X73.4918 Y72.7654
G01 X73.4851 Y72.7759
G01 X73.4774 Y72.7857
G01 X73.4689 Y72.7947
G01 X73.4594 Y72.8028
G01 X73.4519 Y72.8083
G01 X73.4412 Y72.8147
G01 X73.4300 Y72.8200
G01 X73.4182 Y72.8242
G01 X73.4062 Y72.8272
G01 X73.3970 Y72.8287
G01 X73.3845 Y72.8296
G01 X71.6814 Y72.8297
G01 X71.6690 Y72.8291
G01 X71.6567 Y72.8272
G01 X71.6417 Y72.8233
G01 X71.6300 Y72.8188
G01 X71.6189 Y72.8132
G01 X71.6084 Y72.8066
G01 X71.5986 Y72.7989
G01 X71.5896 Y72.7903
G01 X71.5815 Y72.7809
G01 X71.5760 Y72.7733
G01 X71.5696 Y72.7627
G01 X71.5643 Y72.7514
G01 X71.5601 Y72.7397
G01 X71.5577 Y72.7307
G01 X71.5556 Y72.7184
G01 X71.5547 Y72.7060
G01 X71.5548 Y70.9967
G01 X71.5560 Y70.9843
G01 X71.5577 Y70.9751
G01 X71.5601 Y70.9661
G01 X71.5643 Y70.9544
G01 X71.5696 Y70.9431
G01 X71.5743 Y70.9350
G01 X71.5815 Y70.9249
G01 X71.5875 Y70.9177
G01 X71.5940 Y70.9110
G01 X71.6034 Y70.9029
G01 X71.6136 Y70.8958
G01 X71.6217 Y70.8911
G01 X71.6300 Y70.8870
G01 X71.6417 Y70.8825
G01 X71.6506 Y70.8799
G01 X71.6628 Y70.8775
G00 Z2.0000
G00 X73.5038 Y79.3802
G01 F30.00
G01 Z-0.0050
G01 F60.00
G01 X73.5082 Y79.4729
G01 X73.5035 Y79.5686
G01 X73.4895 Y79.6634
G01 X73.4662 Y79.7564
G01 X73.4339 Y79.8467
G01 X73.3929 Y79.9333
G01 X73.3436 Y80.0156
G01 X73.2865 Y80.0926
G01 X73.2221 Y80.1636
G01 X73.1511 Y80.2280
G01 X73.0741 Y80.2851
G01 X72.9919 Y80.3343
G01 X72.9052 Y80.3753
G01 X72.8150 Y80.4076
G01 X72.7220 Y80.4309
G01 X72.6272 Y80.4450
G01 X72.5314 Y80.4497
G01 X72.4357 Y80.4450
G01 X72.3409 Y80.4309
G01 X72.2479 Y80.4076
G01 X72.1576 Y80.3753
G01 X72.0710 Y80.3343
G01 X71.9887 Y80.2851
G01 X71.9118 Y80.2280
G01 X71.8407 Y80.1636
G01 X71.7764 Y80.0926
G01 X71.7193 Y80.0156
G01 X71.6700 Y79.9333
G01 X71.6290 Y79.8467
G01 X71.5967 Y79.7564
G01 X71.5734 Y79.6634
G01 X71.5593 Y79.5686
G01 X71.5546 Y79.4729
G01 X71.5593 Y79.3771
G01 X71.5734 Y79.2823
G01 X71.5967 Y79.1893
G01 X71.6290 Y79.0991
G01 X71.6700 Y79.0124
G01 X71.7193 Y78.9302
G01 X71.7764 Y78.8532
G01 X71.8407 Y78.7822
G01 X71.9118 Y78.7178
G01 X71.9887 Y78.6607
G01 X72.0710 Y78.6114
G01 X72.1576 Y78.5704
G01 X72.2479 Y78.5381
G01 X72.3409 Y78.5149
G01 X72.4357 Y78.5008
G01 X72.5314 Y78.4961
G01 X72.6272 Y78.5008
G01 X72.7220 Y78.5149
G01 X72.8150 Y78.5381
G01 X72.9052 Y78.5704
G01 X72.9919 Y78.6114
G01 X73.0741 Y78.6607
G01 X73.1511 Y78.7178
G01 X73.2221 Y78.7822
G01 X73.2865 Y78.8532
G01 X73.3436 Y78.9302
G01 X73.3929 Y79.0124
G01 X73.4339 Y79.0991
G01 X73.4662 Y79.1893
G01 X73.4895 Y79.2823
G01 X73.5028 Y79.3710
G01 X73.5038 Y79.3802
G00 Z2.0000
G00 X71.5358 Y85.4825
G01 F30.00
G01 Z-0.0050
G01 F60.00
G01 X71.5451 Y85.4814
G01 X71.5544 Y85.4811
G01 X73.2575 Y85.4811
G01 X73.2700 Y85.4820
G01 X73.2822 Y85.4842
G01 X73.2942 Y85.4875
G01 X73.3058 Y85.4920
G01 X73.3169 Y85.4976
G01 X73.3274 Y85.5042
G01 X73.3373 Y85.5119
G01 X73.3463 Y85.5205
G01 X73.3544 Y85.5299
G01 X73.3599 Y85.5374
G01 X73.3663 Y85.5481
G01 X73.3716 Y85.5594
G01 X73.3758 Y85.5711
G01 X73.3788 Y85.5831
G01 X73.3803 Y85.5924
G01 X73.3812 Y85.6048
G01 X73.3812 Y87.3079
G01 X73.3806 Y87.3203
G01 X73.3788 Y87.3326
G01 X73.3758 Y87.3447
G01 X73.3716 Y87.3564
G01 X73.3648 Y87.3704
G01 X73.3581 Y87.3809
G01 X73.3504 Y87.3907
G01 X73.3419 Y87.3997
G01 X73.3324 Y87.4078
G01 X73.3249 Y87.4133
G01 X73.3142 Y87.4197
G01 X73.3030 Y87.4250
G01 X73.2912 Y87.4292
G01 X73.2792 Y87.4322
G01 X73.2700 Y87.4337
G01 X73.2575 Y87.4346
G01 X71.5544 Y87.4347
G01 X71.5420 Y87.4341
G01 X71.5297 Y87.4322
G01 X71.5147 Y87.4283
G01 X71.5030 Y87.4238
G01 X71.4919 Y87.4182
G01 X71.4814 Y87.4116
G01 X71.4716 Y87.4039
G01 X71.4626 Y87.3953
G01 X71.4545 Y87.3859
G01 X71.4490 Y87.3783
G01 X71.4426 Y87.3677
G01 X71.4373 Y87.3564
G01 X71.4331 Y87.3447
G01 X71.4307 Y87.3357
G01 X71.4286 Y87.3234
G01 X71.4277 Y87.3110
G01 X71.4278 Y85.6017
G01 X71.4290 Y85.5893
G01 X71.4307 Y85.5801
G01 X71.4331 Y85.5711
G01 X71.4373 Y85.5594
G01 X71.4426 Y85.5481
G01 X71.4473 Y85.5400
G01 X71.4545 Y85.5299
G01 X71.4605 Y85.5227
G01 X71.4670 Y85.5160
G01 X71.4764 Y85.5079
G01 X71.4866 Y85.5008
G01 X71.4947 Y85.4961
G01 X71.5030 Y85.4920
G01 X71.5147 Y85.4875
G01 X71.5236 Y85.4849
G01 X71.5358 Y85.4825
G00 Z2.0000
G00 X65.4206 Y86.9361
G01 F30.00
G01 Z-0.0050
G01 F60.00
G01 X65.4299 Y86.9353
G01 X65.5163 Y86.9311
G01 X65.7694 Y86.9311
G01 X65.8590 Y86.9353
G01 X65.8683 Y86.9361
G01 X65.9600 Y86.9499
G01 X66.0530 Y86.9731
G01 X66.1432 Y87.0054
G01 X66.2243 Y87.0436
G01 X66.2353 Y87.0495
G01 X66.3121 Y87.0957
G01 X66.3842 Y87.1490
G01 X66.3938 Y87.1569
G01 X66.4556 Y87.2129
G01 X66.4644 Y87.2217
G01 X66.5245 Y87.2882
G01 X66.5816 Y87.3652
G01 X66.6309 Y87.4474
G01 X66.6694 Y87.5284
G01 X66.6730 Y87.5370
G01 X66.7042 Y87.6243
G01 X66.7275 Y87.7173
G01 X66.7415 Y87.8121
G01 X66.7462 Y87.9079
G01 X66.7415 Y88.0036
G01 X66.7275 Y88.0984
G01 X66.7042 Y88.1914
G01 X66.6719 Y88.2817
G01 X66.6309 Y88.3683
G01 X66.5816 Y88.4506
G01 X66.5245 Y88.5276
G01 X66.4601 Y88.5986
G01 X66.3891 Y88.6630
G01 X66.3121 Y88.7201
G01 X66.2299 Y88.7693
G01 X66.1489 Y88.8078
G01 X66.1403 Y88.8115
G01 X66.0530 Y88.8426
G01 X65.9600 Y88.8659
G01 X65.8652 Y88.8800
G01 X65.7725 Y88.8846
G01 X65.5163 Y88.8846
G01 X65.4268 Y88.8802
G01 X65.4175 Y88.8792
G01 X65.3289 Y88.8659
G01 X65.2419 Y88.8443
G01 X65.2300 Y88.8407
G01 X65.1456 Y88.8103
G01 X65.0645 Y88.7721
G01 X65.0536 Y88.7663
G01 X64.9820 Y88.7234
G01 X64.9717 Y88.7165
G01 X64.8998 Y88.6630
G01 X64.8332 Y88.6029
G01 X64.8244 Y88.5941
G01 X64.7644 Y88.5276
G01 X64.7073 Y88.4506
G01 X64.6580 Y88.3683
G01 X64.6195 Y88.2874
G01 X64.6158 Y88.2788
G01 X64.5847 Y88.1914
G01 X64.5628 Y88.1045
G01 X64.5603 Y88.0923
G01 X64.5473 Y88.0036
G01 X64.5428 Y87.9141
G01 X64.5428 Y87.9017
G01 X64.5469 Y87.8183
G01 X64.5481 Y87.8060
G01 X64.5614 Y87.7173
G01 X64.5847 Y87.6243
G01 X64.6170 Y87.5341
G01 X64.6552 Y87.4530
G01 X64.6610 Y87.4420
G01 X64.7039 Y87.3705
G01 X64.7108 Y87.3601
G01 X64.7644 Y87.2882
G01 X64.8244 Y87.2217
G01 X64.8332 Y87.2129
G01 X64.8998 Y87.1528
G01 X64.9767 Y87.0957
G01 X65.0590 Y87.0464
G01 X65.1399 Y87.0080
G01 X65.1514 Y87.0032
G01 X65.2359 Y86.9731
G01 X65.3228 Y86.9512
G01 X65.3350 Y86.9488
G01 X65.4206 Y86.9361
G00 Z2.0000
G00 X65.4206 Y89.4361
G01 F30.00
G01 Z-0.0050
G01 F60.00
G01 X65.4299 Y89.4353
G01 X65.5163 Y89.4311
G01 X65.7694 Y89.4311
G01 X65.8590 Y89.4353
G01 X65.8683 Y89.4361
G01 X65.9600 Y89.4499
G01 X66.0530 Y89.4731
G01 X66.1432 Y89.5054
G01 X66.2243 Y89.5436
G01 X66.2353 Y89.5495
G01 X66.3121 Y89.5957
G01 X66.3842 Y89.6490
G01 X66.3938 Y89.6569
G01 X66.4556 Y89.7129
G01 X66.4644 Y89.7217
G01 X66.5245 Y89.7882
G01 X66.5816 Y89.8652
G01 X66.6309 Y89.9474
G01 X66.6694 Y90.0284
G01 X66.6730 Y90.0370
G01 X66.7042 Y90.1243
G01 X66.7275 Y90.2173
G01 X66.7415 Y90.3121
G01 X66.7462 Y90.4079
G01 X66.7415 Y90.5036
G01 X66.7275 Y90.5984
G01 X66.7042 Y90.6914
G01 X66.6719 Y90.7817
G01 X66.6309 Y90.8683
G01 X66.5816 Y90.9506
G01 X66.5245 Y91.0276
G01 X66.4601 Y91.0986
G01 X66.3891 Y91.1630
G01 X66.3121 Y91.2201
G01 X66.2299 Y91.2693
G01 X66.1489 Y91.3078
G01 X66.1403 Y91.3115
G01 X66.0530 Y91.3426
G01 X65.9600 Y91.3659
G01 X65.8652 Y91.3800
G01 X65.7725 Y91.3846
G01 X65.5163 Y91.3846
G01 X65.4268 Y91.3802
G01 X65.4175 Y91.3792
G01 X65.3289 Y91.3659
G01 X65.2419 Y91.3443
G01 X65.2300 Y91.3407
G01 X65.1456 Y91.3103
G01 X65.0645 Y91.2721
G01 X65.0536 Y91.2663
G01 X64.9820 Y91.2234
G01 X64.9717 Y91.2165
G01 X64.8998 Y91.1630
G01 X64.8332 Y91.1029
G01 X64.8244 Y91.0941
G01 X64.7644 Y91.0276
G01 X64.7073 Y90.9506
G01 X64.6580 Y90.8683
G01 X64.6195 Y90.7874
G01 X64.6158 Y90.7788
G01 X64.5847 Y90.6914
G01 X64.5628 Y90.6045
G01 X64.5603 Y90.5923
G01 X64.5473 Y90.5036
G01 X64.5428 Y90.4141
G01 X64.5428 Y90.4017
G01 X64.5469 Y90.3183
G01 X64.5481 Y90.3060
G01 X64.5614 Y90.2173
G01 X64.5847 Y90.1243
G01 X64.6170 Y90.0341
G01 X64.6552 Y89.9530
G01 X64.6610 Y89.9420
G01 X64.7039 Y89.8705
G01 X64.7108 Y89.8601
G01 X64.7644 Y89.7882
G01 X64.8244 Y89.7217
G01 X64.8332 Y89.7129
G01 X64.8998 Y89.6528
G01 X64.9767 Y89.5957
G01 X65.0590 Y89.5464
G01 X65.1399 Y89.5080
G01 X65.1514 Y89.5032
G01 X65.2359 Y89.4731
G01 X65.3228 Y89.4512
G01 X65.3350 Y89.4488
G01 X65.4206 Y89.4361
G00 Z2.0000
G00 X57.5775 Y93.9999
G01 F30.00
G01 Z-0.0050
G01 F60.00
G01 X57.5812 Y94.0779
G01 X57.5772 Y94.1589
G01 X57.5653 Y94.2392
G01 X57.5456 Y94.3179
G01 X57.5183 Y94.3943
G01 X57.4836 Y94.4676
G01 X57.4419 Y94.5372
G01 X57.3936 Y94.6024
G01 X57.3391 Y94.6625
G01 X57.2789 Y94.7170
G01 X57.2138 Y94.7653
G01 X57.1442 Y94.8071
G01 X57.0708 Y94.8417
G01 X56.9944 Y94.8691
G01 X56.9157 Y94.8888
G01 X56.8355 Y94.9007
G01 X56.7544 Y94.9047
G01 X56.6734 Y94.9007
G01 X56.5931 Y94.8888
G01 X56.5144 Y94.8691
G01 X56.4380 Y94.8417
G01 X56.3647 Y94.8071
G01 X56.2951 Y94.7653
G01 X56.2299 Y94.7170
G01 X56.1698 Y94.6625
G01 X56.1153 Y94.6024
G01 X56.0670 Y94.5372
G01 X56.0253 Y94.4676
G01 X55.9906 Y94.3943
G01 X55.9632 Y94.3179
G01 X55.9435 Y94.2392
G01 X55.9316 Y94.1589
G01 X55.9276 Y94.0779
G01 X55.9316 Y93.9968
G01 X55.9435 Y93.9166
G01 X55.9632 Y93.8379
G01 X55.9906 Y93.7615
G01 X56.0253 Y93.6881
G01 X56.0670 Y93.6185
G01 X56.1153 Y93.5534
G01 X56.1698 Y93.4932
G01 X56.2299 Y93.4388
G01 X56.2951 Y93.3904
G01 X56.3647 Y93.3487
G01 X56.4380 Y93.3140
G01 X56.5144 Y93.2867
G01 X56.5931 Y93.2670
G01 X56.6734 Y93.2551
G01 X56.7544 Y93.2511
G01 X56.8355 Y93.2551
G01 X56.9157 Y93.2670
G01 X56.9944 Y93.2867
G01 X57.0708 Y93.3140
G01 X57.1442 Y93.3487
G01 X57.2138 Y93.3904
G01 X57.2789 Y93.4388
G01 X57.3391 Y93.4932
G01 X57.3936 Y93.5534
G01 X57.4419 Y93.6185
G01 X57.4836 Y93.6881
G01 X57.5183 Y93.7615
G01 X57.5456 Y93.8379
G01 X57.5653 Y93.9166
G01 X57.5765 Y93.9907
G01 X57.5775 Y93.9999
G00 Z2.0000
G00 X53.8670 Y93.9501
G01 F30.00
G01 Z-0.0050
G01 F60.00
G01 X53.8660 Y93.9409
G01 X53.8534 Y93.8571
G01 X53.8313 Y93.7688
G01 X53.8007 Y93.6832
G01 X53.7618 Y93.6010
G01 X53.7150 Y93.5230
G01 X53.6609 Y93.4499
G01 X53.5998 Y93.3825
G01 X53.5371 Y93.3255
G01 X53.5275 Y93.3176
G01 X53.4593 Y93.2673
G01 X53.3867 Y93.2236
G01 X53.3758 Y93.2177
G01 X53.2991 Y93.1816
G01 X53.2194 Y93.1529
G01 X53.2075 Y93.1493
G01 X53.1313 Y93.1303
G01 X53.1191 Y93.1278
G01 X53.0353 Y93.1155
G01 X52.9444 Y93.1111
G01 X52.8536 Y93.1155
G01 X52.7636 Y93.1289
G01 X52.6754 Y93.1510
G01 X52.5956 Y93.1794
G01 X52.5841 Y93.1842
G01 X52.5131 Y93.2177
G01 X52.5021 Y93.2236
G01 X52.4295 Y93.2673
G01 X52.3565 Y93.3215
G01 X52.2891 Y93.3825
G01 X52.2321 Y93.4452
G01 X52.2242 Y93.4548
G01 X52.1774 Y93.5179
G01 X52.1705 Y93.5282
G01 X52.1271 Y93.6010
G01 X52.0882 Y93.6832
G01 X52.0575 Y93.7688
G01 X52.0368 Y93.8510
G01 X52.0344 Y93.8632
G01 X52.0229 Y93.9409
G01 X52.0218 Y93.9501
G01 X52.0176 Y94.0379
G01 X52.0216 Y94.1225
G01 X52.0229 Y94.1349
G01 X52.0344 Y94.2126
G01 X52.0368 Y94.2248
G01 X52.0575 Y94.3069
G01 X52.0882 Y94.3926
G01 X52.1271 Y94.4748
G01 X52.1721 Y94.5502
G01 X52.1774 Y94.5579
G01 X52.2280 Y94.6258
G01 X52.2848 Y94.6887
G01 X52.2936 Y94.6975
G01 X52.3518 Y94.7502
G01 X52.3589 Y94.7563
G01 X52.4295 Y94.8085
G01 X52.5048 Y94.8537
G01 X52.5131 Y94.8580
G01 X52.5869 Y94.8929
G01 X52.5956 Y94.8964
G01 X52.6384 Y94.9117
G01 X48.8739 Y94.9117
G01 X48.7916 Y94.8294
G01 X48.8209 Y94.8429
G01 X48.8915 Y94.8681
G01 X48.9004 Y94.8707
G01 X48.9671 Y94.8874
G01 X48.9762 Y94.8894
G01 X49.0534 Y94.9007
G01 X49.1282 Y94.9045
G01 X49.1407 Y94.9045
G01 X49.2093 Y94.9012
G01 X49.2186 Y94.9004
G01 X49.2957 Y94.8888
G01 X49.3684 Y94.8707
G01 X49.3803 Y94.8671
G01 X49.4508 Y94.8417
G01 X49.5242 Y94.8071
G01 X49.5885 Y94.7687
G01 X49.5989 Y94.7618
G01 X49.6540 Y94.7208
G01 X49.6613 Y94.7150
G01 X49.7146 Y94.6668
G01 X49.7234 Y94.6580
G01 X49.7736 Y94.6024
G01 X49.8183 Y94.5423
G01 X49.8252 Y94.5320
G01 X49.8636 Y94.4676
G01 X49.8983 Y94.3943
G01 X49.9237 Y94.3238
G01 X49.9273 Y94.3119
G01 X49.9453 Y94.2392
G01 X49.9565 Y94.1651
G01 X49.9577 Y94.1527
G01 X49.9612 Y94.0779
G01 X49.9577 Y94.0031
G01 X49.9569 Y93.9938
G01 X49.9453 Y93.9166
G01 X49.9256 Y93.8379
G01 X49.8983 Y93.7615
G01 X49.8664 Y93.6937
G01 X49.8605 Y93.6827
G01 X49.8252 Y93.6238
G01 X49.8183 Y93.6135
G01 X49.7736 Y93.5534
G01 X49.7191 Y93.4932
G01 X49.6589 Y93.4388
G01 X49.5989 Y93.3940
G01 X49.5885 Y93.3871
G01 X49.5296 Y93.3518
G01 X49.5186 Y93.3459
G01 X49.4508 Y93.3140
G01 X49.3744 Y93.2867
G01 X49.2957 Y93.2670
G01 X49.2186 Y93.2554
G01 X49.2093 Y93.2546
G01 X49.1344 Y93.2511
G01 X49.0596 Y93.2546
G01 X49.0472 Y93.2558
G01 X48.9793 Y93.2659
G01 X48.9671 Y93.2683
G01 X48.8944 Y93.2867
G01 X48.8180 Y93.3140
G01 X48.7447 Y93.3487
G01 X48.6777 Y93.3887
G01 X48.6700 Y93.3940
G01 X48.6099 Y93.4388
G01 X48.5543 Y93.4890
G01 X48.5455 Y93.4978
G01 X48.4994 Y93.5487
G01 X48.4934 Y93.5558
G01 X48.4470 Y93.6185
G01 X48.4068 Y93.6854
G01 X48.4025 Y93.6937
G01 X48.3718 Y93.7586
G01 X48.3606 Y93.7889
G01 X48.3606 Y91.0122
G01 X60.1928 Y79.1801
G01 X63.8218 Y79.1801
G01 X63.8699 Y79.2028
G01 X63.8785 Y79.2065
G01 X63.9600 Y79.2357
G01 X63.9689 Y79.2385
G01 X64.0589 Y79.2609
G01 X64.1475 Y79.2742
G01 X64.1599 Y79.2754
G01 X64.2463 Y79.2796
G01 X64.4994 Y79.2797
G01 X64.5952 Y79.2750
G01 X64.6839 Y79.2620
G01 X64.6930 Y79.2603
G01 X64.7770 Y79.2393
G01 X64.7859 Y79.2367
G01 X64.8732 Y79.2053
G01 X64.9270 Y79.1801
G01 X67.3228 Y79.1801
G01 X67.3228 Y93.0194
G01 X66.7319 Y93.6103
G01 X66.7390 Y93.5814
G01 X66.7437 Y93.5510
G01 X66.7449 Y93.5386
G01 X66.7462 Y93.5079
G01 X66.7462 Y92.3079
G01 X66.7447 Y92.2741
G01 X66.7437 Y92.2648
G01 X66.7390 Y92.2344
G01 X66.7300 Y92.1985
G01 X66.7175 Y92.1637
G01 X66.7017 Y92.1303
G01 X66.6827 Y92.0985
G01 X66.6607 Y92.0688
G01 X66.6359 Y92.0414
G01 X66.6132 Y92.0207
G01 X66.6036 Y92.0128
G01 X66.5788 Y91.9946
G01 X66.5471 Y91.9756
G01 X66.5136 Y91.9598
G01 X66.4847 Y91.9493
G01 X66.4728 Y91.9456
G01 X66.4399 Y91.9378
G01 X66.4064 Y91.9329
G01 X66.3757 Y91.9312
G01 X64.9163 Y91.9311
G01 X64.8825 Y91.9329
G01 X64.8459 Y91.9383
G01 X64.8101 Y91.9473
G01 X64.7752 Y91.9598
G01 X64.7418 Y91.9756
G01 X64.7101 Y91.9946
G01 X64.6804 Y92.0166
G01 X64.6530 Y92.0414
G01 X64.6282 Y92.0688
G01 X64.6061 Y92.0985
G01 X64.5871 Y92.1303
G01 X64.5713 Y92.1637
G01 X64.5589 Y92.1985
G01 X64.5499 Y92.2344
G01 X64.5444 Y92.2710
G01 X64.5426 Y92.3079
G01 X64.5426 Y93.5079
G01 X64.5442 Y93.5417
G01 X64.5452 Y93.5510
G01 X64.5499 Y93.5814
G01 X64.5572 Y93.6113
G01 X64.5598 Y93.6202
G01 X64.5691 Y93.6463
G01 X64.5738 Y93.6578
G01 X64.5871 Y93.6855
G01 X64.6061 Y93.7172
G01 X64.6282 Y93.7469
G01 X64.6530 Y93.7743
G01 X64.6804 Y93.7992
G01 X64.7101 Y93.8212
G01 X64.7418 Y93.8402
G01 X64.7695 Y93.8535
G01 X64.7781 Y93.8572
G01 X64.8071 Y93.8675
G01 X64.8398 Y93.8761
G01 X64.8521 Y93.8785
G01 X64.8794 Y93.8825
G01 X64.8887 Y93.8833
G01 X64.9194 Y93.8847
G01 X66.3694 Y93.8847
G01 X66.4002 Y93.8833
G01 X66.4125 Y93.8821
G01 X66.4429 Y93.8774
G01 X66.4718 Y93.8704
G01 X65.4305 Y94.9117
G01 X53.2504 Y94.9117
G01 X53.2933 Y94.8964
G01 X53.3020 Y94.8929
G01 X53.3758 Y94.8580
G01 X53.3840 Y94.8537
G01 X53.4593 Y94.8085
G01 X53.5300 Y94.7563
G01 X53.5371 Y94.7502
G01 X53.5953 Y94.6975
G01 X53.6041 Y94.6887
G01 X53.6609 Y94.6258
G01 X53.7115 Y94.5579
G01 X53.7167 Y94.5502
G01 X53.7618 Y94.4748
G01 X53.8007 Y94.3926
G01 X53.8313 Y94.3069
G01 X53.8521 Y94.2248
G01 X53.8545 Y94.2126
G01 X53.8660 Y94.1349
G01 X53.8672 Y94.1225
G01 X53.8712 Y94.0379
G01 X53.8670 Y93.9501
G00 Z2.0000
G00 X48.8584 Y92.5214
G01 F30.00
G01 Z-0.0050
G01 F60.00
G01 X48.8575 Y92.5124
G01 X48.8571 Y92.5034
G01 X48.8573 Y91.3150
G01 X48.8607 Y91.2819
G01 X48.8620 Y91.2726
G01 X48.8649 Y91.2605
G01 X48.8701 Y91.2458
G01 X48.8755 Y91.2346
G01 X48.9104 Y91.1707
G01 X48.9187 Y91.1581
G01 X48.9264 Y91.1488
G01 X60.3250 Y79.7500
G01 X60.3351 Y79.7410
G01 X60.3607 Y79.7206
G01 X60.3684 Y79.7153
G01 X60.3793 Y79.7093
G01 X60.3878 Y79.7055
G01 X60.3966 Y79.7023
G01 X60.4724 Y79.6802
G01 X60.4873 Y79.6775
G01 X60.4993 Y79.6766
G01 X63.6718 Y79.6766
G01 X63.6785 Y79.6770
G01 X63.6884 Y79.6781
G01 X63.7300 Y79.6848
G01 X63.7397 Y79.6870
G01 X63.9043 Y79.7403
G01 X64.1334 Y79.7766
G01 X64.6154 Y79.7766
G01 X64.8445 Y79.7403
G01 X65.0092 Y79.6870
G01 X65.0189 Y79.6848
G01 X65.0605 Y79.6781
G01 X65.0737 Y79.6768
G01 X66.5759 Y79.6766
G01 X66.5880 Y79.6772
G01 X66.5999 Y79.6789
G01 X66.6575 Y79.6914
G01 X66.6726 Y79.6961
G01 X66.6870 Y79.7027
G01 X66.6979 Y79.7092
G01 X66.7081 Y79.7167
G01 X66.7633 Y79.7645
G01 X66.7745 Y79.7755
G01 X66.7843 Y79.7879
G01 X66.7910 Y79.7985
G01 X66.7953 Y79.8070
G01 X66.7989 Y79.8157
G01 X66.8019 Y79.8246
G01 X66.8232 Y79.8975
G01 X66.8258 Y79.9123
G01 X66.8267 Y79.9274
G01 X66.8267 Y86.3834
G01 X66.8264 Y86.3923
G01 X66.8255 Y86.4012
G01 X66.8184 Y86.4441
G01 X66.8157 Y86.4565
G01 X66.8129 Y86.4655
G01 X66.8081 Y86.4773
G01 X66.8005 Y86.4912
G01 X66.7567 Y86.5535
G01 X66.7510 Y86.5610
G01 X66.7447 Y86.5681
G01 X66.7379 Y86.5747
G01 X66.7307 Y86.5807
G01 X66.7203 Y86.5879
G01 X66.7065 Y86.5954
G01 X66.6331 Y86.6254
G01 X66.6241 Y86.6284
G01 X66.6149 Y86.6307
G01 X66.6056 Y86.6324
G01 X66.5931 Y86.6335
G01 X66.5805 Y86.6333
G01 X66.5680 Y86.6319
G01 X66.4933 Y86.6179
G01 X66.4787 Y86.6139
G01 X66.4703 Y86.6106
G01 X66.4621 Y86.6068
G01 X66.3351 Y86.5422
G01 X66.1145 Y86.4705
G01 X65.8854 Y86.4342
G01 X65.4034 Y86.4342
G01 X65.1743 Y86.4705
G01 X64.9537 Y86.5422
G01 X64.7470 Y86.6475
G01 X64.5594 Y86.7838
G01 X64.3953 Y86.9478
G01 X64.2590 Y87.1355
G01 X64.1537 Y87.3422
G01 X64.0820 Y87.5628
G01 X64.0457 Y87.7919
G01 X64.0457 Y88.0239
G01 X64.0820 Y88.2530
G01 X64.1537 Y88.4736
G01 X64.2590 Y88.6803
G01 X64.3954 Y88.8679
G01 X64.5121 Y88.9849
G01 X64.5180 Y88.9918
G01 X64.5233 Y88.9991
G01 X64.5535 Y89.0460
G01 X64.5598 Y89.0570
G01 X64.5650 Y89.0685
G01 X64.5690 Y89.0806
G01 X64.5717 Y89.0929
G01 X64.5733 Y89.1055
G01 X64.5783 Y89.1752
G01 X64.5786 Y89.1846
G01 X64.5779 Y89.1972
G01 X64.5760 Y89.2097
G01 X64.5729 Y89.2219
G01 X64.5686 Y89.2337
G01 X64.5631 Y89.2450
G01 X64.5296 Y89.3063
G01 X64.5250 Y89.3141
G01 X64.5180 Y89.3239
G01 X64.5101 Y89.3331
G01 X64.3953 Y89.4478
G01 X64.2590 Y89.6355
G01 X64.1537 Y89.8422
G01 X64.0820 Y90.0628
G01 X64.0457 Y90.2919
G01 X64.0457 Y90.5239
G01 X64.0820 Y90.7530
G01 X64.1537 Y90.9736
G01 X64.2590 Y91.1803
G01 X64.3654 Y91.3267
G01 X64.3734 Y91.3391
G01 X64.3774 Y91.3470
G01 X64.3971 Y91.3885
G01 X64.4019 Y91.4002
G01 X64.4047 Y91.4092
G01 X64.4069 Y91.4184
G01 X64.4084 Y91.4277
G01 X64.4093 Y91.4403
G01 X64.4071 Y91.5164
G01 X64.4065 Y91.5258
G01 X64.4052 Y91.5352
G01 X64.4023 Y91.5474
G01 X64.3994 Y91.5564
G01 X64.3944 Y91.5680
G01 X64.3900 Y91.5763
G01 X64.3850 Y91.5843
G01 X64.3454 Y91.6420
G01 X64.3401 Y91.6492
G01 X64.3321 Y91.6583
G01 X64.3256 Y91.6646
G01 X64.2984 Y91.6869
G01 X64.1862 Y91.8246
G01 X64.1039 Y91.9821
G01 X64.0548 Y92.1537
G01 X64.0457 Y92.2555
G01 X64.0457 Y93.5603
G01 X64.0548 Y93.6620
G01 X64.1039 Y93.8337
G01 X64.1862 Y93.9912
G01 X64.2038 Y94.0134
G01 X64.2089 Y94.0212
G01 X64.2134 Y94.0294
G01 X64.2427 Y94.0958
G01 X64.2460 Y94.1043
G01 X64.2488 Y94.1131
G01 X64.2509 Y94.1221
G01 X64.2524 Y94.1312
G01 X64.2532 Y94.1403
G01 X64.2532 Y94.1526
G01 X64.2524 Y94.1617
G01 X64.2416 Y94.2371
G01 X64.2380 Y94.2524
G01 X64.2350 Y94.2613
G01 X64.2313 Y94.2700
G01 X64.2269 Y94.2784
G01 X64.2220 Y94.2864
G01 X64.2124 Y94.2989
G01 X64.1624 Y94.3564
G01 X64.1533 Y94.3650
G01 X64.1433 Y94.3727
G01 X64.1326 Y94.3794
G01 X64.1242 Y94.3837
G01 X64.1155 Y94.3874
G01 X64.1066 Y94.3904
G01 X64.0337 Y94.4116
G01 X64.0189 Y94.4143
G01 X64.0038 Y94.4152
G01 X58.3289 Y94.4152
G01 X58.3169 Y94.4146
G01 X58.3020 Y94.4123
G01 X58.2505 Y94.4011
G01 X58.2382 Y94.3978
G01 X58.2235 Y94.3919
G01 X58.2151 Y94.3876
G01 X58.2070 Y94.3826
G01 X58.1944 Y94.3730
G01 X58.1416 Y94.3273
G01 X58.1347 Y94.3208
G01 X58.1283 Y94.3139
G01 X58.1206 Y94.3039
G01 X58.1139 Y94.2932
G01 X58.1096 Y94.2848
G01 X58.1039 Y94.2702
G01 X58.0833 Y94.2001
G01 X58.0810 Y94.1913
G01 X58.0790 Y94.1794
G01 X58.0781 Y94.1644
G01 X58.0781 Y93.9737
G01 X58.0455 Y93.7679
G01 X57.9812 Y93.5698
G01 X57.8866 Y93.3841
G01 X57.7641 Y93.2156
G01 X57.6168 Y93.0682
G01 X57.4482 Y92.9458
G01 X57.2626 Y92.8512
G01 X57.0644 Y92.7868
G01 X56.8586 Y92.7542
G01 X56.6502 Y92.7542
G01 X56.4445 Y92.7868
G01 X56.2463 Y92.8512
G01 X56.0607 Y92.9458
G01 X55.8921 Y93.0682
G01 X55.7448 Y93.2156
G01 X55.6223 Y93.3841
G01 X55.5277 Y93.5698
G01 X55.4633 Y93.7679
G01 X55.4307 Y93.9737
G01 X55.4306 Y94.1704
G01 X55.4298 Y94.1794
G01 X55.4284 Y94.1884
G01 X55.4159 Y94.2459
G01 X55.4123 Y94.2581
G01 X55.4075 Y94.2698
G01 X55.4015 Y94.2810
G01 X55.3945 Y94.2915
G01 X55.3886 Y94.2989
G01 X55.3407 Y94.3541
G01 X55.3341 Y94.3608
G01 X55.3270 Y94.3671
G01 X55.3168 Y94.3745
G01 X55.3088 Y94.3794
G01 X55.2975 Y94.3850
G01 X55.2887 Y94.3884
G01 X55.2127 Y94.4109
G01 X55.2010 Y94.4134
G01 X55.1890 Y94.4149
G01 X55.1799 Y94.4152
G01 X54.6189 Y94.4152
G01 X54.6099 Y94.4149
G01 X54.6009 Y94.4139
G01 X54.5920 Y94.4123
G01 X54.5405 Y94.4011
G01 X54.5313 Y94.3987
G01 X54.5223 Y94.3957
G01 X54.5135 Y94.3919
G01 X54.5051 Y94.3876
G01 X54.4970 Y94.3826
G01 X54.4844 Y94.3730
G01 X54.4316 Y94.3273
G01 X54.4247 Y94.3208
G01 X54.4163 Y94.3114
G01 X54.4106 Y94.3039
G01 X54.4039 Y94.2932
G01 X54.3983 Y94.2819
G01 X54.3930 Y94.2671
G01 X54.3733 Y94.2001
G01 X54.3704 Y94.1884
G01 X54.3690 Y94.1794
G01 X54.3681 Y94.1644
G01 X54.3681 Y93.9258
G01 X54.3331 Y93.7045
G01 X54.2638 Y93.4914
G01 X54.1621 Y93.2917
G01 X54.0304 Y93.1104
G01 X53.8719 Y92.9519
G01 X53.6906 Y92.8202
G01 X53.4909 Y92.7185
G01 X53.2778 Y92.6492
G01 X53.0565 Y92.6142
G01 X52.8324 Y92.6142
G01 X52.6110 Y92.6492
G01 X52.3979 Y92.7185
G01 X52.1982 Y92.8202
G01 X52.0170 Y92.9519
G01 X51.8585 Y93.1104
G01 X51.7268 Y93.2917
G01 X51.6250 Y93.4914
G01 X51.5558 Y93.7045
G01 X51.5207 Y93.9258
G01 X51.5206 Y94.1704
G01 X51.5198 Y94.1794
G01 X51.5184 Y94.1884
G01 X51.5059 Y94.2459
G01 X51.5023 Y94.2581
G01 X51.4975 Y94.2698
G01 X51.4915 Y94.2810
G01 X51.4845 Y94.2915
G01 X51.4786 Y94.2989
G01 X51.4328 Y94.3517
G01 X51.4264 Y94.3586
G01 X51.4194 Y94.3650
G01 X51.4094 Y94.3727
G01 X51.3988 Y94.3794
G01 X51.3875 Y94.3850
G01 X51.3787 Y94.3884
G01 X51.3027 Y94.4109
G01 X51.2910 Y94.4134
G01 X51.2790 Y94.4149
G01 X51.2699 Y94.4152
G01 X50.7089 Y94.4152
G01 X50.6939 Y94.4143
G01 X50.6820 Y94.4123
G01 X50.6305 Y94.4011
G01 X50.6213 Y94.3987
G01 X50.6123 Y94.3957
G01 X50.6035 Y94.3919
G01 X50.5896 Y94.3843
G01 X50.5818 Y94.3790
G01 X50.5744 Y94.3730
G01 X50.5216 Y94.3273
G01 X50.5147 Y94.3208
G01 X50.5063 Y94.3114
G01 X50.5006 Y94.3039
G01 X50.4939 Y94.2932
G01 X50.4896 Y94.2848
G01 X50.4839 Y94.2702
G01 X50.4633 Y94.2001
G01 X50.4610 Y94.1913
G01 X50.4590 Y94.1794
G01 X50.4581 Y94.1644
G01 X50.4581 Y93.9737
G01 X50.4255 Y93.7679
G01 X50.3612 Y93.5698
G01 X50.2666 Y93.3841
G01 X50.1441 Y93.2156
G01 X49.9968 Y93.0682
G01 X49.8282 Y92.9458
G01 X49.6426 Y92.8512
G01 X49.4444 Y92.7868
G01 X49.2386 Y92.7542
G01 X49.1079 Y92.7542
G01 X49.0929 Y92.7533
