(G-CODE GENERATED BY FLATCAM v2024.4 - www.flatcam.org - Version Date: 2024/04/15)

(Name: power_board-B_Cu.gbr_iso_combined_cnc)
(Type: G-code from Geometry)
(Units: MM)

(Created on Sunday, 05 October 2025 at 19:30)

(This preprocessor is the default preprocessor used by FlatCAM.)
(It is made to work with MACH3 compatible motion controllers.)

(TOOL DIAMETER: 0.28 mm)
(Feedrate_XY: 100.0 mm/min)
(Feedrate_Z: 50.0 mm/min)
(Feedrate rapids 1500.0 mm/min)

(Z_Cut: -0.04 mm)
(Z_Move: 1.25 mm)
(Z Start: None mm)
(Z End: 15.0 mm)
(X,Y End: None mm)
(Steps per circle: 64)
(Preprocessor Geometry: default)

(X range:   20.6849 ...  133.7765  mm)
(Y range:    6.6476 ...  143.4082  mm)

(Spindle Speed: 0.0 RPM)
G21
G90
G94

G01 F100.00

M5
G00 Z15.0000
G00 X0.0000 Y0.0000
T1
M6    
(MSG, Change to Tool Dia = 0.2800)
M0
G00 Z15.0000

M03
G01 F100.00
G00 X35.6518 Y14.4570
G01 F50.00
G01 Z-0.0400
G01 F100.00
G01 X35.6528 Y14.4466
G01 X35.6545 Y14.4366
G01 X35.6559 Y14.4230
G01 X35.6579 Y14.4128
G01 X35.6606 Y14.4027
G01 X35.6628 Y14.3961
G01 X35.6668 Y14.3865
G01 X35.6776 Y14.3658
G01 X35.6830 Y14.3503
G01 X35.6869 Y14.3408
G01 X35.6899 Y14.3347
G01 X35.6950 Y14.3257
G01 X35.7027 Y14.3144
G01 X35.7092 Y14.3065
G01 X35.7143 Y14.3010
G01 X35.7208 Y14.2926
G01 X35.7305 Y14.2823
G01 X35.7357 Y14.2775
G01 X35.7439 Y14.2709
G01 X35.7748 Y14.2477
G01 X35.7860 Y14.2405
G01 X35.9847 Y14.1321
G01 X37.3939 Y13.4044
G01 X38.8216 Y12.7082
G01 X40.2721 Y12.0420
G01 X41.7307 Y11.4124
G01 X43.2062 Y10.8155
G01 X44.6897 Y10.2548
G01 X46.1882 Y9.7275
G01 X47.7000 Y9.2344
G01 X49.2269 Y8.7750
G01 X50.7598 Y8.3523
G01 X52.2996 Y7.9655
G01 X53.8529 Y7.6133
G01 X55.4089 Y7.2980
G01 X56.9769 Y7.0177
G01 X58.5455 Y6.7745
G01 X59.5013 Y6.6487
G01 X59.5179 Y6.6476
G01 X59.5279 Y6.6478
G01 X59.5379 Y6.6487
G01 X59.6136 Y6.6606
G01 X59.6272 Y6.6637
G01 X59.6403 Y6.6682
G01 X59.6499 Y6.6724
G01 X59.6591 Y6.6773
G01 X59.6679 Y6.6829
G01 X59.6763 Y6.6891
G01 X59.7363 Y6.7423
G01 X59.7457 Y6.7519
G01 X59.7521 Y6.7597
G01 X59.7580 Y6.7680
G01 X59.7632 Y6.7766
G01 X59.7678 Y6.7857
G01 X59.7717 Y6.7950
G01 X59.7930 Y6.8557
G01 X59.7956 Y6.8656
G01 X59.7979 Y6.8791
G01 X62.7019 Y31.1215
G01 X62.7372 Y31.2096
G01 X62.7941 Y31.2856
G01 X62.8687 Y31.3443
G01 X62.9560 Y31.3816
G01 X63.0499 Y31.3951
G01 X63.0998 Y31.3892
G01 X64.3358 Y31.2589
G01 X65.5686 Y31.1640
G01 X66.8091 Y31.1036
G01 X68.0561 Y31.0783
G01 X69.2960 Y31.0883
G01 X70.5316 Y31.1330
G01 X71.7730 Y31.2130
G01 X73.0149 Y31.3285
G01 X74.2477 Y31.4785
G01 X75.4705 Y31.6624
G01 X76.6909 Y31.8812
G01 X77.9085 Y32.1352
G01 X79.1219 Y32.4245
G01 X80.3193 Y32.7460
G01 X81.5040 Y33.1002
G01 X82.6853 Y33.4899
G01 X83.8532 Y33.9123
G01 X85.0136 Y34.3695
G01 X86.1557 Y34.8573
G01 X87.2818 Y35.3762
G01 X88.3912 Y35.9260
G01 X88.4353 Y35.9486
G01 X88.5280 Y35.9686
G01 X88.6228 Y35.9639
G01 X88.7132 Y35.9348
G01 X88.7930 Y35.8833
G01 X88.8567 Y35.8130
G01 X100.0070 Y14.0883
G01 X100.0139 Y14.0769
G01 X100.0240 Y14.0637
G01 X100.0815 Y14.0032
G01 X100.0866 Y13.9985
G01 X100.0948 Y13.9920
G01 X100.1064 Y13.9843
G01 X100.1186 Y13.9778
G01 X100.1315 Y13.9725
G01 X100.1448 Y13.9685
G01 X100.2160 Y13.9512
G01 X100.2293 Y13.9489
G01 X100.2427 Y13.9480
G01 X100.2595 Y13.9486
G01 X100.2762 Y13.9512
G01 X100.3382 Y13.9680
G01 X100.3511 Y13.9725
G01 X100.3635 Y13.9783
G01 X101.2182 Y14.4296
G01 X102.6092 Y15.2056
G01 X103.9794 Y16.0119
G01 X105.3316 Y16.8504
G01 X106.6705 Y17.7241
G01 X107.9803 Y18.6225
G01 X109.2713 Y19.5526
G01 X110.5465 Y20.5169
G01 X111.7909 Y21.5039
G01 X113.0177 Y22.5239
G01 X114.2164 Y23.5684
G01 X115.3916 Y24.6410
G01 X116.5460 Y25.7447
G01 X117.6696 Y26.8697
G01 X118.7676 Y28.0211
G01 X119.8429 Y29.2021
G01 X120.8876 Y30.4043
G01 X121.9015 Y31.6268
G01 X122.8934 Y32.8808
G01 X123.8497 Y34.1488
G01 X124.7807 Y35.4445
G01 X125.6784 Y36.7568
G01 X126.5462 Y38.0904
G01 X127.3870 Y39.4503
G01 X128.1922 Y40.8226
G01 X128.9649 Y42.2120
G01 X129.7080 Y43.6239
G01 X130.4158 Y45.0476
G01 X131.0929 Y46.4924
G01 X131.7341 Y47.9472
G01 X132.3427 Y49.4191
G01 X132.9182 Y50.9073
G01 X133.4586 Y52.4072
G01 X133.7647 Y53.3228
G01 X133.7687 Y53.3389
G01 X133.7707 Y53.3555
G01 X133.7735 Y53.4286
G01 X133.7733 Y53.4425
G01 X133.7717 Y53.4563
G01 X133.7688 Y53.4699
G01 X133.7646 Y53.4832
G01 X133.7590 Y53.4959
G01 X133.7541 Y53.5051
G01 X133.7167 Y53.5681
G01 X133.7111 Y53.5765
G01 X133.7048 Y53.5844
G01 X133.6980 Y53.5919
G01 X133.6907 Y53.5988
G01 X133.6829 Y53.6053
G01 X133.6746 Y53.6111
G01 X133.6193 Y53.6438
G01 X133.6070 Y53.6498
G01 X133.5974 Y53.6535
G01 X126.5347 Y55.9254
G01 X126.4549 Y55.9769
G01 X126.3912 Y56.0472
G01 X126.3479 Y56.1317
G01 X126.3278 Y56.2245
G01 X126.3325 Y56.3193
G01 X126.3477 Y56.3666
G01 X126.7767 Y57.7573
G01 X127.1742 Y59.1643
G01 X127.5370 Y60.5774
G01 X127.8650 Y61.9944
G01 X128.1611 Y63.4295
G01 X128.4208 Y64.8606
G01 X128.6467 Y66.3003
G01 X128.8391 Y67.7530
G01 X128.9957 Y69.2019
G01 X129.1178 Y70.6559
G01 X129.2049 Y72.1093
G01 X129.2573 Y73.5658
G01 X129.2748 Y75.0294
G01 X129.2573 Y76.4883
G01 X129.2051 Y77.9418
G01 X129.1176 Y79.4029
G01 X128.9957 Y80.8539
G01 X128.8391 Y82.3028
G01 X128.6467 Y83.7555
G01 X128.4208 Y85.1952
G01 X128.1611 Y86.6263
G01 X127.8650 Y88.0614
G01 X127.5370 Y89.4784
G01 X127.1742 Y90.8915
G01 X126.7767 Y92.2985
G01 X126.3478 Y93.6891
G01 X126.3325 Y93.7365
G01 X126.3278 Y93.8313
G01 X126.3479 Y93.9241
G01 X126.3912 Y94.0085
G01 X126.4549 Y94.0789
G01 X126.5347 Y94.1304
G01 X133.5942 Y96.4011
G01 X133.6036 Y96.4045
G01 X133.6157 Y96.4101
G01 X133.6272 Y96.4168
G01 X133.6878 Y96.4579
G01 X133.6989 Y96.4663
G01 X133.7091 Y96.4757
G01 X133.7183 Y96.4861
G01 X133.7246 Y96.4945
G01 X133.7283 Y96.5003
G01 X133.7350 Y96.5125
G01 X133.7678 Y96.5893
G01 X133.7727 Y96.6055
G01 X133.7752 Y96.6187
G01 X133.7765 Y96.6355
G01 X133.7758 Y96.6523
G01 X133.7698 Y96.7095
G01 X133.7681 Y96.7197
G01 X133.7648 Y96.7329
G01 X133.4571 Y97.6529
G01 X132.9187 Y99.1470
G01 X132.3444 Y100.6325
G01 X131.7352 Y102.1060
G01 X131.0935 Y103.5619
G01 X130.4158 Y105.0082
G01 X129.7080 Y106.4318
G01 X128.9649 Y107.8438
G01 X128.1930 Y109.2318
G01 X127.3847 Y110.6093
G01 X126.5486 Y111.9616
G01 X125.6800 Y113.2966
G01 X124.7807 Y114.6112
G01 X123.8497 Y115.9069
G01 X122.8924 Y117.1763
G01 X121.9043 Y118.4255
G01 X120.8887 Y119.6502
G01 X119.8429 Y120.8537
G01 X118.7707 Y122.0314
G01 X117.6696 Y123.1861
G01 X116.5460 Y124.3111
G01 X115.3948 Y125.4117
G01 X114.2164 Y126.4874
G01 X113.0177 Y127.5318
G01 X111.7909 Y128.5519
G01 X110.5452 Y129.5399
G01 X109.2726 Y130.5022
G01 X107.9803 Y131.4332
G01 X106.6692 Y132.3326
G01 X105.3330 Y133.2045
G01 X103.9794 Y134.0438
G01 X102.6092 Y134.8502
G01 X101.2158 Y135.6275
G01 X100.3635 Y136.0774
G01 X100.3484 Y136.0843
G01 X100.3357 Y136.0885
G01 X100.3260 Y136.0908
G01 X100.2575 Y136.1047
G01 X100.2507 Y136.1059
G01 X100.2403 Y136.1071
G01 X100.2264 Y136.1075
G01 X100.2125 Y136.1065
G01 X100.2023 Y136.1048
G01 X100.1955 Y136.1033
G01 X100.1822 Y136.0992
G01 X100.1076 Y136.0701
G01 X100.0956 Y136.0640
G01 X100.0814 Y136.0548
G01 X100.0710 Y136.0463
G01 X100.0592 Y136.0343
G01 X100.0202 Y135.9875
G01 X100.0141 Y135.9792
G01 X100.0087 Y135.9705
G01 X88.8567 Y114.2428
G01 X88.7930 Y114.1724
G01 X88.7132 Y114.1210
G01 X88.6228 Y114.0919
G01 X88.5280 Y114.0872
G01 X88.4353 Y114.1072
G01 X88.3905 Y114.1302
G01 X87.2818 Y114.6795
G01 X86.1558 Y115.1985
G01 X85.0136 Y115.6863
G01 X83.8564 Y116.1423
G01 X82.6852 Y116.5658
G01 X81.5040 Y116.9556
G01 X80.3160 Y117.3107
G01 X79.1219 Y117.6313
G01 X77.9119 Y117.9198
G01 X76.6908 Y118.1746
G01 X75.4704 Y118.3934
G01 X74.2477 Y118.5773
G01 X73.0149 Y118.7272
G01 X71.7730 Y118.8427
G01 X70.5316 Y118.9228
G01 X69.2960 Y118.9675
G01 X68.0561 Y118.9774
G01 X66.8091 Y118.9521
G01 X65.5720 Y118.8920
G01 X64.3358 Y118.7969
G01 X63.0998 Y118.6666
G01 X63.0499 Y118.6607
G01 X62.9560 Y118.6741
G01 X62.8687 Y118.7115
G01 X62.7941 Y118.7701
G01 X62.7372 Y118.8461
G01 X62.7019 Y118.9342
G01 X59.7979 Y143.1767
G01 X59.7963 Y143.1866
G01 X59.7941 Y143.1963
G01 X59.7912 Y143.2058
G01 X59.7876 Y143.2152
G01 X59.7571 Y143.2857
G01 X59.7539 Y143.2919
G01 X59.7486 Y143.3008
G01 X59.7404 Y143.3121
G01 X59.7359 Y143.3174
G01 X59.7287 Y143.3249
G01 X59.7209 Y143.3319
G01 X59.7127 Y143.3382
G01 X59.6491 Y143.3812
G01 X59.6374 Y143.3879
G01 X59.6252 Y143.3935
G01 X59.6092 Y143.3988
G01 X59.5993 Y143.4010
G01 X59.5893 Y143.4025
G01 X59.5287 Y143.4079
G01 X59.5184 Y143.4082
G01 X59.5047 Y143.4074
G01 X58.5499 Y143.2819
G01 X56.9769 Y143.0381
G01 X55.4088 Y142.7578
G01 X53.8502 Y142.4419
G01 X52.2995 Y142.0902
G01 X50.7599 Y141.7035
G01 X49.2243 Y141.2800
G01 X47.6999 Y140.8214
G01 X46.1924 Y140.3297
G01 X44.6897 Y139.8010
G01 X43.2022 Y139.2387
G01 X41.7266 Y138.6416
G01 X40.2681 Y138.0120
G01 X38.8216 Y137.3475
G01 X37.3938 Y136.6513
G01 X35.9848 Y135.9237
G01 X35.7928 Y135.8190
G01 X35.7787 Y135.8101
G01 X35.7708 Y135.8041
G01 X35.7633 Y135.7974
G01 X35.7091 Y135.7432
G01 X35.7044 Y135.7381
G01 X35.6979 Y135.7299
G01 X35.6921 Y135.7213
G01 X35.6868 Y135.7123
G01 X35.6809 Y135.6997
G01 X35.6785 Y135.6932
G01 X35.6754 Y135.6832
G01 X35.6582 Y135.6048
G01 X35.6566 Y135.5944
G01 X35.6557 Y135.5804
G01 X35.6559 Y135.5699
G01 X35.6575 Y135.5559
G01 X35.6596 Y135.5456
G01 X35.6691 Y135.5059
G01 X35.6728 Y135.4932
G01 X35.6764 Y135.4840
G01 X35.7376 Y135.3400
G01 X35.7545 Y135.2826
G01 X35.7617 Y135.2554
G01 X35.7799 Y135.0992
G01 X35.7799 Y14.9546
G01 X35.7690 Y14.8330
G01 X35.7638 Y14.8038
G01 X35.7203 Y14.6602
G01 X35.6840 Y14.5974
G01 X35.6776 Y14.5831
G01 X35.6714 Y14.5709
G01 X35.6664 Y14.5580
G01 X35.6635 Y14.5479
G01 X35.6613 Y14.5377
G01 X35.6599 Y14.5274
G01 X35.6587 Y14.5110
G01 X35.6548 Y14.4950
G01 X35.6530 Y14.4848
G01 X35.6517 Y14.4709
G01 X35.6518 Y14.4570
G00 Z1.2500
G00 X40.4370 Y22.4569
G01 F50.00
G01 Z-0.0400
G01 F100.00
G01 X40.6208 Y22.3633
G01 X40.8170 Y22.2995
G01 X41.0207 Y22.2672
G01 X41.2270 Y22.2672
G01 X41.4307 Y22.2995
G01 X41.6269 Y22.3633
G01 X41.8107 Y22.4569
G01 X41.9776 Y22.5781
G01 X42.1234 Y22.7240
G01 X42.2447 Y22.8909
G01 X42.3383 Y23.0747
G01 X42.4021 Y23.2709
G01 X42.4343 Y23.4746
G01 X42.4343 Y23.6809
G01 X42.4021 Y23.8846
G01 X42.3383 Y24.0808
G01 X42.2447 Y24.2646
G01 X42.1234 Y24.4315
G01 X41.9776 Y24.5773
G01 X41.8107 Y24.6986
G01 X41.6269 Y24.7922
G01 X41.4307 Y24.8560
G01 X41.2270 Y24.8882
G01 X41.0207 Y24.8882
G01 X40.8170 Y24.8560
G01 X40.6208 Y24.7922
G01 X40.4370 Y24.6986
G01 X40.2701 Y24.5773
G01 X40.1242 Y24.4315
G01 X40.0030 Y24.2646
G01 X39.9093 Y24.0808
G01 X39.8456 Y23.8846
G01 X39.8133 Y23.6809
G01 X39.8133 Y23.4746
G01 X39.8456 Y23.2709
G01 X39.9093 Y23.0747
G01 X40.0030 Y22.8909
G01 X40.1242 Y22.7240
G01 X40.2701 Y22.5781
G01 X40.4370 Y22.4569
G00 Z1.2500
G00 X40.3015 Y23.7483
G01 F50.00
G01 Z-0.0400
G01 F100.00
G01 X40.2988 Y23.7348
G01 X40.2879 Y23.6601
G01 X40.2838 Y23.5777
G01 X40.2879 Y23.4954
G01 X40.3000 Y23.4139
G01 X40.3200 Y23.3339
G01 X40.3478 Y23.2563
G01 X40.3830 Y23.1818
G01 X40.4254 Y23.1111
G01 X40.4745 Y23.0449
G01 X40.5299 Y22.9838
G01 X40.5909 Y22.9284
G01 X40.6572 Y22.8793
G01 X40.7279 Y22.8369
G01 X40.8024 Y22.8017
G01 X40.8800 Y22.7739
G01 X40.9600 Y22.7539
G01 X41.0415 Y22.7418
G01 X41.1238 Y22.7377
G01 X41.2062 Y22.7418
G01 X41.2877 Y22.7539
G01 X41.3677 Y22.7739
G01 X41.4453 Y22.8017
G01 X41.5198 Y22.8369
G01 X41.5905 Y22.8793
G01 X41.6567 Y22.9284
G01 X41.7178 Y22.9838
G01 X41.7732 Y23.0449
G01 X41.8223 Y23.1111
G01 X41.8646 Y23.1818
G01 X41.8999 Y23.2563
G01 X41.9277 Y23.3339
G01 X41.9477 Y23.4139
G01 X41.9598 Y23.4954
G01 X41.9638 Y23.5777
G01 X41.9598 Y23.6601
G01 X41.9477 Y23.7416
G01 X41.9277 Y23.8216
G01 X41.8999 Y23.8992
G01 X41.8646 Y23.9737
G01 X41.8223 Y24.0444
G01 X41.7732 Y24.1106
G01 X41.7178 Y24.1717
G01 X41.6567 Y24.2271
G01 X41.5905 Y24.2762
G01 X41.5198 Y24.3186
G01 X41.4453 Y24.3538
G01 X41.3677 Y24.3816
G01 X41.2877 Y24.4016
G01 X41.2062 Y24.4137
G01 X41.1238 Y24.4177
G01 X41.0415 Y24.4137
G01 X40.9600 Y24.4016
G01 X40.8800 Y24.3816
G01 X40.8024 Y24.3538
G01 X40.7279 Y24.3186
G01 X40.6572 Y24.2762
G01 X40.5909 Y24.2271
G01 X40.5299 Y24.1717
G01 X40.4745 Y24.1106
G01 X40.4254 Y24.0444
G01 X40.3830 Y23.9737
G01 X40.3478 Y23.8992
G01 X40.3200 Y23.8216
G01 X40.3015 Y23.7483
G00 Z1.2500
G00 X30.3736 Y29.8215
G01 F50.00
G01 Z-0.0400
G01 F100.00
G01 X30.5693 Y29.6259
G01 X30.7494 Y29.4877
G01 X32.7346 Y29.2510
G01 X32.8993 Y29.3191
G01 X33.1389 Y29.4575
G01 X33.3583 Y29.6259
G01 X33.5540 Y29.8215
G01 X33.7224 Y30.0410
G01 X33.8607 Y30.2806
G01 X33.9666 Y30.5362
G01 X34.0382 Y30.8034
G01 X34.0743 Y31.0777
G01 X34.0743 Y31.3544
G01 X34.0382 Y31.6287
G01 X33.9666 Y31.8959
G01 X33.8607 Y32.1515
G01 X33.7224 Y32.3911
G01 X33.5549 Y32.6097
G01 X33.5494 Y32.6181
G01 X33.5447 Y32.6269
G01 X33.5193 Y32.6807
G01 X33.5143 Y32.6938
G01 X33.5106 Y32.7073
G01 X33.5083 Y32.7211
G01 X33.5075 Y32.7316
G01 X33.5076 Y32.7456
G01 X33.5124 Y32.8222
G01 X33.5146 Y32.8360
G01 X33.5181 Y32.8494
G01 X33.5230 Y32.8624
G01 X33.5291 Y32.8749
G01 X33.5326 Y32.8809
G01 X33.5385 Y32.8895
G01 X33.5797 Y32.9460
G01 X33.5880 Y32.9563
G01 X33.5973 Y32.9659
G01 X33.6075 Y32.9745
G01 X33.7728 Y33.1013
G01 X33.9684 Y33.2969
G01 X34.1368 Y33.5164
G01 X34.2751 Y33.7560
G01 X34.3810 Y34.0116
G01 X34.4526 Y34.2788
G01 X34.4887 Y34.5531
G01 X34.4887 Y34.8298
G01 X34.4526 Y35.1041
G01 X34.3810 Y35.3713
G01 X34.2751 Y35.6269
G01 X34.1368 Y35.8665
G01 X33.9684 Y36.0860
G01 X33.7728 Y36.2816
G01 X33.5533 Y36.4500
G01 X33.3137 Y36.5883
G01 X33.0581 Y36.6942
G01 X32.7908 Y36.7658
G01 X32.5165 Y36.8019
G01 X32.2399 Y36.8019
G01 X31.9656 Y36.7658
G01 X31.6984 Y36.6942
G01 X31.4428 Y36.5883
G01 X31.2032 Y36.4500
G01 X30.9837 Y36.2816
G01 X30.7881 Y36.0860
G01 X30.6196 Y35.8665
G01 X30.4813 Y35.6269
G01 X30.3754 Y35.3713
G01 X30.3038 Y35.1041
G01 X30.2677 Y34.8298
G01 X30.2677 Y34.5531
G01 X30.3038 Y34.2788
G01 X30.3754 Y34.0116
G01 X30.4813 Y33.7560
G01 X30.6196 Y33.5164
G01 X30.7872 Y33.2978
G01 X30.7926 Y33.2894
G01 X30.7974 Y33.2806
G01 X30.8227 Y33.2267
G01 X30.8266 Y33.2170
G01 X30.8306 Y33.2036
G01 X30.8333 Y33.1899
G01 X30.8345 Y33.1759
G01 X30.8344 Y33.1619
G01 X30.8302 Y33.0922
G01 X30.8292 Y33.0818
G01 X30.8267 Y33.0681
G01 X30.8228 Y33.0548
G01 X30.8176 Y33.0419
G01 X30.8112 Y33.0296
G01 X30.8036 Y33.0180
G01 X30.7623 Y32.9615
G01 X30.7562 Y32.9537
G01 X30.7494 Y32.9463
G01 X30.7422 Y32.9394
G01 X30.7345 Y32.9330
G01 X30.5693 Y32.8062
G01 X30.3736 Y32.6106
G01 X30.2052 Y32.3911
G01 X30.0669 Y32.1515
G01 X29.9610 Y31.8959
G01 X29.9446 Y31.8347
G01 X29.8894 Y31.6287
G01 X29.8533 Y31.3544
G01 X29.8533 Y31.0777
G01 X29.8894 Y30.8034
G01 X29.9610 Y30.5362
G01 X30.0669 Y30.2806
G01 X30.2052 Y30.0410
G01 X30.3736 Y29.8215
G00 Z1.2500
G00 X30.3926 Y31.6855
G01 F50.00
G01 Z-0.0400
G01 F100.00
G01 X30.3553 Y31.5360
G01 X30.3317 Y31.3768
G01 X30.3238 Y31.2161
G01 X30.3317 Y31.0553
G01 X30.3553 Y30.8961
G01 X30.3944 Y30.7400
G01 X30.4486 Y30.5885
G01 X30.5175 Y30.4430
G01 X30.6002 Y30.3049
G01 X30.6961 Y30.1757
G01 X30.8041 Y30.0564
G01 X30.9234 Y29.9483
G01 X31.0527 Y29.8524
G01 X31.1907 Y29.7697
G01 X31.3362 Y29.7009
G01 X31.4877 Y29.6467
G01 X31.6439 Y29.6076
G01 X31.8031 Y29.5840
G01 X31.9638 Y29.5761
G01 X32.1246 Y29.5840
G01 X32.2838 Y29.6076
G01 X32.4399 Y29.6467
G01 X32.5914 Y29.7009
G01 X32.7369 Y29.7697
G01 X32.8749 Y29.8524
G01 X33.0042 Y29.9483
G01 X33.1235 Y30.0564
G01 X33.2315 Y30.1757
G01 X33.3274 Y30.3049
G01 X33.4102 Y30.4430
G01 X33.4790 Y30.5885
G01 X33.5332 Y30.7400
G01 X33.5723 Y30.8961
G01 X33.5959 Y31.0553
G01 X33.6038 Y31.2161
G01 X33.5959 Y31.3768
G01 X33.5723 Y31.5360
G01 X33.5332 Y31.6921
G01 X33.4790 Y31.8437
G01 X33.4102 Y31.9891
G01 X33.3274 Y32.1272
G01 X33.2315 Y32.2565
G01 X33.1235 Y32.3757
G01 X33.0042 Y32.4838
G01 X32.8749 Y32.5797
G01 X32.7369 Y32.6624
G01 X32.5914 Y32.7312
G01 X32.4399 Y32.7854
G01 X32.2838 Y32.8245
G01 X32.1246 Y32.8482
G01 X31.9638 Y32.8561
G01 X31.8031 Y32.8482
G01 X31.6439 Y32.8245
G01 X31.4877 Y32.7854
G01 X31.3362 Y32.7312
G01 X31.1907 Y32.6624
G01 X31.0527 Y32.5797
G01 X30.9234 Y32.4838
G01 X30.8041 Y32.3757
G01 X30.6961 Y32.2565
G01 X30.6002 Y32.1272
G01 X30.5175 Y31.9891
G01 X30.4486 Y31.8437
G01 X30.3966 Y31.6986
G01 X30.3926 Y31.6855
G00 Z1.2500
G00 X30.7712 Y35.0181
G01 F50.00
G01 Z-0.0400
G01 F100.00
G01 X30.7686 Y35.0046
G01 X30.7461 Y34.8522
G01 X30.7382 Y34.6914
G01 X30.7461 Y34.5307
G01 X30.7697 Y34.3715
G01 X30.8088 Y34.2154
G01 X30.8631 Y34.0638
G01 X30.9319 Y33.9183
G01 X31.0146 Y33.7803
G01 X31.1105 Y33.6510
G01 X31.2186 Y33.5318
G01 X31.3378 Y33.4237
G01 X31.4671 Y33.3278
G01 X31.6051 Y33.2451
G01 X31.7506 Y33.1763
G01 X31.9022 Y33.1221
G01 X32.0583 Y33.0829
G01 X32.2175 Y33.0593
G01 X32.3782 Y33.0514
G01 X32.5390 Y33.0593
G01 X32.6982 Y33.0829
G01 X32.8543 Y33.1221
G01 X33.0058 Y33.1763
G01 X33.1513 Y33.2451
G01 X33.2894 Y33.3278
G01 X33.4186 Y33.4237
G01 X33.5379 Y33.5318
G01 X33.6460 Y33.6510
G01 X33.7418 Y33.7803
G01 X33.8246 Y33.9183
G01 X33.8934 Y34.0638
G01 X33.9476 Y34.2154
G01 X33.9867 Y34.3715
G01 X34.0103 Y34.5307
G01 X34.0182 Y34.6914
G01 X34.0103 Y34.8522
G01 X33.9867 Y35.0114
G01 X33.9476 Y35.1675
G01 X33.8934 Y35.3190
G01 X33.8246 Y35.4645
G01 X33.7418 Y35.6026
G01 X33.6460 Y35.7318
G01 X33.5379 Y35.8511
G01 X33.4186 Y35.9592
G01 X33.2894 Y36.0550
G01 X33.1513 Y36.1378
G01 X33.0058 Y36.2066
G01 X32.8543 Y36.2608
G01 X32.6982 Y36.2999
G01 X32.5390 Y36.3235
G01 X32.3782 Y36.3314
G01 X32.2175 Y36.3235
G01 X32.0583 Y36.2999
G01 X31.9022 Y36.2608
G01 X31.7506 Y36.2066
G01 X31.6051 Y36.1378
G01 X31.4671 Y36.0550
G01 X31.3378 Y35.9592
G01 X31.2186 Y35.8511
G01 X31.1105 Y35.7318
G01 X31.0146 Y35.6026
G01 X30.9319 Y35.4646
G01 X30.8631 Y35.3190
G01 X30.8088 Y35.1675
G01 X30.7712 Y35.0181
G00 Z1.2500
G00 X26.4517 Y35.7854
G01 F50.00
G01 Z-0.0400
G01 F100.00
G01 X26.4263 Y35.6835
G01 X26.4099 Y35.5728
G01 X26.4044 Y35.4611
G01 X26.4099 Y35.3493
G01 X26.4263 Y35.2387
G01 X26.4535 Y35.1301
G01 X26.4912 Y35.0248
G01 X26.5390 Y34.9237
G01 X26.5966 Y34.8277
G01 X26.6632 Y34.7379
G01 X26.7383 Y34.6550
G01 X26.8212 Y34.5798
G01 X26.9111 Y34.5132
G01 X27.0070 Y34.4557
G01 X27.1082 Y34.4078
G01 X27.2135 Y34.3702
G01 X27.3220 Y34.3430
G01 X27.4327 Y34.3266
G01 X27.5444 Y34.3211
G01 X27.6562 Y34.3266
G01 X27.7668 Y34.3430
G01 X27.8754 Y34.3702
G01 X27.9807 Y34.4078
G01 X28.0818 Y34.4557
G01 X28.1778 Y34.5132
G01 X28.2676 Y34.5798
G01 X28.3505 Y34.6550
G01 X28.4257 Y34.7379
G01 X28.4923 Y34.8277
G01 X28.5498 Y34.9237
G01 X28.5977 Y35.0248
G01 X28.6353 Y35.1301
G01 X28.6625 Y35.2387
G01 X28.6789 Y35.3493
G01 X28.6844 Y35.4611
G01 X28.6789 Y35.5728
G01 X28.6625 Y35.6835
G01 X28.6353 Y35.7920
G01 X28.5977 Y35.8973
G01 X28.5498 Y35.9985
G01 X28.4923 Y36.0944
G01 X28.4257 Y36.1843
G01 X28.3505 Y36.2672
G01 X28.2676 Y36.3423
G01 X28.1778 Y36.4089
G01 X28.0818 Y36.4665
G01 X27.9807 Y36.5143
G01 X27.8754 Y36.5520
G01 X27.7668 Y36.5792
G01 X27.6562 Y36.5956
G01 X27.5444 Y36.6011
G01 X27.4327 Y36.5956
G01 X27.3220 Y36.5792
G01 X27.2135 Y36.5520
G01 X27.1082 Y36.5143
G01 X27.0070 Y36.4665
G01 X26.9111 Y36.4089
G01 X26.8212 Y36.3423
G01 X26.7383 Y36.2672
G01 X26.6632 Y36.1843
G01 X26.5966 Y36.0944
G01 X26.5390 Y35.9985
G01 X26.4912 Y35.8973
G01 X26.4557 Y35.7985
G01 X26.4517 Y35.7854
G00 Z1.2500
G00 X26.0373 Y32.3100
G01 F50.00
G01 Z-0.0400
G01 F100.00
G01 X26.0119 Y32.2081
G01 X25.9955 Y32.0974
G01 X25.9900 Y31.9857
G01 X25.9955 Y31.8739
G01 X26.0119 Y31.7633
G01 X26.0391 Y31.6548
G01 X26.0768 Y31.5494
G01 X26.1246 Y31.4483
G01 X26.1821 Y31.3523
G01 X26.2488 Y31.2625
G01 X26.3239 Y31.1796
G01 X26.4068 Y31.1045
G01 X26.4967 Y31.0378
G01 X26.5926 Y30.9803
G01 X26.6938 Y30.9325
G01 X26.7991 Y30.8948
G01 X26.9076 Y30.8676
G01 X27.0183 Y30.8512
G01 X27.1300 Y30.8457
G01 X27.2418 Y30.8512
G01 X27.3524 Y30.8676
G01 X27.4609 Y30.8948
G01 X27.5663 Y30.9325
G01 X27.6674 Y30.9803
G01 X27.7634 Y31.0378
G01 X27.8532 Y31.1045
G01 X27.9361 Y31.1796
G01 X28.0112 Y31.2625
G01 X28.0779 Y31.3523
G01 X28.1354 Y31.4483
G01 X28.1832 Y31.5494
G01 X28.2209 Y31.6548
G01 X28.2481 Y31.7633
G01 X28.2645 Y31.8739
G01 X28.2700 Y31.9857
G01 X28.2645 Y32.0974
G01 X28.2481 Y32.2081
G01 X28.2209 Y32.3166
G01 X28.1832 Y32.4219
G01 X28.1354 Y32.5231
G01 X28.0779 Y32.6190
G01 X28.0112 Y32.7089
G01 X27.9361 Y32.7918
G01 X27.8532 Y32.8669
G01 X27.7634 Y32.9336
G01 X27.6674 Y32.9911
G01 X27.5663 Y33.0389
G01 X27.4609 Y33.0766
G01 X27.3524 Y33.1038
G01 X27.2418 Y33.1202
G01 X27.1300 Y33.1257
G01 X27.0183 Y33.1202
G01 X26.9076 Y33.1038
G01 X26.7991 Y33.0766
G01 X26.6938 Y33.0389
G01 X26.5926 Y32.9911
G01 X26.4967 Y32.9336
G01 X26.4068 Y32.8669
G01 X26.3239 Y32.7918
G01 X26.2488 Y32.7089
G01 X26.1821 Y32.6190
G01 X26.1246 Y32.5231
G01 X26.0768 Y32.4219
G01 X26.0413 Y32.3231
G01 X26.0373 Y32.3100
G00 Z1.2500
G00 X25.9166 Y30.9215
G01 F50.00
G01 Z-0.0400
G01 F100.00
G01 X26.0659 Y30.7722
G01 X26.2333 Y30.6437
G01 X26.4162 Y30.5382
G01 X26.6112 Y30.4574
G01 X26.8152 Y30.4027
G01 X27.0244 Y30.3752
G01 X27.2356 Y30.3752
G01 X27.4449 Y30.4027
G01 X27.6488 Y30.4574
G01 X27.8438 Y30.5382
G01 X28.0267 Y30.6437
G01 X28.1942 Y30.7723
G01 X28.3434 Y30.9215
G01 X28.4720 Y31.0890
G01 X28.5775 Y31.2718
G01 X28.6583 Y31.4669
G01 X28.7130 Y31.6708
G01 X28.7405 Y31.8801
G01 X28.7405 Y32.0912
G01 X28.7130 Y32.3005
G01 X28.6583 Y32.5045
G01 X28.5775 Y32.6995
G01 X28.4720 Y32.8823
G01 X28.3434 Y33.0498
G01 X28.1942 Y33.1991
G01 X28.0267 Y33.3276
G01 X27.8714 Y33.4173
G01 X27.8597 Y33.4247
G01 X27.8512 Y33.4308
G01 X27.8432 Y33.4374
G01 X27.8358 Y33.4446
G01 X27.8289 Y33.4524
G01 X27.7801 Y33.5117
G01 X27.7742 Y33.5203
G01 X27.7706 Y33.5263
G01 X27.7658 Y33.5355
G01 X27.7617 Y33.5451
G01 X27.7574 Y33.5583
G01 X27.7544 Y33.5719
G01 X27.7451 Y33.6482
G01 X27.7442 Y33.6585
G01 X27.7441 Y33.6655
G01 X27.7445 Y33.6759
G01 X27.7452 Y33.6828
G01 X27.7470 Y33.6931
G01 X27.7495 Y33.7032
G01 X27.7515 Y33.7099
G01 X27.7553 Y33.7196
G01 X27.7887 Y33.7888
G01 X27.7936 Y33.7980
G01 X27.7992 Y33.8068
G01 X27.8032 Y33.8124
G01 X27.8076 Y33.8179
G01 X27.8146 Y33.8256
G01 X27.8196 Y33.8304
G01 X27.8275 Y33.8372
G01 X27.8388 Y33.8453
G01 X27.9043 Y33.8852
G01 X27.9131 Y33.8899
G01 X27.9222 Y33.8940
G01 X27.9380 Y33.8992
G01 X28.0632 Y33.9328
G01 X28.2583 Y34.0135
G01 X28.4411 Y34.1191
G01 X28.6086 Y34.2476
G01 X28.7579 Y34.3969
G01 X28.8864 Y34.5644
G01 X28.9919 Y34.7472
G01 X29.0727 Y34.9423
G01 X29.1274 Y35.1462
G01 X29.1549 Y35.3555
G01 X29.1549 Y35.5666
G01 X29.1274 Y35.7759
G01 X29.0727 Y35.9799
G01 X28.9919 Y36.1749
G01 X28.8864 Y36.3577
G01 X28.7579 Y36.5252
G01 X28.6086 Y36.6745
G01 X28.4411 Y36.8030
G01 X28.2583 Y36.9086
G01 X28.0632 Y36.9894
G01 X27.8593 Y37.0440
G01 X27.6500 Y37.0716
G01 X27.4389 Y37.0716
G01 X27.2296 Y37.0440
G01 X27.0256 Y36.9894
G01 X26.8306 Y36.9086
G01 X26.6478 Y36.8030
G01 X26.4803 Y36.6745
G01 X26.3310 Y36.5252
G01 X26.2025 Y36.3577
G01 X26.0969 Y36.1749
G01 X26.0161 Y35.9799
G01 X25.9615 Y35.7759
G01 X25.9339 Y35.5666
G01 X25.9339 Y35.3555
G01 X25.9615 Y35.1462
G01 X26.0161 Y34.9423
G01 X26.0969 Y34.7472
G01 X26.2025 Y34.5644
G01 X26.3310 Y34.3969
G01 X26.4803 Y34.2476
G01 X26.6478 Y34.1191
G01 X26.8044 Y34.0286
G01 X26.8176 Y34.0201
G01 X26.8259 Y34.0138
G01 X26.8362 Y34.0046
G01 X26.8433 Y33.9970
G01 X26.8943 Y33.9350
G01 X26.9002 Y33.9264
G01 X26.9038 Y33.9205
G01 X26.9086 Y33.9112
G01 X26.9127 Y33.9016
G01 X26.9161 Y33.8918
G01 X26.9180 Y33.8851
G01 X26.9206 Y33.8714
G01 X26.9297 Y33.7951
G01 X26.9302 Y33.7882
G01 X26.9303 Y33.7778
G01 X26.9296 Y33.7674
G01 X26.9275 Y33.7536
G01 X26.9250 Y33.7435
G01 X26.9217 Y33.7336
G01 X26.9163 Y33.7208
G01 X26.8842 Y33.6548
G01 X26.8809 Y33.6487
G01 X26.8753 Y33.6399
G01 X26.8691 Y33.6316
G01 X26.8646 Y33.6262
G01 X26.8574 Y33.6187
G01 X26.8523 Y33.6140
G01 X26.8442 Y33.6074
G01 X26.8385 Y33.6033
G01 X26.7702 Y33.5615
G01 X26.7614 Y33.5568
G01 X26.7522 Y33.5528
G01 X26.7364 Y33.5475
G01 X26.6112 Y33.5140
G01 X26.4162 Y33.4332
G01 X26.2333 Y33.3276
G01 X26.0659 Y33.1991
G01 X25.9166 Y33.0498
G01 X25.7881 Y32.8824
G01 X25.6825 Y32.6995
G01 X25.6017 Y32.5045
G01 X25.5471 Y32.3005
G01 X25.5195 Y32.0912
G01 X25.5195 Y31.8801
G01 X25.5471 Y31.6708
G01 X25.6017 Y31.4669
G01 X25.6825 Y31.2718
G01 X25.7881 Y31.0890
G01 X25.9166 Y30.9215
G00 Z1.2500
G00 X41.9762 Y35.3655
G01 F50.00
G01 Z-0.0400
G01 F100.00
G01 X42.1600 Y35.2718
G01 X42.3562 Y35.2081
G01 X42.5599 Y35.1758
G01 X42.7662 Y35.1758
G01 X42.9700 Y35.2081
G01 X43.1661 Y35.2718
G01 X43.3499 Y35.3655
G01 X43.5168 Y35.4867
G01 X43.6627 Y35.6326
G01 X43.7839 Y35.7994
G01 X43.8776 Y35.9832
G01 X43.9413 Y36.1794
G01 X43.9736 Y36.3832
G01 X43.9736 Y36.5894
G01 X43.9413 Y36.7932
G01 X43.8776 Y36.9894
G01 X43.7839 Y37.1731
G01 X43.6627 Y37.3400
G01 X43.5168 Y37.4859
G01 X43.3499 Y37.6071
G01 X43.1661 Y37.7008
G01 X42.9700 Y37.7645
G01 X42.7662 Y37.7968
G01 X42.5599 Y37.7968
G01 X42.3562 Y37.7645
G01 X42.1600 Y37.7008
G01 X41.9762 Y37.6071
G01 X41.8094 Y37.4859
G01 X41.6635 Y37.3400
G01 X41.5422 Y37.1731
G01 X41.4486 Y36.9894
G01 X41.3849 Y36.7932
G01 X41.3526 Y36.5894
G01 X41.3526 Y36.3832
G01 X41.3849 Y36.1794
G01 X41.4486 Y35.9832
G01 X41.5422 Y35.7994
G01 X41.6635 Y35.6326
G01 X41.8093 Y35.4867
G01 X41.9762 Y35.3655
G00 Z1.2500
G00 X41.8574 Y36.7235
G01 F50.00
G01 Z-0.0400
G01 F100.00
G01 X41.8392 Y36.6502
G01 X41.8271 Y36.5686
G01 X41.8231 Y36.4863
G01 X41.8271 Y36.4040
G01 X41.8392 Y36.3224
G01 X41.8593 Y36.2425
G01 X41.8870 Y36.1648
G01 X41.9223 Y36.0903
G01 X41.9646 Y36.0196
G01 X42.0138 Y35.9534
G01 X42.0691 Y35.8923
G01 X42.1302 Y35.8370
G01 X42.1964 Y35.7879
G01 X42.2671 Y35.7455
G01 X42.3416 Y35.7102
G01 X42.4192 Y35.6825
G01 X42.4992 Y35.6624
G01 X42.5807 Y35.6503
G01 X42.6631 Y35.6463
G01 X42.7454 Y35.6503
G01 X42.8270 Y35.6624
G01 X42.9069 Y35.6825
G01 X42.9845 Y35.7102
G01 X43.0591 Y35.7455
G01 X43.1298 Y35.7879
G01 X43.1960 Y35.8370
G01 X43.2571 Y35.8923
G01 X43.3124 Y35.9534
G01 X43.3615 Y36.0196
G01 X43.4039 Y36.0903
G01 X43.4391 Y36.1648
G01 X43.4669 Y36.2425
G01 X43.4869 Y36.3224
G01 X43.4990 Y36.4040
G01 X43.5031 Y36.4863
G01 X43.4990 Y36.5686
G01 X43.4869 Y36.6502
G01 X43.4669 Y36.7301
G01 X43.4391 Y36.8077
G01 X43.4039 Y36.8823
G01 X43.3615 Y36.9530
G01 X43.3124 Y37.0192
G01 X43.2571 Y37.0803
G01 X43.1960 Y37.1356
G01 X43.1298 Y37.1847
G01 X43.0591 Y37.2271
G01 X42.9845 Y37.2624
G01 X42.9069 Y37.2901
G01 X42.8270 Y37.3102
G01 X42.7454 Y37.3223
G01 X42.6631 Y37.3263
G01 X42.5807 Y37.3223
G01 X42.4992 Y37.3102
G01 X42.4192 Y37.2901
G01 X42.3416 Y37.2624
G01 X42.2671 Y37.2271
G01 X42.1964 Y37.1847
G01 X42.1302 Y37.1356
G01 X42.0691 Y37.0803
G01 X42.0138 Y37.0192
G01 X41.9646 Y36.9530
G01 X41.9223 Y36.8823
G01 X41.8870 Y36.8077
G01 X41.8614 Y36.7367
G01 X41.8574 Y36.7235
G00 Z1.2500
G00 X49.1661 Y41.4406
G01 F50.00
G01 Z-0.0400
G01 F100.00
G01 X49.2466 Y41.4324
G01 X51.8823 Y41.4324
G01 X51.9627 Y41.4406
G01 X52.0992 Y41.4858
G01 X52.2207 Y41.5607
G01 X52.3216 Y41.6617
G01 X52.3965 Y41.7831
G01 X52.4417 Y41.9196
G01 X52.4499 Y42.0000
G01 X52.4499 Y44.6358
G01 X52.4417 Y44.7162
G01 X52.3965 Y44.8526
G01 X52.3216 Y44.9741
G01 X52.2207 Y45.0750
G01 X52.0992 Y45.1500
G01 X51.9627 Y45.1952
G01 X51.8823 Y45.2034
G01 X49.2466 Y45.2034
G01 X49.1661 Y45.1952
G01 X49.0297 Y45.1500
G01 X48.9082 Y45.0750
G01 X48.8073 Y44.9741
G01 X48.7324 Y44.8526
G01 X48.6871 Y44.7162
G01 X48.6789 Y44.6358
G01 X48.6789 Y42.0000
G01 X48.6871 Y41.9196
G01 X48.7324 Y41.7831
G01 X48.8073 Y41.6616
G01 X48.9082 Y41.5607
G01 X49.0297 Y41.4858
G01 X49.1661 Y41.4406
G00 Z1.2500
G00 X51.8532 Y44.7322
G01 F50.00
G01 Z-0.0400
G01 F100.00
G01 X51.8394 Y44.7329
G01 X49.2860 Y44.7328
G01 X49.2723 Y44.7318
G01 X49.2588 Y44.7295
G01 X49.2455 Y44.7258
G01 X49.2327 Y44.7209
G01 X49.2204 Y44.7147
G01 X49.2088 Y44.7073
G01 X49.1980 Y44.6989
G01 X49.1880 Y44.6894
G01 X49.1791 Y44.6790
G01 X49.1712 Y44.6678
G01 X49.1644 Y44.6558
G01 X49.1601 Y44.6465
G01 X49.1555 Y44.6335
G01 X49.1521 Y44.6202
G01 X49.1501 Y44.6066
G01 X49.1495 Y44.5963
G01 X49.1494 Y42.0429
G01 X49.1501 Y42.0292
G01 X49.1521 Y42.0156
G01 X49.1555 Y42.0022
G01 X49.1601 Y41.9893
G01 X49.1660 Y41.9769
G01 X49.1730 Y41.9651
G01 X49.1791 Y41.9568
G01 X49.1834 Y41.9514
G01 X49.1929 Y41.9415
G01 X49.2033 Y41.9325
G01 X49.2145 Y41.9246
G01 X49.2265 Y41.9178
G01 X49.2359 Y41.9135
G01 X49.2488 Y41.9089
G01 X49.2588 Y41.9063
G01 X49.2723 Y41.9039
G01 X49.2860 Y41.9029
G01 X51.8394 Y41.9029
G01 X51.8532 Y41.9036
G01 X51.8634 Y41.9049
G01 X51.8701 Y41.9063
G01 X51.8833 Y41.9100
G01 X51.8962 Y41.9149
G01 X51.9084 Y41.9211
G01 X51.9200 Y41.9284
G01 X51.9309 Y41.9369
G01 X51.9408 Y41.9463
G01 X51.9477 Y41.9541
G01 X51.9558 Y41.9651
G01 X51.9629 Y41.9769
G01 X51.9688 Y41.9893
G01 X51.9724 Y41.9990
G01 X51.9760 Y42.0122
G01 X51.9784 Y42.0257
G01 X51.9794 Y42.0394
G01 X51.9794 Y44.5963
G01 X51.9784 Y44.6100
G01 X51.9760 Y44.6236
G01 X51.9734 Y44.6335
G01 X51.9688 Y44.6465
G01 X51.9629 Y44.6589
G01 X51.9577 Y44.6678
G01 X51.9519 Y44.6763
G01 X51.9432 Y44.6869
G01 X51.9334 Y44.6966
G01 X51.9256 Y44.7033
G01 X51.9143 Y44.7112
G01 X51.9024 Y44.7179
G01 X51.8898 Y44.7235
G01 X51.8768 Y44.7278
G01 X51.8667 Y44.7302
G01 X51.8532 Y44.7322
G00 Z1.2500
G00 X59.7071 Y40.5708
G01 F50.00
G01 Z-0.0400
G01 F100.00
G01 X59.6876 Y40.4923
G01 X59.6747 Y40.4055
G01 X59.6704 Y40.3179
G01 X59.6747 Y40.2303
G01 X59.6876 Y40.1435
G01 X59.7089 Y40.0584
G01 X59.7385 Y39.9758
G01 X59.7760 Y39.8965
G01 X59.8211 Y39.8212
G01 X59.8734 Y39.7507
G01 X59.9323 Y39.6857
G01 X59.9973 Y39.6268
G01 X60.0678 Y39.5746
G01 X60.1430 Y39.5294
G01 X60.2223 Y39.4919
G01 X60.3049 Y39.4624
G01 X60.3900 Y39.4411
G01 X60.4768 Y39.4282
G01 X60.5644 Y39.4239
G01 X60.6521 Y39.4282
G01 X60.7388 Y39.4411
G01 X60.8239 Y39.4624
G01 X60.9065 Y39.4919
G01 X60.9859 Y39.5294
G01 X61.0611 Y39.5746
G01 X61.1316 Y39.6268
G01 X61.1966 Y39.6857
G01 X61.2555 Y39.7507
G01 X61.3078 Y39.8212
G01 X61.3529 Y39.8965
G01 X61.3904 Y39.9758
G01 X61.4199 Y40.0584
G01 X61.4413 Y40.1435
G01 X61.4541 Y40.2303
G01 X61.4584 Y40.3179
G01 X61.4541 Y40.4055
G01 X61.4413 Y40.4923
G01 X61.4199 Y40.5774
G01 X61.3904 Y40.6600
G01 X61.3529 Y40.7393
G01 X61.3078 Y40.8146
G01 X61.2555 Y40.8850
G01 X61.1966 Y40.9500
G01 X61.1316 Y41.0090
G01 X61.0611 Y41.0612
G01 X60.9859 Y41.1063
G01 X60.9065 Y41.1438
G01 X60.8239 Y41.1734
G01 X60.7388 Y41.1947
G01 X60.6521 Y41.2076
G01 X60.5644 Y41.2119
G01 X60.4768 Y41.2076
G01 X60.3900 Y41.1947
G01 X60.3049 Y41.1734
G01 X60.2223 Y41.1438
G01 X60.1430 Y41.1063
G01 X60.0678 Y41.0612
G01 X59.9973 Y41.0090
G01 X59.9323 Y40.9500
G01 X59.8734 Y40.8850
G01 X59.8211 Y40.8146
G01 X59.7760 Y40.7393
G01 X59.7385 Y40.6600
G01 X59.7111 Y40.5839
G01 X59.7071 Y40.5708
G00 Z1.2500
G00 X59.6755 Y39.2771
G01 F50.00
G01 Z-0.0400
G01 F100.00
G01 X59.8493 Y39.1509
G01 X60.0406 Y39.0533
G01 X60.2449 Y38.9870
G01 X60.3900 Y38.9640
G01 X60.4570 Y38.9534
G01 X60.6718 Y38.9534
G01 X60.8840 Y38.9870
G01 X61.0882 Y39.0533
G01 X61.2796 Y39.1509
G01 X61.4533 Y39.2771
G01 X61.6052 Y39.4290
G01 X61.7315 Y39.6027
G01 X61.8290 Y39.7941
G01 X61.8953 Y39.9984
G01 X61.9289 Y40.2105
G01 X61.9289 Y40.4253
G01 X61.8953 Y40.6374
G01 X61.8290 Y40.8417
G01 X61.7315 Y41.0330
G01 X61.6052 Y41.2068
G01 X61.4533 Y41.3587
G01 X61.2796 Y41.4849
G01 X61.0882 Y41.5824
G01 X60.8840 Y41.6488
G01 X60.6718 Y41.6824
G01 X60.4570 Y41.6824
G01 X60.2449 Y41.6488
G01 X60.0406 Y41.5824
G01 X59.8493 Y41.4849
G01 X59.6755 Y41.3587
G01 X59.5236 Y41.2068
G01 X59.3974 Y41.0330
G01 X59.2999 Y40.8417
G01 X59.2335 Y40.6374
G01 X59.1999 Y40.4253
G01 X59.1999 Y40.2105
G01 X59.2335 Y39.9984
G01 X59.2999 Y39.7941
G01 X59.3974 Y39.6027
G01 X59.5237 Y39.4290
G01 X59.6755 Y39.2771
G00 Z1.2500
G00 X59.6755 Y50.2771
G01 F50.00
G01 Z-0.0400
G01 F100.00
G01 X59.8493 Y50.1509
G01 X60.0406 Y50.0533
G01 X60.2449 Y49.9870
G01 X60.3900 Y49.9640
G01 X60.4570 Y49.9534
G01 X60.6718 Y49.9534
G01 X60.8840 Y49.9870
G01 X61.0882 Y50.0533
G01 X61.2796 Y50.1509
G01 X61.4533 Y50.2771
G01 X61.6052 Y50.4290
G01 X61.7315 Y50.6027
G01 X61.8290 Y50.7941
G01 X61.8953 Y50.9984
G01 X61.9289 Y51.2105
G01 X61.9289 Y51.4253
G01 X61.8953 Y51.6374
G01 X61.8290 Y51.8417
G01 X61.7315 Y52.0330
G01 X61.6052 Y52.2068
G01 X61.4533 Y52.3587
G01 X61.2796 Y52.4849
G01 X61.0882 Y52.5824
G01 X60.8840 Y52.6488
G01 X60.6718 Y52.6824
G01 X60.4570 Y52.6824
G01 X60.2449 Y52.6488
G01 X60.0406 Y52.5824
G01 X59.8493 Y52.4849
G01 X59.6755 Y52.3587
G01 X59.5236 Y52.2068
G01 X59.3974 Y52.0330
G01 X59.2999 Y51.8417
G01 X59.2335 Y51.6374
G01 X59.1999 Y51.4253
G01 X59.1999 Y51.2105
G01 X59.2335 Y50.9984
G01 X59.2999 Y50.7941
G01 X59.3974 Y50.6027
G01 X59.5237 Y50.4290
G01 X59.6755 Y50.2771
G00 Z1.2500
G00 X59.7071 Y51.5708
G01 F50.00
G01 Z-0.0400
G01 F100.00
G01 X59.6876 Y51.4923
G01 X59.6747 Y51.4055
G01 X59.6704 Y51.3179
G01 X59.6747 Y51.2303
G01 X59.6876 Y51.1435
G01 X59.7089 Y51.0584
G01 X59.7385 Y50.9758
G01 X59.7760 Y50.8965
G01 X59.8211 Y50.8212
G01 X59.8734 Y50.7507
G01 X59.9323 Y50.6857
G01 X59.9973 Y50.6268
G01 X60.0678 Y50.5746
G01 X60.1430 Y50.5294
G01 X60.2223 Y50.4919
G01 X60.3049 Y50.4624
G01 X60.3900 Y50.4411
G01 X60.4768 Y50.4282
G01 X60.5644 Y50.4239
G01 X60.6521 Y50.4282
G01 X60.7388 Y50.4411
G01 X60.8239 Y50.4624
G01 X60.9065 Y50.4919
G01 X60.9859 Y50.5294
G01 X61.0611 Y50.5746
G01 X61.1316 Y50.6268
G01 X61.1966 Y50.6857
G01 X61.2555 Y50.7507
G01 X61.3078 Y50.8212
G01 X61.3529 Y50.8965
G01 X61.3904 Y50.9758
G01 X61.4199 Y51.0584
G01 X61.4413 Y51.1435
G01 X61.4541 Y51.2303
G01 X61.4584 Y51.3179
G01 X61.4541 Y51.4055
G01 X61.4413 Y51.4923
G01 X61.4199 Y51.5774
G01 X61.3904 Y51.6600
G01 X61.3529 Y51.7393
G01 X61.3078 Y51.8146
G01 X61.2555 Y51.8850
G01 X61.1966 Y51.9500
G01 X61.1316 Y52.0090
G01 X61.0611 Y52.0612
G01 X60.9859 Y52.1063
G01 X60.9065 Y52.1438
G01 X60.8239 Y52.1734
G01 X60.7388 Y52.1947
G01 X60.6521 Y52.2076
G01 X60.5644 Y52.2119
G01 X60.4768 Y52.2076
G01 X60.3900 Y52.1947
G01 X60.3049 Y52.1734
G01 X60.2223 Y52.1438
G01 X60.1430 Y52.1063
G01 X60.0678 Y52.0612
G01 X59.9973 Y52.0090
G01 X59.9323 Y51.9500
G01 X59.8734 Y51.8850
G01 X59.8211 Y51.8146
G01 X59.7760 Y51.7393
G01 X59.7385 Y51.6600
G01 X59.7111 Y51.5839
G01 X59.7071 Y51.5708
G00 Z1.2500
G00 X64.5702 Y59.9286
G01 F50.00
G01 Z-0.0400
G01 F100.00
G01 X64.5485 Y59.8410
G01 X64.5342 Y59.7449
G01 X64.5294 Y59.6479
G01 X64.5342 Y59.5508
G01 X64.5485 Y59.4547
G01 X64.5721 Y59.3605
G01 X64.6048 Y59.2690
G01 X64.6463 Y59.1812
G01 X64.6963 Y59.0979
G01 X64.7541 Y59.0198
G01 X64.8194 Y58.9478
G01 X64.8914 Y58.8826
G01 X64.9694 Y58.8247
G01 X65.0527 Y58.7748
G01 X65.1406 Y58.7332
G01 X65.2288 Y58.7016
G01 X65.2387 Y58.6987
G01 X65.3263 Y58.6769
G01 X65.4156 Y58.6635
G01 X65.4258 Y58.6624
G01 X65.5160 Y58.6579
G01 X65.7729 Y58.6579
G01 X65.8665 Y58.6627
G01 X65.9558 Y58.6757
G01 X65.9659 Y58.6776
G01 X66.0502 Y58.6987
G01 X66.0601 Y58.7016
G01 X66.1483 Y58.7332
G01 X66.2000 Y58.7575
G01 X67.8729 Y58.7576
G01 X67.9567 Y58.7618
G01 X68.0364 Y58.7734
G01 X68.0498 Y58.7761
G01 X68.1213 Y58.7940
G01 X68.1344 Y58.7980
G01 X68.2038 Y58.8228
G01 X68.2164 Y58.8281
G01 X68.2891 Y58.8626
G01 X68.3583 Y58.9039
G01 X68.3697 Y58.9115
G01 X68.4343 Y58.9596
G01 X68.4966 Y59.0159
G01 X72.0886 Y62.6079
G01 X73.2544 Y62.6079
G01 X73.2647 Y62.6083
G01 X73.2750 Y62.6094
G01 X73.2851 Y62.6113
G01 X73.2951 Y62.6139
G01 X73.3048 Y62.6173
G01 X73.3143 Y62.6213
G01 X73.3234 Y62.6261
G01 X73.3322 Y62.6315
G01 X73.3432 Y62.6397
G01 X73.3510 Y62.6465
G01 X73.3582 Y62.6539
G01 X73.3648 Y62.6618
G01 X73.3708 Y62.6701
G01 X73.3762 Y62.6789
G01 X73.3810 Y62.6880
G01 X73.3850 Y62.6975
G01 X73.3885 Y62.7075
G01 X90.9356 Y62.7075
G01 X91.7335 Y61.9097
G01 X91.7423 Y61.8909
G01 X91.7471 Y61.8818
G01 X91.7910 Y61.8085
G01 X91.7968 Y61.8000
G01 X91.8457 Y61.7342
G01 X91.8523 Y61.7264
G01 X91.9097 Y61.6632
G01 X91.9781 Y61.6013
G01 X92.0522 Y61.5463
G01 X92.1313 Y61.4989
G01 X92.2147 Y61.4594
G01 X92.2950 Y61.4305
G01 X92.3082 Y61.4265
G01 X92.3843 Y61.4075
G01 X92.3978 Y61.4048
G01 X92.4823 Y61.3924
G01 X92.5744 Y61.3879
G01 X92.6666 Y61.3924
G01 X92.7578 Y61.4059
G01 X92.8473 Y61.4284
G01 X92.9342 Y61.4594
G01 X93.0175 Y61.4989
G01 X93.0967 Y61.5463
G01 X93.1708 Y61.6013
G01 X93.2341 Y61.6585
G01 X93.2438 Y61.6682
G01 X93.2966 Y61.7264
G01 X93.3053 Y61.7370
G01 X93.3560 Y61.8056
G01 X93.4000 Y61.8788
G01 X93.4065 Y61.8909
G01 X93.4429 Y61.9682
G01 X93.4718 Y62.0485
G01 X93.4758 Y62.0616
G01 X93.4964 Y62.1445
G01 X93.5099 Y62.2357
G01 X93.5144 Y62.3279
G01 X93.5102 Y62.4166
G01 X93.5091 Y62.4268
G01 X93.4964 Y62.5113
G01 X93.4758 Y62.5941
G01 X93.4718 Y62.6073
G01 X93.4453 Y62.6812
G01 X93.4401 Y62.6939
G01 X93.4034 Y62.7710
G01 X93.3560 Y62.8501
G01 X93.3011 Y62.9242
G01 X93.2391 Y62.9926
G01 X93.1708 Y63.0545
G01 X93.0995 Y63.1075
G01 X93.0909 Y63.1131
G01 X93.0206 Y63.1552
G01 X93.0114 Y63.1600
G01 X92.9926 Y63.1689
G01 X91.9340 Y64.2275
G01 X91.8693 Y64.2862
G01 X91.7991 Y64.3382
G01 X91.7301 Y64.3797
G01 X91.7180 Y64.3862
G01 X91.6452 Y64.4205
G01 X91.5694 Y64.4478
G01 X91.5563 Y64.4518
G01 X91.4781 Y64.4712
G01 X91.3917 Y64.4840
G01 X91.3044 Y64.4883
G01 X73.3885 Y64.4883
G01 X73.3850 Y64.4983
G01 X73.3810 Y64.5077
G01 X73.3762 Y64.5169
G01 X73.3708 Y64.5257
G01 X73.3648 Y64.5340
G01 X73.3582 Y64.5419
G01 X73.3510 Y64.5493
G01 X73.3406 Y64.5583
G01 X73.3322 Y64.5643
G01 X73.3234 Y64.5697
G01 X73.3143 Y64.5744
G01 X73.3048 Y64.5785
G01 X73.2951 Y64.5819
G01 X73.2817 Y64.5852
G01 X73.2716 Y64.5868
G01 X73.2613 Y64.5877
G01 X71.5544 Y64.5879
G01 X71.5441 Y64.5875
G01 X71.5339 Y64.5864
G01 X71.5271 Y64.5852
G01 X71.5204 Y64.5837
G01 X71.5105 Y64.5808
G01 X71.5009 Y64.5772
G01 X71.4946 Y64.5744
G01 X71.4825 Y64.5680
G01 X71.4738 Y64.5623
G01 X71.4683 Y64.5583
G01 X71.4579 Y64.5493
G01 X71.4530 Y64.5444
G01 X71.4462 Y64.5367
G01 X71.4380 Y64.5257
G01 X71.4310 Y64.5139
G01 X71.4251 Y64.5015
G01 X71.4226 Y64.4950
G01 X71.4195 Y64.4852
G01 X71.4165 Y64.4718
G01 X71.4151 Y64.4616
G01 X71.4145 Y64.4513
G01 X71.4144 Y64.3903
G01 X71.4028 Y64.3847
G01 X71.3937 Y64.3797
G01 X71.3306 Y64.3419
G01 X71.3191 Y64.3342
G01 X71.2546 Y64.2862
G01 X71.1898 Y64.2275
G01 X67.5006 Y60.5383
G01 X66.2000 Y60.5383
G01 X66.1546 Y60.5597
G01 X66.1451 Y60.5638
G01 X66.0633 Y60.5931
G01 X66.0535 Y60.5962
G01 X65.9626 Y60.6189
G01 X65.8665 Y60.6331
G01 X65.7729 Y60.6378
G01 X65.5160 Y60.6378
G01 X65.4224 Y60.6331
G01 X65.3263 Y60.6189
G01 X65.2387 Y60.5971
G01 X65.2255 Y60.5931
G01 X65.1406 Y60.5625
G01 X65.0527 Y60.5210
G01 X64.9752 Y60.4747
G01 X64.9638 Y60.4671
G01 X64.8914 Y60.4132
G01 X64.8244 Y60.3527
G01 X64.8147 Y60.3429
G01 X64.7541 Y60.2759
G01 X64.7002 Y60.2035
G01 X64.6926 Y60.1921
G01 X64.6464 Y60.1146
G01 X64.6076 Y60.0330
G01 X64.6023 Y60.0203
G01 X64.5742 Y59.9418
G01 X64.5702 Y59.9286
G00 Z1.2500
G00 X64.5500 Y62.3477
G01 F50.00
G01 Z-0.0400
G01 F100.00
G01 X64.5473 Y62.3343
G01 X64.5350 Y62.2517
G01 X64.5337 Y62.2381
G01 X64.5294 Y62.1479
G01 X64.5342 Y62.0508
G01 X64.5485 Y61.9547
G01 X64.5702 Y61.8671
G01 X64.5742 Y61.8540
G01 X64.6048 Y61.7690
G01 X64.6463 Y61.6812
G01 X64.6926 Y61.6037
G01 X64.7002 Y61.5923
G01 X64.7541 Y61.5198
G01 X64.8147 Y61.4528
G01 X64.8244 Y61.4431
G01 X64.8914 Y61.3826
G01 X64.9666 Y61.3267
G01 X64.9752 Y61.3211
G01 X65.0527 Y61.2748
G01 X65.1343 Y61.2360
G01 X65.1470 Y61.2308
G01 X65.2320 Y61.2005
G01 X65.3196 Y61.1784
G01 X65.3331 Y61.1757
G01 X65.4156 Y61.1635
G01 X65.4258 Y61.1624
G01 X65.5160 Y61.1579
G01 X65.7694 Y61.1579
G01 X65.8665 Y61.1627
G01 X65.9558 Y61.1757
G01 X65.9693 Y61.1784
G01 X66.0568 Y61.2005
G01 X66.1451 Y61.2320
G01 X66.1546 Y61.2360
G01 X66.2361 Y61.2748
G01 X66.3136 Y61.3211
G01 X66.3251 Y61.3287
G01 X66.3975 Y61.3826
G01 X66.4645 Y61.4431
G01 X66.4742 Y61.4528
G01 X66.5302 Y61.5146
G01 X66.5369 Y61.5225
G01 X66.5886 Y61.5923
G01 X66.5963 Y61.6037
G01 X66.6425 Y61.6811
G01 X66.6827 Y61.7659
G01 X66.6865 Y61.7754
G01 X66.7146 Y61.8540
G01 X66.7178 Y61.8638
G01 X66.7397 Y61.9514
G01 X66.7416 Y61.9615
G01 X66.7458 Y61.9901
G01 X71.0192 Y66.2635
G01 X77.5824 Y66.2635
G01 X77.6697 Y66.2678
G01 X77.7494 Y66.2794
G01 X77.7595 Y66.2813
G01 X77.8343 Y66.3000
G01 X77.8474 Y66.3040
G01 X77.9232 Y66.3313
G01 X77.9960 Y66.3656
G01 X78.0081 Y66.3720
G01 X78.0771 Y66.4136
G01 X78.1419 Y66.4614
G01 X78.1525 Y66.4701
G01 X78.2120 Y66.5243
G01 X79.9900 Y68.3023
G01 X80.0487 Y68.3670
G01 X80.1007 Y68.4372
G01 X80.1457 Y68.5122
G01 X80.1830 Y68.5912
G01 X80.2125 Y68.6734
G01 X80.2337 Y68.7582
G01 X80.2465 Y68.8446
G01 X80.2508 Y68.9284
G01 X80.2508 Y75.9169
G01 X80.2468 Y76.0007
G01 X80.2457 Y76.0110
G01 X80.2349 Y76.0838
G01 X80.2322 Y76.0973
G01 X80.2125 Y76.1753
G01 X80.1830 Y76.2576
G01 X80.1488 Y76.3305
G01 X80.1423 Y76.3426
G01 X80.1007 Y76.4115
G01 X80.0508 Y76.4790
G01 X80.0442 Y76.4869
G01 X79.9900 Y76.5465
G01 X79.2240 Y77.3125
G01 X91.0626 Y77.3125
G01 X91.8605 Y76.5147
G01 X91.8693 Y76.4959
G01 X91.8741 Y76.4868
G01 X91.9180 Y76.4135
G01 X91.9238 Y76.4050
G01 X91.9727 Y76.3392
G01 X91.9793 Y76.3314
G01 X92.0367 Y76.2682
G01 X92.1051 Y76.2063
G01 X92.1792 Y76.1513
G01 X92.2583 Y76.1039
G01 X92.3417 Y76.0644
G01 X92.4220 Y76.0355
G01 X92.4352 Y76.0315
G01 X92.5113 Y76.0125
G01 X92.5248 Y76.0098
G01 X92.6093 Y75.9974
G01 X92.7014 Y75.9929
G01 X92.7936 Y75.9974
G01 X92.8780 Y76.0098
G01 X92.8915 Y76.0125
G01 X92.9743 Y76.0334
G01 X93.0547 Y76.0620
G01 X93.0674 Y76.0672
G01 X93.1445 Y76.1039
G01 X93.2179 Y76.1476
G01 X93.2293 Y76.1553
G01 X93.2978 Y76.2063
G01 X93.3611 Y76.2635
G01 X93.3708 Y76.2732
G01 X93.4281 Y76.3366
G01 X93.4791 Y76.4050
G01 X93.4867 Y76.4165
G01 X93.5304 Y76.4898
G01 X93.5671 Y76.5669
G01 X93.5723 Y76.5796
G01 X93.6010 Y76.6600
G01 X93.6219 Y76.7428
G01 X93.6245 Y76.7563
G01 X93.6369 Y76.8407
G01 X93.6413 Y76.9260
G01 X93.6413 Y76.9398
G01 X93.6369 Y77.0250
G01 X93.6245 Y77.1095
G01 X93.6219 Y77.1230
G01 X93.6010 Y77.2058
G01 X93.5723 Y77.2862
G01 X93.5671 Y77.2989
G01 X93.5320 Y77.3729
G01 X93.5270 Y77.3820
G01 X93.4867 Y77.4493
G01 X93.4791 Y77.4607
G01 X93.4281 Y77.5292
G01 X93.3661 Y77.5976
G01 X93.2978 Y77.6595
G01 X93.2265 Y77.7125
G01 X93.2179 Y77.7181
G01 X93.1476 Y77.7602
G01 X93.1384 Y77.7650
G01 X93.1196 Y77.7739
G01 X92.0610 Y78.8325
G01 X91.9989 Y78.8889
G01 X91.9909 Y78.8954
G01 X91.9317 Y78.9392
G01 X91.9203 Y78.9469
G01 X91.8511 Y78.9881
G01 X91.7722 Y79.0255
G01 X91.6899 Y79.0549
G01 X91.6118 Y79.0746
G01 X91.5984 Y79.0773
G01 X91.5255 Y79.0881
G01 X91.5153 Y79.0893
G01 X91.4314 Y79.0933
G01 X73.5155 Y79.0933
G01 X73.5120 Y79.1033
G01 X73.5080 Y79.1127
G01 X73.5032 Y79.1219
G01 X73.4978 Y79.1307
G01 X73.4918 Y79.1390
G01 X73.4852 Y79.1469
G01 X73.4780 Y79.1543
G01 X73.4676 Y79.1633
G01 X73.4592 Y79.1693
G01 X73.4504 Y79.1747
G01 X73.4413 Y79.1794
G01 X73.4318 Y79.1835
G01 X73.4188 Y79.1878
G01 X73.4087 Y79.1902
G01 X73.3986 Y79.1918
G01 X73.3883 Y79.1927
G01 X71.6814 Y79.1929
G01 X71.6746 Y79.1927
G01 X71.6643 Y79.1918
G01 X71.6575 Y79.1908
G01 X71.6474 Y79.1887
G01 X71.6375 Y79.1858
G01 X71.6310 Y79.1835
G01 X71.6185 Y79.1779
G01 X71.6095 Y79.1730
G01 X71.6008 Y79.1673
G01 X71.5926 Y79.1611
G01 X71.5874 Y79.1566
G01 X71.5800 Y79.1494
G01 X71.5732 Y79.1417
G01 X71.5670 Y79.1335
G01 X71.5613 Y79.1249
G01 X71.5564 Y79.1158
G01 X71.5521 Y79.1065
G01 X71.5485 Y79.0968
G01 X71.5465 Y79.0902
G01 X71.5441 Y79.0802
G01 X71.5429 Y79.0734
G01 X71.5418 Y79.0632
G01 X71.5414 Y79.0529
G01 X71.5416 Y77.3460
G01 X71.5425 Y77.3357
G01 X71.5435 Y77.3289
G01 X71.5456 Y77.3189
G01 X71.5485 Y77.3090
G01 X71.5508 Y77.3025
G01 X71.5549 Y77.2930
G01 X71.5596 Y77.2839
G01 X71.5632 Y77.2780
G01 X71.5690 Y77.2695
G01 X71.5732 Y77.2641
G01 X71.5777 Y77.2589
G01 X71.5849 Y77.2515
G01 X71.5900 Y77.2469
G01 X71.5980 Y77.2404
G01 X71.6065 Y77.2346
G01 X71.6154 Y77.2294
G01 X71.6216 Y77.2263
G01 X71.6310 Y77.2223
G01 X71.6408 Y77.2189
G01 X71.6474 Y77.2171
G01 X71.6541 Y77.2156
G01 X71.6643 Y77.2139
G01 X71.6711 Y77.2133
G01 X71.6814 Y77.2129
G01 X73.3883 Y77.2131
G01 X73.3986 Y77.2139
G01 X73.4087 Y77.2156
G01 X73.4221 Y77.2189
G01 X73.4318 Y77.2223
G01 X73.4413 Y77.2263
G01 X73.4504 Y77.2311
G01 X73.4592 Y77.2365
G01 X73.4676 Y77.2425
G01 X73.4754 Y77.2492
G01 X73.4852 Y77.2589
G01 X73.4918 Y77.2668
G01 X73.4978 Y77.2751
G01 X73.5032 Y77.2839
G01 X73.5080 Y77.2930
G01 X73.5120 Y77.3025
G01 X73.5155 Y77.3125
G01 X76.7056 Y77.3125
G01 X78.4701 Y75.5481
G01 X78.4701 Y69.3007
G01 X77.2136 Y68.0443
G01 X70.6470 Y68.0442
G01 X70.5700 Y68.0405
G01 X70.5563 Y68.0391
G01 X70.4767 Y68.0272
G01 X70.3986 Y68.0078
G01 X70.3854 Y68.0038
G01 X70.3097 Y67.9765
G01 X70.2338 Y67.9407
G01 X70.2247 Y67.9357
G01 X70.1616 Y67.8979
G01 X70.1501 Y67.8902
G01 X70.0856 Y67.8422
G01 X70.0208 Y67.7835
G01 X65.3616 Y63.1243
G01 X65.3331 Y63.1200
G01 X65.3229 Y63.1181
G01 X65.2387 Y63.0971
G01 X65.2288 Y63.0942
G01 X65.1406 Y63.0625
G01 X65.0558 Y63.0226
G01 X65.0468 Y63.0176
G01 X64.9752 Y62.9747
G01 X64.9638 Y62.9671
G01 X64.8914 Y62.9132
G01 X64.8194 Y62.8479
G01 X64.7586 Y62.7811
G01 X64.7499 Y62.7705
G01 X64.6963 Y62.6979
G01 X64.6464 Y62.6146
G01 X64.6076 Y62.5330
G01 X64.6023 Y62.5203
G01 X64.5721 Y62.4353
G01 X64.5500 Y62.3477
G00 Z1.2500
G00 X71.4552 Y58.7986
G01 F50.00
G01 Z-0.0400
G01 F100.00
G01 X71.4335 Y58.7110
G01 X71.4192 Y58.6149
G01 X71.4144 Y58.5179
G01 X71.4192 Y58.4208
G01 X71.4335 Y58.3247
G01 X71.4571 Y58.2305
G01 X71.4898 Y58.1390
G01 X71.5313 Y58.0512
G01 X71.5813 Y57.9679
G01 X71.6391 Y57.8898
G01 X71.7044 Y57.8178
G01 X71.7764 Y57.7526
G01 X71.8544 Y57.6947
G01 X71.9377 Y57.6448
G01 X72.0256 Y57.6032
G01 X72.1170 Y57.5705
G01 X72.2113 Y57.5469
G01 X72.3074 Y57.5327
G01 X72.4044 Y57.5279
G01 X72.5015 Y57.5327
G01 X72.5976 Y57.5469
G01 X72.6918 Y57.5705
G01 X72.7833 Y57.6032
G01 X72.8711 Y57.6448
G01 X72.9544 Y57.6947
G01 X73.0325 Y57.7526
G01 X73.1045 Y57.8178
G01 X73.1697 Y57.8898
G01 X73.2276 Y57.9679
G01 X73.2775 Y58.0511
G01 X73.3191 Y58.1390
G01 X73.3518 Y58.2305
G01 X73.3754 Y58.3247
G01 X73.3897 Y58.4208
G01 X73.3944 Y58.5179
G01 X73.3897 Y58.6149
G01 X73.3754 Y58.7110
G01 X73.3518 Y58.8053
G01 X73.3191 Y58.8967
G01 X73.2775 Y58.9846
G01 X73.2276 Y59.0679
G01 X73.1697 Y59.1459
G01 X73.1045 Y59.2179
G01 X73.0325 Y59.2832
G01 X72.9544 Y59.3410
G01 X72.8712 Y59.3910
G01 X72.7833 Y59.4325
G01 X72.6918 Y59.4653
G01 X72.5976 Y59.4889
G01 X72.5015 Y59.5031
G01 X72.4044 Y59.5079
G01 X72.3074 Y59.5031
G01 X72.2113 Y59.4889
G01 X72.1170 Y59.4653
G01 X72.0256 Y59.4325
G01 X71.9377 Y59.3910
G01 X71.8544 Y59.3410
G01 X71.7764 Y59.2832
G01 X71.7044 Y59.2179
G01 X71.6391 Y59.1459
G01 X71.5813 Y59.0679
G01 X71.5314 Y58.9846
G01 X71.4898 Y58.8967
G01 X71.4592 Y58.8118
G01 X71.4552 Y58.7986
G00 Z1.2500
G00 X71.4350 Y56.1777
G01 F50.00
G01 Z-0.0400
G01 F100.00
G01 X71.4323 Y56.1643
G01 X71.4192 Y56.0749
G01 X71.4144 Y55.9779
G01 X71.4192 Y55.8808
G01 X71.4335 Y55.7847
G01 X71.4571 Y55.6905
G01 X71.4898 Y55.5990
G01 X71.5313 Y55.5112
G01 X71.5813 Y55.4279
G01 X71.6391 Y55.3498
G01 X71.7044 Y55.2778
G01 X71.7764 Y55.2126
G01 X71.8544 Y55.1547
G01 X71.9377 Y55.1048
G01 X72.0256 Y55.0632
G01 X72.1170 Y55.0305
G01 X72.2113 Y55.0069
G01 X72.3074 Y54.9927
G01 X72.4044 Y54.9879
G01 X72.5015 Y54.9927
G01 X72.5976 Y55.0069
G01 X72.6918 Y55.0305
G01 X72.7833 Y55.0632
G01 X72.8711 Y55.1048
G01 X72.9544 Y55.1547
G01 X73.0325 Y55.2126
G01 X73.1045 Y55.2778
G01 X73.1697 Y55.3498
G01 X73.2276 Y55.4279
G01 X73.2775 Y55.5111
G01 X73.3191 Y55.5990
G01 X73.3518 Y55.6905
G01 X73.3754 Y55.7847
G01 X73.3897 Y55.8808
G01 X73.3944 Y55.9779
G01 X73.3897 Y56.0749
G01 X73.3754 Y56.1710
G01 X73.3518 Y56.2653
G01 X73.3191 Y56.3567
G01 X73.2775 Y56.4446
G01 X73.2276 Y56.5279
G01 X73.1697 Y56.6059
G01 X73.1045 Y56.6779
G01 X73.0325 Y56.7432
G01 X72.9544 Y56.8010
G01 X72.8712 Y56.8510
G01 X72.7833 Y56.8925
G01 X72.6918 Y56.9253
G01 X72.5976 Y56.9489
G01 X72.5015 Y56.9631
G01 X72.4044 Y56.9679
G01 X72.3074 Y56.9631
G01 X72.2113 Y56.9489
G01 X72.1170 Y56.9253
G01 X72.0256 Y56.8925
G01 X71.9377 Y56.8510
G01 X71.8544 Y56.8010
G01 X71.7764 Y56.7432
G01 X71.7044 Y56.6779
G01 X71.6391 Y56.6059
G01 X71.5813 Y56.5279
G01 X71.5314 Y56.4446
G01 X71.4898 Y56.3567
G01 X71.4571 Y56.2653
G01 X71.4350 Y56.1777
G00 Z1.2500
G00 X71.4530 Y54.8639
G01 F50.00
G01 Z-0.0400
G01 F100.00
G01 X71.6390 Y54.7288
G01 X71.8438 Y54.6244
G01 X72.0624 Y54.5533
G01 X72.2895 Y54.5174
G01 X72.5194 Y54.5174
G01 X72.7464 Y54.5533
G01 X72.9651 Y54.6244
G01 X73.1699 Y54.7288
G01 X73.3559 Y54.8639
G01 X73.5184 Y55.0264
G01 X73.6536 Y55.2124
G01 X73.7579 Y55.4172
G01 X73.8290 Y55.6359
G01 X73.8649 Y55.8629
G01 X73.8649 Y56.0928
G01 X73.8290 Y56.3199
G01 X73.7579 Y56.5385
G01 X73.6536 Y56.7434
G01 X73.5184 Y56.9293
G01 X73.3842 Y57.0636
G01 X73.3755 Y57.0737
G01 X73.3678 Y57.0845
G01 X73.3357 Y57.1348
G01 X73.3323 Y57.1410
G01 X73.3279 Y57.1505
G01 X73.3232 Y57.1637
G01 X73.3197 Y57.1772
G01 X73.3177 Y57.1911
G01 X73.3124 Y57.2643
G01 X73.3121 Y57.2747
G01 X73.3128 Y57.2886
G01 X73.3143 Y57.2989
G01 X73.3174 Y57.3124
G01 X73.3218 Y57.3256
G01 X73.3260 Y57.3352
G01 X73.3292 Y57.3413
G01 X73.3627 Y57.4027
G01 X73.3678 Y57.4113
G01 X73.3755 Y57.4221
G01 X73.3842 Y57.4322
G01 X73.5184 Y57.5664
G01 X73.6536 Y57.7524
G01 X73.7579 Y57.9572
G01 X73.8290 Y58.1759
G01 X73.8649 Y58.4029
G01 X73.8649 Y58.6328
G01 X73.8290 Y58.8599
G01 X73.7579 Y59.0785
G01 X73.6536 Y59.2834
G01 X73.5184 Y59.4693
G01 X73.3559 Y59.6319
G01 X73.1699 Y59.7670
G01 X72.9651 Y59.8714
G01 X72.7464 Y59.9424
G01 X72.5194 Y59.9784
G01 X72.2895 Y59.9784
G01 X72.0624 Y59.9424
G01 X71.8438 Y59.8714
G01 X71.6390 Y59.7670
G01 X71.4530 Y59.6319
G01 X71.2904 Y59.4693
G01 X71.1553 Y59.2834
G01 X71.0509 Y59.0785
G01 X70.9799 Y58.8599
G01 X70.9439 Y58.6328
G01 X70.9439 Y58.4029
G01 X70.9799 Y58.1759
G01 X71.0509 Y57.9572
G01 X71.1553 Y57.7524
G01 X71.2904 Y57.5664
G01 X71.4246 Y57.4322
G01 X71.4333 Y57.4221
G01 X71.4411 Y57.4113
G01 X71.4732 Y57.3609
G01 X71.4765 Y57.3548
G01 X71.4810 Y57.3453
G01 X71.4857 Y57.3321
G01 X71.4891 Y57.3185
G01 X71.4912 Y57.3047
G01 X71.4964 Y57.2315
G01 X71.4968 Y57.2211
G01 X71.4961 Y57.2072
G01 X71.4946 Y57.1969
G01 X71.4915 Y57.1833
G01 X71.4870 Y57.1702
G01 X71.4843 Y57.1638
G01 X71.4797 Y57.1544
G01 X71.4462 Y57.0931
G01 X71.4411 Y57.0845
G01 X71.4333 Y57.0737
G01 X71.4246 Y57.0636
G01 X71.2904 Y56.9293
G01 X71.1553 Y56.7434
G01 X71.0509 Y56.5385
G01 X70.9799 Y56.3199
G01 X70.9779 Y56.3074
G01 X70.9439 Y56.0928
G01 X70.9439 Y55.8629
G01 X70.9799 Y55.6359
G01 X71.0509 Y55.4172
G01 X71.1553 Y55.2124
G01 X71.2904 Y55.0264
G01 X71.4530 Y54.8639
G00 Z1.2500
G00 X72.0563 Y46.1645
G01 F50.00
G01 Z-0.0400
G01 F100.00
G01 X72.2342 Y46.0280
G01 X72.4284 Y45.9159
G01 X72.6356 Y45.8301
G01 X72.8522 Y45.7720
G01 X73.0745 Y45.7428
G01 X73.2987 Y45.7428
G01 X73.5210 Y45.7720
G01 X73.7376 Y45.8301
G01 X73.9447 Y45.9159
G01 X74.1389 Y46.0280
G01 X74.3168 Y46.1645
G01 X74.4754 Y46.3230
G01 X74.6119 Y46.5009
G01 X74.7240 Y46.6951
G01 X74.8098 Y46.9023
G01 X74.8678 Y47.1188
G01 X74.8971 Y47.3412
G01 X74.8971 Y47.5654
G01 X74.8678 Y47.7877
G01 X74.8098 Y48.0043
G01 X74.7240 Y48.2114
G01 X74.6119 Y48.4056
G01 X74.4754 Y48.5835
G01 X74.3168 Y48.7420
G01 X74.1389 Y48.8785
G01 X73.9447 Y48.9907
G01 X73.7376 Y49.0765
G01 X73.5210 Y49.1345
G01 X73.2987 Y49.1638
G01 X73.0745 Y49.1638
G01 X72.8522 Y49.1345
G01 X72.6356 Y49.0765
G01 X72.4284 Y48.9907
G01 X72.2342 Y48.8785
G01 X72.0563 Y48.7420
G01 X71.8978 Y48.5835
G01 X71.7613 Y48.4056
G01 X71.6492 Y48.2114
G01 X71.5634 Y48.0043
G01 X71.5053 Y47.7877
G01 X71.4761 Y47.5654
G01 X71.4761 Y47.3412
G01 X71.5053 Y47.1189
G01 X71.5634 Y46.9023
G01 X71.6492 Y46.6951
G01 X71.7613 Y46.5009
G01 X71.8978 Y46.3230
G01 X72.0563 Y46.1645
G00 Z1.2500
G00 X71.7660 Y69.3338
G01 F50.00
G01 Z-0.0400
G01 F100.00
G01 X71.9708 Y69.2294
G01 X72.1894 Y69.1583
G01 X72.4165 Y69.1224
G01 X72.6464 Y69.1224
G01 X72.8734 Y69.1583
G01 X73.0921 Y69.2294
G01 X73.2969 Y69.3338
G01 X73.4829 Y69.4689
G01 X73.6454 Y69.6314
G01 X73.7806 Y69.8174
G01 X73.8849 Y70.0222
G01 X73.9560 Y70.2409
G01 X73.9919 Y70.4679
G01 X73.9919 Y70.6978
G01 X73.9560 Y70.9249
G01 X73.8849 Y71.1435
G01 X73.7806 Y71.3484
G01 X73.6454 Y71.5343
G01 X73.5112 Y71.6686
G01 X73.5025 Y71.6787
G01 X73.4948 Y71.6895
G01 X73.4627 Y71.7398
G01 X73.4593 Y71.7460
G01 X73.4549 Y71.7555
G01 X73.4502 Y71.7687
G01 X73.4467 Y71.7822
G01 X73.4447 Y71.7961
G01 X73.4394 Y71.8693
G01 X73.4391 Y71.8797
G01 X73.4395 Y71.8901
G01 X73.4413 Y71.9039
G01 X73.4444 Y71.9174
G01 X73.4488 Y71.9306
G01 X73.4530 Y71.9402
G01 X73.4562 Y71.9463
G01 X73.4897 Y72.0077
G01 X73.4948 Y72.0163
G01 X73.5025 Y72.0271
G01 X73.5112 Y72.0372
G01 X73.6454 Y72.1714
G01 X73.7806 Y72.3574
G01 X73.8849 Y72.5622
G01 X73.9560 Y72.7809
G01 X73.9919 Y73.0079
G01 X73.9919 Y73.2378
G01 X73.9560 Y73.4649
G01 X73.8849 Y73.6835
G01 X73.7806 Y73.8884
G01 X73.6454 Y74.0743
G01 X73.4829 Y74.2369
G01 X73.2969 Y74.3720
G01 X73.0921 Y74.4764
G01 X72.8734 Y74.5474
G01 X72.6464 Y74.5834
G01 X72.4165 Y74.5834
G01 X72.1894 Y74.5474
G01 X71.9708 Y74.4764
G01 X71.7660 Y74.3720
G01 X71.5800 Y74.2369
G01 X71.4174 Y74.0743
G01 X71.2823 Y73.8884
G01 X71.1779 Y73.6835
G01 X71.1069 Y73.4649
G01 X71.0709 Y73.2378
G01 X71.0709 Y73.0079
G01 X71.1069 Y72.7809
G01 X71.1779 Y72.5622
G01 X71.2823 Y72.3574
G01 X71.4174 Y72.1714
G01 X71.5516 Y72.0372
G01 X71.5603 Y72.0271
G01 X71.5681 Y72.0163
G01 X71.6002 Y71.9659
G01 X71.6066 Y71.9535
G01 X71.6093 Y71.9470
G01 X71.6127 Y71.9371
G01 X71.6161 Y71.9235
G01 X71.6182 Y71.9097
G01 X71.6234 Y71.8365
G01 X71.6238 Y71.8261
G01 X71.6231 Y71.8122
G01 X71.6209 Y71.7985
G01 X71.6175 Y71.7850
G01 X71.6140 Y71.7752
G01 X71.6113 Y71.7688
G01 X71.6067 Y71.7594
G01 X71.5732 Y71.6981
G01 X71.5681 Y71.6895
G01 X71.5603 Y71.6787
G01 X71.5516 Y71.6686
G01 X71.4174 Y71.5343
G01 X71.2823 Y71.3484
G01 X71.1779 Y71.1435
G01 X71.1069 Y70.9249
G01 X71.0709 Y70.6978
G01 X71.0709 Y70.4679
G01 X71.1069 Y70.2409
G01 X71.1779 Y70.0222
G01 X71.2823 Y69.8174
G01 X71.4174 Y69.6314
G01 X71.5800 Y69.4689
G01 X71.7660 Y69.3338
G00 Z1.2500
G00 X71.5822 Y70.8636
G01 F50.00
G01 Z-0.0400
G01 F100.00
G01 X71.5605 Y70.7760
G01 X71.5462 Y70.6799
G01 X71.5414 Y70.5829
G01 X71.5462 Y70.4858
G01 X71.5605 Y70.3897
G01 X71.5841 Y70.2955
G01 X71.6168 Y70.2040
G01 X71.6583 Y70.1162
G01 X71.7083 Y70.0329
G01 X71.7661 Y69.9548
G01 X71.8314 Y69.8828
G01 X71.9034 Y69.8176
G01 X71.9814 Y69.7597
G01 X72.0647 Y69.7098
G01 X72.1526 Y69.6682
G01 X72.2440 Y69.6355
G01 X72.3383 Y69.6119
G01 X72.4344 Y69.5977
G01 X72.5314 Y69.5929
G01 X72.6285 Y69.5977
G01 X72.7246 Y69.6119
G01 X72.8188 Y69.6355
G01 X72.9103 Y69.6682
G01 X72.9981 Y69.7098
G01 X73.0814 Y69.7597
G01 X73.1595 Y69.8176
G01 X73.2315 Y69.8828
G01 X73.2967 Y69.9548
G01 X73.3546 Y70.0329
G01 X73.4045 Y70.1161
G01 X73.4461 Y70.2040
G01 X73.4788 Y70.2955
G01 X73.5024 Y70.3897
G01 X73.5167 Y70.4858
G01 X73.5214 Y70.5829
G01 X73.5167 Y70.6799
G01 X73.5024 Y70.7760
G01 X73.4788 Y70.8703
G01 X73.4461 Y70.9617
G01 X73.4045 Y71.0496
G01 X73.3546 Y71.1329
G01 X73.2967 Y71.2109
G01 X73.2315 Y71.2829
G01 X73.1595 Y71.3482
G01 X73.0814 Y71.4060
G01 X72.9982 Y71.4560
G01 X72.9103 Y71.4975
G01 X72.8188 Y71.5303
G01 X72.7246 Y71.5539
G01 X72.6285 Y71.5681
G01 X72.5314 Y71.5729
G01 X72.4344 Y71.5681
G01 X72.3383 Y71.5539
G01 X72.2440 Y71.5303
G01 X72.1526 Y71.4975
G01 X72.0647 Y71.4560
G01 X71.9814 Y71.4060
G01 X71.9034 Y71.3482
G01 X71.8314 Y71.2829
G01 X71.7661 Y71.2109
G01 X71.7083 Y71.1329
G01 X71.6584 Y71.0496
G01 X71.6168 Y70.9617
G01 X71.5862 Y70.8768
G01 X71.5822 Y70.8636
G00 Z1.2500
G00 X71.5620 Y73.3227
G01 F50.00
G01 Z-0.0400
G01 F100.00
G01 X71.5593 Y73.3093
G01 X71.5462 Y73.2199
G01 X71.5414 Y73.1229
G01 X71.5462 Y73.0258
G01 X71.5605 Y72.9297
G01 X71.5841 Y72.8355
G01 X71.6168 Y72.7440
G01 X71.6583 Y72.6562
G01 X71.7083 Y72.5729
G01 X71.7661 Y72.4948
G01 X71.8314 Y72.4228
G01 X71.9034 Y72.3576
G01 X71.9814 Y72.2997
G01 X72.0647 Y72.2498
G01 X72.1526 Y72.2082
G01 X72.2440 Y72.1755
G01 X72.3383 Y72.1519
G01 X72.4344 Y72.1377
G01 X72.5314 Y72.1329
G01 X72.6285 Y72.1377
G01 X72.7246 Y72.1519
G01 X72.8188 Y72.1755
G01 X72.9103 Y72.2082
G01 X72.9981 Y72.2498
G01 X73.0814 Y72.2997
G01 X73.1595 Y72.3576
G01 X73.2315 Y72.4228
G01 X73.2967 Y72.4948
G01 X73.3546 Y72.5729
G01 X73.4045 Y72.6561
G01 X73.4461 Y72.7440
G01 X73.4788 Y72.8355
G01 X73.5024 Y72.9297
G01 X73.5167 Y73.0258
G01 X73.5214 Y73.1229
G01 X73.5167 Y73.2199
G01 X73.5024 Y73.3160
G01 X73.4788 Y73.4103
G01 X73.4461 Y73.5017
G01 X73.4045 Y73.5896
G01 X73.3546 Y73.6729
G01 X73.2967 Y73.7509
G01 X73.2315 Y73.8229
G01 X73.1595 Y73.8882
G01 X73.0814 Y73.9460
G01 X72.9982 Y73.9960
G01 X72.9103 Y74.0375
G01 X72.8188 Y74.0703
G01 X72.7246 Y74.0939
G01 X72.6285 Y74.1081
G01 X72.5314 Y74.1129
G01 X72.4344 Y74.1081
G01 X72.3383 Y74.0939
G01 X72.2440 Y74.0703
G01 X72.1526 Y74.0375
G01 X72.0647 Y73.9960
G01 X71.9814 Y73.9460
G01 X71.9034 Y73.8882
G01 X71.8314 Y73.8229
G01 X71.7661 Y73.7509
G01 X71.7083 Y73.6729
G01 X71.6584 Y73.5896
G01 X71.6168 Y73.5017
G01 X71.5841 Y73.4103
G01 X71.5620 Y73.3227
G00 Z1.2500
G00 X63.3002 Y74.5336
G01 F50.00
G01 Z-0.0400
G01 F100.00
G01 X63.2785 Y74.4460
G01 X63.2642 Y74.3499
G01 X63.2594 Y74.2529
G01 X63.2637 Y74.1627
G01 X63.2650 Y74.1490
G01 X63.2785 Y74.0597
G01 X63.3002 Y73.9721
G01 X63.3042 Y73.9590
G01 X63.3348 Y73.8740
G01 X63.3732 Y73.7923
G01 X63.3797 Y73.7802
G01 X63.4226 Y73.7087
G01 X63.4302 Y73.6973
G01 X63.4841 Y73.6248
G01 X63.5494 Y73.5528
G01 X63.6214 Y73.4876
G01 X63.6994 Y73.4297
G01 X63.7827 Y73.3798
G01 X63.8706 Y73.3382
G01 X63.9620 Y73.3055
G01 X64.0529 Y73.2826
G01 X64.0631 Y73.2807
G01 X64.1524 Y73.2677
G01 X64.2460 Y73.2629
G01 X64.5029 Y73.2629
G01 X64.5965 Y73.2677
G01 X64.6926 Y73.2819
G01 X64.7868 Y73.3055
G01 X64.8783 Y73.3382
G01 X64.9661 Y73.3798
G01 X65.0494 Y73.4297
G01 X65.1275 Y73.4876
G01 X65.1995 Y73.5528
G01 X65.2602 Y73.6196
G01 X65.2689 Y73.6303
G01 X65.3186 Y73.6973
G01 X65.3263 Y73.7087
G01 X65.3725 Y73.7861
G01 X65.4113 Y73.8677
G01 X65.4165 Y73.8804
G01 X65.4468 Y73.9655
G01 X65.4697 Y74.0564
G01 X65.4716 Y74.0665
G01 X65.4847 Y74.1558
G01 X65.4894 Y74.2529
G01 X65.4847 Y74.3499
G01 X65.4704 Y74.4460
G01 X65.4468 Y74.5403
G01 X65.4141 Y74.6317
G01 X65.3725 Y74.7196
G01 X65.3226 Y74.8029
G01 X65.2647 Y74.8809
G01 X65.1995 Y74.9529
G01 X65.1275 Y75.0182
G01 X65.0494 Y75.0760
G01 X64.9662 Y75.1260
G01 X64.8783 Y75.1675
G01 X64.7868 Y75.2003
G01 X64.6959 Y75.2231
G01 X64.6858 Y75.2250
G01 X64.5965 Y75.2381
G01 X64.5029 Y75.2428
G01 X64.2460 Y75.2428
G01 X64.1524 Y75.2381
G01 X64.0563 Y75.2239
G01 X63.9620 Y75.2003
G01 X63.8706 Y75.1675
G01 X63.7858 Y75.1276
G01 X63.7768 Y75.1226
G01 X63.6994 Y75.0760
G01 X63.6214 Y75.0182
G01 X63.5494 Y74.9529
G01 X63.4841 Y74.8809
G01 X63.4263 Y74.8029
G01 X63.3764 Y74.7196
G01 X63.3348 Y74.6317
G01 X63.3042 Y74.5468
G01 X63.3002 Y74.5336
G00 Z1.2500
G00 X63.3002 Y72.0336
G01 F50.00
G01 Z-0.0400
G01 F100.00
G01 X63.2785 Y71.9460
G01 X63.2642 Y71.8499
G01 X63.2594 Y71.7529
G01 X63.2637 Y71.6627
G01 X63.2650 Y71.6490
G01 X63.2785 Y71.5597
G01 X63.3002 Y71.4721
G01 X63.3042 Y71.4590
G01 X63.3348 Y71.3740
G01 X63.3732 Y71.2923
G01 X63.3797 Y71.2802
G01 X63.4226 Y71.2087
G01 X63.4302 Y71.1973
G01 X63.4841 Y71.1248
G01 X63.5494 Y71.0528
G01 X63.6214 Y70.9876
G01 X63.6994 Y70.9297
G01 X63.7827 Y70.8798
G01 X63.8706 Y70.8382
G01 X63.9620 Y70.8055
G01 X64.0529 Y70.7826
G01 X64.0631 Y70.7807
G01 X64.1524 Y70.7677
G01 X64.2460 Y70.7629
G01 X64.5029 Y70.7629
G01 X64.5965 Y70.7677
G01 X64.6926 Y70.7819
G01 X64.7868 Y70.8055
G01 X64.8783 Y70.8382
G01 X64.9661 Y70.8798
G01 X65.0494 Y70.9297
G01 X65.1275 Y70.9876
G01 X65.1995 Y71.0528
G01 X65.2602 Y71.1196
G01 X65.2689 Y71.1303
G01 X65.3186 Y71.1973
G01 X65.3263 Y71.2087
G01 X65.3725 Y71.2861
G01 X65.4113 Y71.3677
G01 X65.4165 Y71.3804
G01 X65.4468 Y71.4655
G01 X65.4697 Y71.5564
G01 X65.4716 Y71.5665
G01 X65.4847 Y71.6558
G01 X65.4894 Y71.7529
G01 X65.4847 Y71.8499
G01 X65.4704 Y71.9460
G01 X65.4468 Y72.0403
G01 X65.4141 Y72.1317
G01 X65.3725 Y72.2196
G01 X65.3226 Y72.3029
G01 X65.2647 Y72.3809
G01 X65.1995 Y72.4529
G01 X65.1275 Y72.5182
G01 X65.0494 Y72.5760
G01 X64.9662 Y72.6260
G01 X64.8783 Y72.6675
G01 X64.7868 Y72.7003
G01 X64.6959 Y72.7231
G01 X64.6858 Y72.7250
G01 X64.5965 Y72.7381
G01 X64.5029 Y72.7428
G01 X64.2460 Y72.7428
G01 X64.1524 Y72.7381
G01 X64.0563 Y72.7239
G01 X63.9620 Y72.7003
G01 X63.8706 Y72.6675
G01 X63.7858 Y72.6276
G01 X63.7768 Y72.6226
G01 X63.6994 Y72.5760
G01 X63.6214 Y72.5182
G01 X63.5494 Y72.4529
G01 X63.4841 Y72.3809
G01 X63.4263 Y72.3029
G01 X63.3764 Y72.2196
G01 X63.3348 Y72.1317
G01 X63.3042 Y72.0468
G01 X63.3002 Y72.0336
G00 Z1.2500
G00 X63.2980 Y70.6389
G01 F50.00
G01 Z-0.0400
G01 F100.00
G01 X63.4840 Y70.5038
G01 X63.6888 Y70.3994
G01 X63.9074 Y70.3283
G01 X64.1345 Y70.2924
G01 X64.6144 Y70.2924
G01 X64.8414 Y70.3283
G01 X65.0601 Y70.3994
G01 X65.2649 Y70.5038
G01 X65.4509 Y70.6389
G01 X65.6134 Y70.8014
G01 X65.7486 Y70.9874
G01 X65.8529 Y71.1922
G01 X65.9240 Y71.4109
G01 X65.9599 Y71.6379
G01 X65.9599 Y71.8678
G01 X65.9240 Y72.0949
G01 X65.8529 Y72.3135
G01 X65.7486 Y72.5184
G01 X65.6134 Y72.7043
G01 X65.5016 Y72.8162
G01 X65.4948 Y72.8235
G01 X65.4846 Y72.8367
G01 X65.4543 Y72.8839
G01 X65.4489 Y72.8929
G01 X65.4429 Y72.9055
G01 X65.4392 Y72.9153
G01 X65.4363 Y72.9254
G01 X65.4336 Y72.9391
G01 X65.4324 Y72.9496
G01 X65.4274 Y73.0193
G01 X65.4271 Y73.0332
G01 X65.4282 Y73.0470
G01 X65.4299 Y73.0573
G01 X65.4334 Y73.0708
G01 X65.4382 Y73.0838
G01 X65.4442 Y73.0963
G01 X65.4777 Y73.1577
G01 X65.4865 Y73.1718
G01 X65.4926 Y73.1797
G01 X65.5016 Y73.1896
G01 X65.6134 Y73.3014
G01 X65.7486 Y73.4874
G01 X65.8529 Y73.6922
G01 X65.9240 Y73.9109
G01 X65.9599 Y74.1379
G01 X65.9599 Y74.3678
G01 X65.9240 Y74.5949
G01 X65.8529 Y74.8135
G01 X65.7486 Y75.0184
G01 X65.6134 Y75.2043
G01 X65.4509 Y75.3669
G01 X65.2649 Y75.5020
G01 X65.0601 Y75.6064
G01 X64.8414 Y75.6774
G01 X64.6144 Y75.7134
G01 X64.1345 Y75.7134
G01 X63.9074 Y75.6774
G01 X63.6888 Y75.6064
G01 X63.4840 Y75.5020
G01 X63.2980 Y75.3669
G01 X63.1355 Y75.2044
G01 X62.9998 Y75.0174
G01 X62.8959 Y74.8135
G01 X62.8249 Y74.5949
G01 X62.7889 Y74.3678
G01 X62.7889 Y74.1379
G01 X62.8249 Y73.9109
G01 X62.8959 Y73.6922
G01 X63.0003 Y73.4874
G01 X63.1354 Y73.3014
G01 X63.2473 Y73.1896
G01 X63.2541 Y73.1822
G01 X63.2642 Y73.1690
G01 X63.2946 Y73.1219
G01 X63.2999 Y73.1129
G01 X63.3060 Y73.1003
G01 X63.3096 Y73.0904
G01 X63.3126 Y73.0804
G01 X63.3153 Y73.0666
G01 X63.3164 Y73.0562
G01 X63.3214 Y72.9865
G01 X63.3217 Y72.9726
G01 X63.3207 Y72.9588
G01 X63.3189 Y72.9485
G01 X63.3155 Y72.9350
G01 X63.3107 Y72.9219
G01 X63.3047 Y72.9094
G01 X63.2712 Y72.8481
G01 X63.2661 Y72.8395
G01 X63.2583 Y72.8287
G01 X63.2496 Y72.8186
G01 X63.1354 Y72.7043
G01 X63.0003 Y72.5184
G01 X62.8959 Y72.3135
G01 X62.8249 Y72.0949
G01 X62.7889 Y71.8678
G01 X62.7889 Y71.6379
G01 X62.8249 Y71.4109
G01 X62.8959 Y71.1922
G01 X63.0003 Y70.9874
G01 X63.1354 Y70.8014
G01 X63.2980 Y70.6389
G00 Z1.2500
G00 X53.0421 Y74.4803
G01 F50.00
G01 Z-0.0400
G01 F100.00
G01 X53.0318 Y74.4812
G01 X53.0249 Y74.4814
G01 X51.4465 Y74.4813
G01 X51.4328 Y74.4803
G01 X51.4193 Y74.4780
G01 X51.4060 Y74.4743
G01 X51.3932 Y74.4694
G01 X51.3809 Y74.4632
G01 X51.3722 Y74.4578
G01 X51.3665 Y74.4538
G01 X51.3559 Y74.4451
G01 X51.3462 Y74.4354
G01 X51.3375 Y74.4248
G01 X51.3298 Y74.4134
G01 X51.3234 Y74.4012
G01 X51.3193 Y74.3918
G01 X51.3150 Y74.3787
G01 X51.3126 Y74.3687
G01 X51.3110 Y74.3585
G01 X51.3100 Y74.3448
G01 X51.3099 Y72.7664
G01 X51.3106 Y72.7527
G01 X51.3126 Y72.7391
G01 X51.3141 Y72.7324
G01 X51.3170 Y72.7225
G01 X51.3219 Y72.7097
G01 X51.3281 Y72.6974
G01 X51.3355 Y72.6858
G01 X51.3417 Y72.6776
G01 X51.3462 Y72.6724
G01 X51.3559 Y72.6627
G01 X51.3665 Y72.6539
G01 X51.3750 Y72.6481
G01 X51.3870 Y72.6413
G01 X51.3995 Y72.6358
G01 X51.4126 Y72.6315
G01 X51.4226 Y72.6291
G01 X51.4362 Y72.6271
G01 X51.4465 Y72.6264
G01 X53.0249 Y72.6264
G01 X53.0387 Y72.6271
G01 X53.0489 Y72.6284
G01 X53.0623 Y72.6315
G01 X53.0753 Y72.6358
G01 X53.0879 Y72.6413
G01 X53.0998 Y72.6481
G01 X53.1111 Y72.6560
G01 X53.1199 Y72.6635
G01 X55.7934 Y72.6635
G01 X55.8738 Y72.6673
G01 X55.8875 Y72.6686
G01 X55.9671 Y72.6806
G01 X56.0453 Y72.7000
G01 X56.0584 Y72.7040
G01 X56.1278 Y72.7288
G01 X56.1404 Y72.7341
G01 X56.2131 Y72.7686
G01 X56.2881 Y72.8136
G01 X56.3583 Y72.8656
G01 X56.4206 Y72.9219
G01 X58.7114 Y75.2128
G01 X58.7677 Y75.2750
G01 X58.8197 Y75.3452
G01 X58.8647 Y75.4202
G01 X58.9020 Y75.4992
G01 X58.9315 Y75.5814
G01 X58.9527 Y75.6662
G01 X58.9655 Y75.7526
G01 X58.9698 Y75.8364
G01 X58.9698 Y79.2811
G01 X71.5506 Y91.8618
G01 X71.5610 Y91.8519
G01 X71.5718 Y91.8434
G01 X71.5834 Y91.8361
G01 X71.5957 Y91.8299
G01 X71.6085 Y91.8250
G01 X71.6218 Y91.8213
G01 X71.6353 Y91.8189
G01 X71.6490 Y91.8179
G01 X73.3559 Y91.8179
G01 X73.3696 Y91.8189
G01 X73.3797 Y91.8206
G01 X73.3898 Y91.8230
G01 X73.3996 Y91.8261
G01 X73.4092 Y91.8299
G01 X73.4184 Y91.8344
G01 X73.4302 Y91.8415
G01 X73.4386 Y91.8475
G01 X73.4464 Y91.8542
G01 X73.4562 Y91.8639
G01 X73.4628 Y91.8718
G01 X73.4688 Y91.8801
G01 X73.4742 Y91.8889
G01 X73.4790 Y91.8980
G01 X73.4830 Y91.9075
G01 X73.4865 Y91.9175
G01 X90.9756 Y91.9175
G01 X91.7935 Y91.0997
G01 X91.8023 Y91.0809
G01 X91.8071 Y91.0718
G01 X91.8510 Y90.9985
G01 X91.8568 Y90.9900
G01 X91.9057 Y90.9242
G01 X91.9123 Y90.9164
G01 X91.9697 Y90.8532
G01 X92.0381 Y90.7913
G01 X92.1122 Y90.7363
G01 X92.1913 Y90.6889
G01 X92.2747 Y90.6494
G01 X92.3550 Y90.6205
G01 X92.3682 Y90.6165
G01 X92.4443 Y90.5975
G01 X92.4578 Y90.5948
G01 X92.5423 Y90.5824
G01 X92.6344 Y90.5779
G01 X92.7266 Y90.5824
G01 X92.8110 Y90.5948
G01 X92.8245 Y90.5975
G01 X92.9073 Y90.6184
G01 X92.9877 Y90.6470
G01 X93.0004 Y90.6522
G01 X93.0775 Y90.6889
G01 X93.1567 Y90.7363
G01 X93.2253 Y90.7870
G01 X93.2360 Y90.7957
G01 X93.2991 Y90.8532
G01 X93.3566 Y90.9164
G01 X93.3653 Y90.9270
G01 X93.4160 Y90.9956
G01 X93.4600 Y91.0688
G01 X93.4665 Y91.0809
G01 X93.5029 Y91.1582
G01 X93.5318 Y91.2385
G01 X93.5358 Y91.2516
G01 X93.5564 Y91.3345
G01 X93.5699 Y91.4257
G01 X93.5743 Y91.5110
G01 X93.5743 Y91.5248
G01 X93.5699 Y91.6100
G01 X93.5575 Y91.6945
G01 X93.5549 Y91.7080
G01 X93.5340 Y91.7908
G01 X93.5053 Y91.8712
G01 X93.5015 Y91.8808
G01 X93.4634 Y91.9610
G01 X93.4160 Y92.0401
G01 X93.3611 Y92.1142
G01 X93.2991 Y92.1826
G01 X93.2308 Y92.2445
G01 X93.1595 Y92.2975
G01 X93.1509 Y92.3031
G01 X93.0806 Y92.3452
G01 X93.0714 Y92.3500
G01 X93.0526 Y92.3589
G01 X91.9740 Y93.4375
G01 X91.9119 Y93.4939
G01 X91.9039 Y93.5004
G01 X91.8447 Y93.5442
G01 X91.8333 Y93.5519
G01 X91.7641 Y93.5931
G01 X91.6852 Y93.6305
G01 X91.6029 Y93.6599
G01 X91.5248 Y93.6796
G01 X91.5114 Y93.6823
G01 X91.4385 Y93.6931
G01 X91.4283 Y93.6943
G01 X91.3444 Y93.6983
G01 X73.4865 Y93.6983
G01 X73.4830 Y93.7083
G01 X73.4790 Y93.7177
G01 X73.4742 Y93.7269
G01 X73.4688 Y93.7357
G01 X73.4628 Y93.7440
G01 X73.4538 Y93.7544
G01 X73.4464 Y93.7616
G01 X73.4386 Y93.7683
G01 X73.4302 Y93.7743
G01 X73.4214 Y93.7797
G01 X73.4092 Y93.7859
G01 X73.3996 Y93.7897
G01 X73.3898 Y93.7928
G01 X73.3797 Y93.7952
G01 X73.3696 Y93.7968
G01 X73.3593 Y93.7977
G01 X71.6524 Y93.7979
G01 X71.6421 Y93.7975
G01 X71.6319 Y93.7964
G01 X71.6184 Y93.7937
G01 X71.6085 Y93.7908
G01 X71.5957 Y93.7859
G01 X71.5864 Y93.7814
G01 X71.5775 Y93.7762
G01 X71.5690 Y93.7703
G01 X71.5584 Y93.7616
G01 X71.5510 Y93.7544
G01 X71.5442 Y93.7467
G01 X71.5380 Y93.7385
G01 X71.5323 Y93.7299
G01 X71.5259 Y93.7177
G01 X71.5218 Y93.7083
G01 X71.5184 Y93.6983
G01 X71.2374 Y93.6983
G01 X71.1502 Y93.6940
G01 X71.0637 Y93.6812
G01 X70.9856 Y93.6618
G01 X70.9724 Y93.6578
G01 X70.9031 Y93.6330
G01 X70.8935 Y93.6291
G01 X70.8177 Y93.5931
G01 X70.7428 Y93.5482
G01 X70.6726 Y93.4962
G01 X70.6078 Y93.4375
G01 X57.4498 Y80.2795
G01 X57.3956 Y80.2199
G01 X57.3890 Y80.2120
G01 X57.3391 Y80.1445
G01 X57.2976 Y80.0756
G01 X57.2911 Y80.0635
G01 X57.2568 Y79.9906
G01 X57.2274 Y79.9083
G01 X57.2077 Y79.8303
G01 X57.2050 Y79.8168
G01 X57.1942 Y79.7440
G01 X57.1928 Y79.7303
G01 X57.1891 Y79.6499
G01 X57.1891 Y76.2087
G01 X55.4246 Y74.4443
G01 X53.1199 Y74.4443
G01 X53.1111 Y74.4518
G01 X53.1027 Y74.4578
G01 X53.0939 Y74.4632
G01 X53.0848 Y74.4679
G01 X53.0753 Y74.4720
G01 X53.0623 Y74.4763
G01 X53.0522 Y74.4787
G01 X53.0421 Y74.4803
G00 Z1.2500
G00 X51.3266 Y72.1641
G01 F50.00
G01 Z-0.0400
G01 F100.00
G01 X51.4071 Y72.1559
G01 X53.0678 Y72.1559
G01 X53.1482 Y72.1641
G01 X53.1962 Y72.1800
G01 X53.2085 Y72.1834
G01 X53.2179 Y72.1853
G01 X53.2601 Y72.1921
G01 X53.2760 Y72.1933
G01 X55.9005 Y72.1934
G01 X56.1120 Y72.2269
G01 X56.3157 Y72.2931
G01 X56.5065 Y72.3903
G01 X56.6797 Y72.5162
G01 X59.1172 Y74.9536
G01 X59.2430 Y75.1268
G01 X59.3403 Y75.3176
G01 X59.4064 Y75.5213
G01 X59.4399 Y75.7328
G01 X59.4400 Y78.9807
G01 X59.4407 Y78.9920
G01 X59.4436 Y79.0183
G01 X59.4450 Y79.0285
G01 X59.4482 Y79.0419
G01 X59.4526 Y79.0549
G01 X59.4567 Y79.0643
G01 X59.4599 Y79.0704
G01 X59.4934 Y79.1318
G01 X59.4985 Y79.1404
G01 X59.5062 Y79.1512
G01 X59.5173 Y79.1637
G01 X71.6236 Y91.2701
G01 X71.6348 Y91.2801
G01 X71.6609 Y91.3009
G01 X71.6724 Y91.3084
G01 X71.6846 Y91.3148
G01 X71.6909 Y91.3175
G01 X71.7006 Y91.3210
G01 X71.7741 Y91.3426
G01 X71.7904 Y91.3460
G01 X71.8070 Y91.3473
G01 X73.3953 Y91.3474
G01 X73.4757 Y91.3556
G01 X73.6122 Y91.4008
G01 X73.6270 Y91.4099
G01 X73.6363 Y91.4149
G01 X73.6459 Y91.4191
G01 X73.6559 Y91.4226
G01 X73.7312 Y91.4438
G01 X73.7415 Y91.4458
G01 X73.7485 Y91.4467
G01 X73.7626 Y91.4474
G01 X90.6790 Y91.4472
G01 X90.7129 Y91.4437
G01 X90.7231 Y91.4423
G01 X90.7364 Y91.4391
G01 X90.7462 Y91.4359
G01 X90.7526 Y91.4334
G01 X90.7650 Y91.4274
G01 X90.8292 Y91.3923
G01 X90.8431 Y91.3831
G01 X90.8558 Y91.3724
G01 X91.3811 Y90.8469
G01 X91.3903 Y90.8355
G01 X91.4152 Y90.8011
G01 X91.4211 Y90.7918
G01 X91.4281 Y90.7786
G01 X91.5586 Y90.5990
G01 X91.7156 Y90.4420
G01 X91.8952 Y90.3115
G01 X92.0930 Y90.2107
G01 X92.3041 Y90.1421
G01 X92.5234 Y90.1074
G01 X92.7454 Y90.1074
G01 X92.9647 Y90.1421
G01 X93.1759 Y90.2107
G01 X93.3737 Y90.3115
G01 X93.5533 Y90.4420
G01 X93.7103 Y90.5990
G01 X93.8408 Y90.7786
G01 X93.9416 Y90.9764
G01 X94.0102 Y91.1876
G01 X94.0449 Y91.4069
G01 X94.0449 Y91.6289
G01 X94.0102 Y91.8482
G01 X93.9416 Y92.0593
G01 X93.8408 Y92.2571
G01 X93.7103 Y92.4368
G01 X93.5533 Y92.5938
G01 X93.3737 Y92.7242
G01 X93.3605 Y92.7312
G01 X93.3482 Y92.7392
G01 X93.3139 Y92.7642
G01 X93.3027 Y92.7737
G01 X92.2307 Y93.8456
G01 X92.0575 Y93.9715
G01 X91.8667 Y94.0687
G01 X91.6630 Y94.1349
G01 X91.4515 Y94.1684
G01 X73.7626 Y94.1684
G01 X73.7485 Y94.1691
G01 X73.7415 Y94.1700
G01 X73.7312 Y94.1719
G01 X73.6559 Y94.1932
G01 X73.6459 Y94.1967
G01 X73.6363 Y94.2009
G01 X73.6270 Y94.2059
G01 X73.6122 Y94.2150
G01 X73.4757 Y94.2602
G01 X73.3953 Y94.2684
G01 X71.6096 Y94.2684
G01 X71.5291 Y94.2602
G01 X71.3927 Y94.2150
G01 X71.3717 Y94.2025
G01 X71.3622 Y94.1980
G01 X71.3523 Y94.1942
G01 X71.2737 Y94.1719
G01 X71.2598 Y94.1695
G01 X71.2458 Y94.1684
G01 X71.1304 Y94.1684
G01 X70.9188 Y94.1349
G01 X70.7152 Y94.0687
G01 X70.5244 Y93.9715
G01 X70.3511 Y93.8456
G01 X68.0020 Y91.4966
G01 X67.9930 Y91.4883
G01 X67.9850 Y91.4817
G01 X67.9765 Y91.4757
G01 X67.9676 Y91.4704
G01 X67.9583 Y91.4657
G01 X67.8883 Y91.4340
G01 X67.8785 Y91.4305
G01 X67.8718 Y91.4285
G01 X67.8582 Y91.4257
G01 X67.8513 Y91.4248
G01 X67.8409 Y91.4241
G01 X67.8340 Y91.4241
G01 X67.8236 Y91.4246
G01 X67.7406 Y91.4366
G01 X67.7271 Y91.4399
G01 X67.7205 Y91.4421
G01 X67.7108 Y91.4459
G01 X67.7015 Y91.4505
G01 X67.6954 Y91.4539
G01 X67.6895 Y91.4576
G01 X67.6811 Y91.4638
G01 X67.6203 Y91.5162
G01 X67.6129 Y91.5235
G01 X67.6082 Y91.5287
G01 X67.5997 Y91.5397
G01 X67.5924 Y91.5515
G01 X67.5862 Y91.5640
G01 X67.5836 Y91.5704
G01 X67.5803 Y91.5803
G01 X67.5606 Y91.6473
G01 X67.5569 Y91.6636
G01 X67.5553 Y91.6768
G01 X67.5549 Y91.6868
G01 X67.5549 Y94.1508
G01 X67.5467 Y94.2312
G01 X67.5015 Y94.3676
G01 X67.4266 Y94.4891
G01 X67.3257 Y94.5900
G01 X67.2042 Y94.6650
G01 X67.0677 Y94.7102
G01 X66.9873 Y94.7184
G01 X64.3016 Y94.7184
G01 X64.2211 Y94.7102
G01 X64.0847 Y94.6650
G01 X63.9632 Y94.5900
G01 X63.8623 Y94.4891
G01 X63.7874 Y94.3676
G01 X63.7421 Y94.2312
G01 X63.7339 Y94.1508
G01 X63.7339 Y91.4650
G01 X63.7421 Y91.3846
G01 X63.7874 Y91.2481
G01 X63.8623 Y91.1266
G01 X63.9632 Y91.0257
G01 X64.0847 Y90.9508
G01 X64.2211 Y90.9056
G01 X64.3016 Y90.8974
G01 X66.7655 Y90.8974
G01 X66.7863 Y90.8966
G01 X66.7932 Y90.8958
G01 X66.8034 Y90.8940
G01 X66.8101 Y90.8924
G01 X66.8201 Y90.8894
G01 X66.8920 Y90.8626
G01 X66.8984 Y90.8598
G01 X66.9077 Y90.8551
G01 X66.9166 Y90.8497
G01 X66.9251 Y90.8437
G01 X66.9332 Y90.8370
G01 X66.9407 Y90.8298
G01 X66.9454 Y90.8247
G01 X66.9519 Y90.8166
G01 X66.9978 Y90.7550
G01 X67.0050 Y90.7430
G01 X67.0110 Y90.7305
G01 X67.0146 Y90.7207
G01 X67.0175 Y90.7107
G01 X67.0197 Y90.7005
G01 X67.0211 Y90.6902
G01 X67.0266 Y90.6135
G01 X67.0265 Y90.5996
G01 X67.0251 Y90.5858
G01 X67.0239 Y90.5790
G01 X67.0214 Y90.5688
G01 X67.0182 Y90.5589
G01 X67.0142 Y90.5493
G01 X67.0096 Y90.5399
G01 X66.9745 Y90.4757
G01 X66.9692 Y90.4672
G01 X66.9633 Y90.4592
G01 X66.9522 Y90.4467
G01 X57.0417 Y80.5362
G01 X56.9158 Y80.3629
G01 X56.8186 Y80.1721
G01 X56.7524 Y79.9685
G01 X56.7189 Y79.7570
G01 X56.7189 Y76.5128
G01 X56.7185 Y76.5015
G01 X56.7149 Y76.4680
G01 X56.7132 Y76.4579
G01 X56.7097 Y76.4446
G01 X56.7050 Y76.4317
G01 X56.7006 Y76.4224
G01 X56.6639 Y76.3551
G01 X56.6547 Y76.3412
G01 X56.6439 Y76.3285
G01 X55.3072 Y74.9917
G01 X55.2961 Y74.9817
G01 X55.2754 Y74.9651
G01 X55.2672 Y74.9589
G01 X55.2555 Y74.9516
G01 X55.2463 Y74.9470
G01 X55.2400 Y74.9443
G01 X55.2270 Y74.9397
G01 X55.1535 Y74.9183
G01 X55.1372 Y74.9154
G01 X55.1205 Y74.9144
G01 X53.2792 Y74.9144
G01 X53.2696 Y74.9147
G01 X53.2601 Y74.9157
G01 X53.2179 Y74.9225
G01 X53.2085 Y74.9243
G01 X53.1962 Y74.9278
G01 X53.1482 Y74.9437
G01 X53.0678 Y74.9519
G01 X51.4071 Y74.9519
G01 X51.3266 Y74.9437
G01 X51.1902 Y74.8985
G01 X51.0687 Y74.8235
G01 X50.9678 Y74.7226
G01 X50.8929 Y74.6011
G01 X50.8476 Y74.4647
G01 X50.8394 Y74.3843
G01 X50.8394 Y72.7235
G01 X50.8476 Y72.6431
G01 X50.8929 Y72.5066
G01 X50.9678 Y72.3851
G01 X51.0687 Y72.2842
G01 X51.1902 Y72.2093
G01 X51.3266 Y72.1641
G00 Z1.2500
G00 X48.3288 Y61.2951
G01 F50.00
G01 Z-0.0400
G01 F100.00
G01 X48.3106 Y61.2218
G01 X48.2985 Y61.1402
G01 X48.2944 Y61.0579
G01 X48.2985 Y60.9755
G01 X48.3106 Y60.8940
G01 X48.3306 Y60.8140
G01 X48.3584 Y60.7364
G01 X48.3936 Y60.6619
G01 X48.4360 Y60.5912
G01 X48.4851 Y60.5250
G01 X48.5405 Y60.4639
G01 X48.6015 Y60.4086
G01 X48.6678 Y60.3594
G01 X48.7385 Y60.3171
G01 X48.8130 Y60.2818
G01 X48.8906 Y60.2541
G01 X48.9706 Y60.2340
G01 X49.0521 Y60.2219
G01 X49.1344 Y60.2179
G01 X49.2168 Y60.2219
G01 X49.2983 Y60.2340
G01 X49.3783 Y60.2541
G01 X49.4559 Y60.2818
G01 X49.5304 Y60.3171
G01 X49.6011 Y60.3594
G01 X49.6673 Y60.4086
G01 X49.7284 Y60.4639
G01 X49.7838 Y60.5250
G01 X49.8329 Y60.5912
G01 X49.8752 Y60.6619
G01 X49.9105 Y60.7364
G01 X49.9383 Y60.8140
G01 X49.9583 Y60.8940
G01 X49.9704 Y60.9755
G01 X49.9744 Y61.0579
G01 X49.9704 Y61.1402
G01 X49.9583 Y61.2218
G01 X49.9383 Y61.3017
G01 X49.9105 Y61.3793
G01 X49.8752 Y61.4539
G01 X49.8329 Y61.5246
G01 X49.7838 Y61.5908
G01 X49.7284 Y61.6519
G01 X49.6673 Y61.7072
G01 X49.6011 Y61.7563
G01 X49.5304 Y61.7987
G01 X49.4559 Y61.8339
G01 X49.3783 Y61.8617
G01 X49.2983 Y61.8817
G01 X49.2168 Y61.8938
G01 X49.1344 Y61.8979
G01 X49.0521 Y61.8938
G01 X48.9706 Y61.8817
G01 X48.8906 Y61.8617
G01 X48.8130 Y61.8339
G01 X48.7385 Y61.7987
G01 X48.6678 Y61.7563
G01 X48.6015 Y61.7072
G01 X48.5405 Y61.6519
G01 X48.4851 Y61.5908
G01 X48.4360 Y61.5246
G01 X48.3936 Y61.4539
G01 X48.3584 Y61.3793
G01 X48.3328 Y61.3082
G01 X48.3288 Y61.2951
G00 Z1.2500
G00 X48.4476 Y59.9370
G01 F50.00
G01 Z-0.0400
G01 F100.00
G01 X48.6314 Y59.8434
G01 X48.8276 Y59.7797
G01 X49.0313 Y59.7474
G01 X49.2376 Y59.7474
G01 X49.4413 Y59.7797
G01 X49.6375 Y59.8434
G01 X49.8213 Y59.9370
G01 X49.9882 Y60.0583
G01 X50.1340 Y60.2042
G01 X50.2553 Y60.3710
G01 X50.3489 Y60.5548
G01 X50.4127 Y60.7510
G01 X50.4449 Y60.9547
G01 X50.4449 Y61.1610
G01 X50.4127 Y61.3648
G01 X50.3489 Y61.5609
G01 X50.2553 Y61.7447
G01 X50.1340 Y61.9116
G01 X49.9882 Y62.0575
G01 X49.8213 Y62.1787
G01 X49.6375 Y62.2724
G01 X49.4413 Y62.3361
G01 X49.2376 Y62.3684
G01 X49.0313 Y62.3684
G01 X48.8276 Y62.3361
G01 X48.6314 Y62.2724
G01 X48.4476 Y62.1787
G01 X48.2807 Y62.0575
G01 X48.1348 Y61.9116
G01 X48.0136 Y61.7447
G01 X47.9199 Y61.5609
G01 X47.8562 Y61.3648
G01 X47.8239 Y61.1610
G01 X47.8239 Y60.9547
G01 X47.8562 Y60.7510
G01 X47.9199 Y60.5548
G01 X48.0136 Y60.3710
G01 X48.1348 Y60.2041
G01 X48.2807 Y60.0583
G01 X48.4476 Y59.9370
G00 Z1.2500
G00 X48.2627 Y56.1583
G01 F50.00
G01 Z-0.0400
G01 F100.00
G01 X48.2600 Y56.1448
G01 X48.2483 Y56.0652
G01 X48.2441 Y55.9779
G01 X48.2483 Y55.8906
G01 X48.2612 Y55.8042
G01 X48.2824 Y55.7194
G01 X48.3118 Y55.6372
G01 X48.3492 Y55.5582
G01 X48.3904 Y55.4890
G01 X48.3981 Y55.4776
G01 X48.4462 Y55.4130
G01 X48.5001 Y55.3533
G01 X48.5098 Y55.3436
G01 X48.5644 Y55.2941
G01 X48.5750 Y55.2854
G01 X48.6398 Y55.2376
G01 X48.7087 Y55.1960
G01 X48.7208 Y55.1896
G01 X48.7937 Y55.1553
G01 X48.8760 Y55.1258
G01 X48.9607 Y55.1046
G01 X49.0403 Y55.0926
G01 X49.0506 Y55.0915
G01 X49.1344 Y55.0875
G01 X52.8168 Y55.0875
G01 X52.8455 Y55.0833
G01 X52.8557 Y55.0821
G01 X52.9444 Y55.0779
G01 X53.0366 Y55.0824
G01 X53.1244 Y55.0953
G01 X53.1345 Y55.0975
G01 X53.2140 Y55.1174
G01 X53.2238 Y55.1205
G01 X53.2434 Y55.1275
G01 X56.4909 Y55.1275
G01 X56.5026 Y55.1240
G01 X56.5740 Y55.1061
G01 X56.5875 Y55.1034
G01 X56.6672 Y55.0918
G01 X56.7544 Y55.0875
G01 X64.4744 Y55.0875
G01 X64.5617 Y55.0918
G01 X64.6481 Y55.1046
G01 X64.7263 Y55.1240
G01 X64.7394 Y55.1280
G01 X64.8152 Y55.1553
G01 X64.8880 Y55.1896
G01 X64.9001 Y55.1960
G01 X64.9691 Y55.2376
G01 X65.0366 Y55.2875
G01 X65.0445 Y55.2941
G01 X65.1040 Y55.3483
G01 X65.9136 Y56.1579
G01 X66.3729 Y56.1579
G01 X66.4077 Y56.1598
G01 X66.4455 Y56.1654
G01 X66.4826 Y56.1747
G01 X66.5123 Y56.1851
G01 X66.5250 Y56.1904
G01 X66.5502 Y56.2024
G01 X66.5593 Y56.2073
G01 X66.5861 Y56.2236
G01 X66.6168 Y56.2464
G01 X66.6452 Y56.2721
G01 X66.6709 Y56.3005
G01 X66.6897 Y56.3256
G01 X66.6974 Y56.3370
G01 X66.7134 Y56.3640
G01 X66.7296 Y56.3984
G01 X66.7426 Y56.4347
G01 X66.7504 Y56.4651
G01 X66.7526 Y56.4752
G01 X66.7567 Y56.5028
G01 X66.7581 Y56.5165
G01 X66.7594 Y56.5479
G01 X66.7594 Y57.7479
G01 X66.7576 Y57.7861
G01 X66.7519 Y57.8240
G01 X66.7445 Y57.8545
G01 X66.7416 Y57.8644
G01 X66.7322 Y57.8907
G01 X66.7270 Y57.9034
G01 X66.7134 Y57.9317
G01 X66.6937 Y57.9646
G01 X66.6709 Y57.9953
G01 X66.6499 Y58.0187
G01 X66.6427 Y58.0261
G01 X66.6220 Y58.0449
G01 X66.6114 Y58.0536
G01 X66.5861 Y58.0722
G01 X66.5533 Y58.0918
G01 X66.5189 Y58.1081
G01 X66.4892 Y58.1189
G01 X66.4760 Y58.1229
G01 X66.4522 Y58.1289
G01 X66.4421 Y58.1310
G01 X66.4077 Y58.1360
G01 X66.3694 Y58.1379
G01 X64.9194 Y58.1379
G01 X64.8812 Y58.1360
G01 X64.8501 Y58.1316
G01 X64.8400 Y58.1297
G01 X64.8128 Y58.1229
G01 X64.7997 Y58.1189
G01 X64.7734 Y58.1095
G01 X64.7639 Y58.1054
G01 X64.7356 Y58.0918
G01 X64.7086 Y58.0758
G01 X64.6971 Y58.0682
G01 X64.6720 Y58.0494
G01 X64.6437 Y58.0237
G01 X64.6180 Y57.9953
G01 X64.5991 Y57.9702
G01 X64.5915 Y57.9588
G01 X64.5755 Y57.9317
G01 X64.5619 Y57.9034
G01 X64.5578 Y57.8939
G01 X64.5473 Y57.8644
G01 X64.5444 Y57.8545
G01 X64.5384 Y57.8307
G01 X64.5357 Y57.8172
G01 X64.5313 Y57.7861
G01 X64.5295 Y57.7513
G01 X64.5294 Y57.2921
G01 X64.1056 Y56.8683
G01 X56.9780 Y56.8683
G01 X56.9663 Y56.8718
G01 X56.8948 Y56.8896
G01 X56.8814 Y56.8923
G01 X56.8017 Y56.9040
G01 X56.7144 Y56.9083
G01 X53.2434 Y56.9083
G01 X53.2238 Y56.9153
G01 X53.2140 Y56.9184
G01 X53.1345 Y56.9383
G01 X53.1244 Y56.9405
G01 X53.0366 Y56.9534
G01 X52.9444 Y56.9579
G01 X52.8523 Y56.9534
G01 X52.7678 Y56.9410
G01 X52.7577 Y56.9391
G01 X52.6782 Y56.9192
G01 X52.6683 Y56.9164
G01 X52.5879 Y56.8876
G01 X52.5784 Y56.8835
G01 X52.5461 Y56.8683
G01 X49.1276 Y56.8681
G01 X49.0472 Y56.8640
G01 X48.9607 Y56.8512
G01 X48.8760 Y56.8299
G01 X48.8001 Y56.8030
G01 X48.7874 Y56.7977
G01 X48.7208 Y56.7662
G01 X48.7087 Y56.7597
G01 X48.6398 Y56.7182
G01 X48.5696 Y56.6662
G01 X48.5048 Y56.6075
G01 X48.4506 Y56.5479
G01 X48.4419 Y56.5373
G01 X48.3981 Y56.4782
G01 X48.3904 Y56.4667
G01 X48.3492 Y56.3976
G01 X48.3118 Y56.3186
G01 X48.2824 Y56.2363
G01 X48.2627 Y56.1583
G00 Z1.2500
G00 X48.2481 Y54.9402
G01 F50.00
G01 Z-0.0400
G01 F100.00
G01 X48.4214 Y54.8143
G01 X48.6122 Y54.7171
G01 X48.8158 Y54.6509
G01 X49.0274 Y54.6174
G01 X52.7495 Y54.6174
G01 X52.7605 Y54.6170
G01 X52.7873 Y54.6146
G01 X52.8334 Y54.6074
G01 X53.0554 Y54.6074
G01 X53.2747 Y54.6421
G01 X53.2890 Y54.6465
G01 X53.3033 Y54.6496
G01 X53.3453 Y54.6562
G01 X53.3562 Y54.6572
G01 X53.3635 Y54.6574
G01 X56.3757 Y54.6574
G01 X56.3898 Y54.6567
G01 X56.4202 Y54.6534
G01 X56.6474 Y54.6174
G01 X64.5815 Y54.6174
G01 X64.7930 Y54.6509
G01 X64.9967 Y54.7171
G01 X65.1875 Y54.8143
G01 X65.3607 Y54.9402
G01 X66.0306 Y55.6101
G01 X66.0389 Y55.6177
G01 X66.0624 Y55.6367
G01 X66.0707 Y55.6429
G01 X66.0764 Y55.6466
G01 X66.0854 Y55.6518
G01 X66.0916 Y55.6548
G01 X66.1011 Y55.6588
G01 X66.1076 Y55.6610
G01 X66.1811 Y55.6826
G01 X66.1908 Y55.6849
G01 X66.2007 Y55.6864
G01 X66.2173 Y55.6874
G01 X66.4213 Y55.6874
G01 X66.5212 Y55.6963
G01 X66.6903 Y55.7447
G01 X66.8454 Y55.8257
G01 X66.9810 Y55.9363
G01 X67.0916 Y56.0719
G01 X67.1727 Y56.2270
G01 X67.2210 Y56.3962
G01 X67.2299 Y56.4961
G01 X67.2299 Y57.7997
G01 X67.2210 Y57.8996
G01 X67.2056 Y57.9538
G01 X67.2006 Y57.9765
G01 X67.1993 Y57.9834
G01 X67.1980 Y57.9939
G01 X67.1975 Y58.0045
G01 X67.1976 Y58.0116
G01 X67.1989 Y58.0257
G01 X67.2094 Y58.0983
G01 X67.2115 Y58.1085
G01 X67.2134 Y58.1152
G01 X67.2155 Y58.1218
G01 X67.2194 Y58.1315
G01 X67.2223 Y58.1378
G01 X67.2274 Y58.1469
G01 X67.2331 Y58.1556
G01 X67.2372 Y58.1612
G01 X67.2874 Y58.2194
G01 X67.2945 Y58.2270
G01 X67.3048 Y58.2363
G01 X67.3160 Y58.2445
G01 X67.3280 Y58.2516
G01 X67.3406 Y58.2575
G01 X67.3537 Y58.2620
G01 X67.4240 Y58.2826
G01 X67.4370 Y58.2854
G01 X67.4469 Y58.2867
G01 X67.4602 Y58.2874
G01 X67.9765 Y58.2874
G01 X68.1880 Y58.3209
G01 X68.3917 Y58.3871
G01 X68.5825 Y58.4843
G01 X68.7557 Y58.6102
G01 X71.4455 Y61.3000
G01 X71.4552 Y61.3386
G01 X71.4581 Y61.3485
G01 X71.4885 Y61.4336
G01 X71.4926 Y61.4430
G01 X71.5282 Y61.5184
G01 X71.5330 Y61.5277
G01 X71.5813 Y61.6079
G01 X71.6349 Y61.6805
G01 X71.6436 Y61.6911
G01 X71.6997 Y61.7529
G01 X71.7069 Y61.7603
G01 X71.7764 Y61.8232
G01 X71.8488 Y61.8771
G01 X71.8602 Y61.8847
G01 X71.9347 Y61.9293
G01 X71.9439 Y61.9341
G01 X72.0193 Y61.9697
G01 X72.0288 Y61.9738
G01 X72.1138 Y62.0042
G01 X72.1237 Y62.0071
G01 X72.1624 Y62.0168
G01 X72.2111 Y62.0652
G01 X72.2401 Y62.0888
G01 X72.2485 Y62.0948
G01 X72.2574 Y62.1001
G01 X72.2697 Y62.1062
G01 X72.2826 Y62.1110
G01 X72.3561 Y62.1326
G01 X72.3724 Y62.1360
G01 X72.3823 Y62.1370
G01 X72.3923 Y62.1374
G01 X73.2973 Y62.1374
G01 X73.3777 Y62.1456
G01 X73.5142 Y62.1908
G01 X73.5290 Y62.1999
G01 X73.5383 Y62.2049
G01 X73.5479 Y62.2091
G01 X73.5579 Y62.2126
G01 X73.6332 Y62.2338
G01 X73.6435 Y62.2358
G01 X73.6505 Y62.2367
G01 X73.6646 Y62.2374
G01 X90.6390 Y62.2372
G01 X90.6729 Y62.2337
G01 X90.6831 Y62.2323
G01 X90.6898 Y62.2309
G01 X90.6997 Y62.2282
G01 X90.7126 Y62.2234
G01 X90.7250 Y62.2174
G01 X90.7892 Y62.1823
G01 X90.8031 Y62.1731
G01 X90.8158 Y62.1624
G01 X91.3211 Y61.6569
G01 X91.3303 Y61.6455
G01 X91.3552 Y61.6111
G01 X91.3611 Y61.6018
G01 X91.3681 Y61.5886
G01 X91.4986 Y61.4090
G01 X91.6556 Y61.2520
G01 X91.8352 Y61.1215
G01 X92.0330 Y61.0207
G01 X92.2441 Y60.9521
G01 X92.4634 Y60.9174
G01 X92.6854 Y60.9174
G01 X92.7473 Y60.9272
G01 X92.9047 Y60.9521
G01 X93.1159 Y61.0207
G01 X93.3137 Y61.1215
G01 X93.4933 Y61.2520
G01 X93.6503 Y61.4090
G01 X93.7808 Y61.5886
G01 X93.8816 Y61.7864
G01 X93.9502 Y61.9976
G01 X93.9849 Y62.2169
G01 X93.9849 Y62.4389
G01 X93.9502 Y62.6582
G01 X93.8816 Y62.8693
G01 X93.7808 Y63.0671
G01 X93.6503 Y63.2468
G01 X93.4933 Y63.4038
G01 X93.3137 Y63.5342
G01 X93.3005 Y63.5412
G01 X93.2882 Y63.5492
G01 X93.2539 Y63.5742
G01 X93.2427 Y63.5837
G01 X92.1907 Y64.6356
G01 X92.0175 Y64.7615
G01 X91.8267 Y64.8587
G01 X91.6230 Y64.9249
G01 X91.4115 Y64.9584
G01 X73.6646 Y64.9584
G01 X73.6540 Y64.9588
G01 X73.6470 Y64.9595
G01 X73.6332 Y64.9619
G01 X73.5579 Y64.9832
G01 X73.5479 Y64.9867
G01 X73.5383 Y64.9909
G01 X73.5290 Y64.9959
G01 X73.5142 Y65.0050
G01 X73.3777 Y65.0502
G01 X73.2973 Y65.0584
G01 X71.5116 Y65.0584
G01 X71.4311 Y65.0502
G01 X71.2947 Y65.0050
G01 X71.1732 Y64.9300
G01 X71.0723 Y64.8291
G01 X70.9927 Y64.7003
G01 X70.9822 Y64.6869
G01 X70.9449 Y64.6467
G01 X70.9348 Y64.6373
G01 X67.5101 Y61.2126
G01 X67.4999 Y61.2034
G01 X67.4945 Y61.1991
G01 X67.4859 Y61.1933
G01 X67.4590 Y61.1779
G01 X67.4398 Y61.1644
G01 X67.4277 Y61.1574
G01 X67.4183 Y61.1531
G01 X67.4085 Y61.1494
G01 X67.3909 Y61.1441
G01 X67.3777 Y61.1411
G01 X67.3676 Y61.1397
G01 X67.3574 Y61.1390
G01 X67.3473 Y61.1391
G01 X67.3243 Y61.1401
G01 X67.2978 Y61.1388
G01 X67.2839 Y61.1392
G01 X67.2701 Y61.1409
G01 X67.2599 Y61.1431
G01 X67.2400 Y61.1489
G01 X67.2302 Y61.1525
G01 X67.2207 Y61.1568
G01 X67.2115 Y61.1618
G01 X67.2028 Y61.1675
G01 X67.1840 Y61.1808
G01 X67.1610 Y61.1940
G01 X67.1495 Y61.2019
G01 X67.1414 Y61.2084
G01 X67.1339 Y61.2156
G01 X67.1200 Y61.2311
G01 X67.1136 Y61.2393
G01 X67.1059 Y61.2509
G01 X67.1009 Y61.2600
G01 X67.0966 Y61.2695
G01 X67.0880 Y61.2909
G01 X67.0758 Y61.3145
G01 X67.0704 Y61.3272
G01 X67.0662 Y61.3405
G01 X67.0634 Y61.3541
G01 X67.0606 Y61.3747
G01 X67.0601 Y61.3886
G01 X67.0606 Y61.3990
G01 X67.0614 Y61.4059
G01 X67.0667 Y61.4354
G01 X67.0702 Y61.4683
G01 X67.0730 Y61.4813
G01 X67.0782 Y61.4971
G01 X67.0857 Y61.5141
G01 X67.1229 Y61.5872
G01 X67.1600 Y61.7013
G01 X67.1674 Y61.7202
G01 X67.1722 Y61.7297
G01 X67.1810 Y61.7438
G01 X67.1903 Y61.7612
G01 X67.1956 Y61.7699
G01 X67.2037 Y61.7808
G01 X67.2207 Y61.8000
G01 X71.1366 Y65.7161
G01 X71.1449 Y65.7237
G01 X71.1711 Y65.7448
G01 X71.1824 Y65.7526
G01 X71.1945 Y65.7593
G01 X71.2039 Y65.7635
G01 X71.2136 Y65.7670
G01 X71.2871 Y65.7886
G01 X71.3034 Y65.7920
G01 X71.3133 Y65.7930
G01 X71.3233 Y65.7934
G01 X77.6895 Y65.7934
G01 X77.9010 Y65.8269
G01 X78.1047 Y65.8931
G01 X78.2955 Y65.9903
G01 X78.4687 Y66.1162
G01 X80.3982 Y68.0456
G01 X80.5240 Y68.2188
G01 X80.6213 Y68.4096
G01 X80.6874 Y68.6133
G01 X80.7209 Y68.8248
G01 X80.7209 Y76.0240
G01 X80.6874 Y76.2355
G01 X80.6213 Y76.4391
G01 X80.6085 Y76.4644
G01 X80.6027 Y76.4798
G01 X80.5904 Y76.5184
G01 X80.5876 Y76.5285
G01 X80.5851 Y76.5423
G01 X80.5841 Y76.5527
G01 X80.5839 Y76.5597
G01 X80.5842 Y76.5702
G01 X80.5848 Y76.5772
G01 X80.5964 Y76.6567
G01 X80.5988 Y76.6668
G01 X80.6019 Y76.6768
G01 X80.6044 Y76.6833
G01 X80.6087 Y76.6928
G01 X80.6156 Y76.7049
G01 X80.6236 Y76.7162
G01 X80.6761 Y76.7770
G01 X80.6834 Y76.7844
G01 X80.6912 Y76.7913
G01 X80.6995 Y76.7976
G01 X80.7083 Y76.8032
G01 X80.7206 Y76.8097
G01 X80.7335 Y76.8149
G01 X80.8072 Y76.8367
G01 X80.8168 Y76.8392
G01 X80.8267 Y76.8410
G01 X80.8366 Y76.8420
G01 X80.8466 Y76.8424
G01 X90.7585 Y76.8424
G01 X90.7735 Y76.8416
G01 X90.8033 Y76.8383
G01 X90.8134 Y76.8366
G01 X90.8267 Y76.8332
G01 X90.8396 Y76.8284
G01 X90.8520 Y76.8224
G01 X90.9162 Y76.7873
G01 X90.9301 Y76.7781
G01 X90.9428 Y76.7674
G01 X91.4481 Y76.2619
G01 X91.4573 Y76.2505
G01 X91.4822 Y76.2161
G01 X91.4881 Y76.2068
G01 X91.4951 Y76.1936
G01 X91.6256 Y76.0140
G01 X91.7826 Y75.8570
G01 X91.9622 Y75.7265
G01 X92.1600 Y75.6257
G01 X92.3711 Y75.5571
G01 X92.5904 Y75.5224
G01 X92.8124 Y75.5224
G01 X93.0317 Y75.5571
G01 X93.2429 Y75.6257
G01 X93.4407 Y75.7265
G01 X93.6203 Y75.8570
G01 X93.7773 Y76.0140
G01 X93.9078 Y76.1936
G01 X94.0086 Y76.3914
G01 X94.0772 Y76.6026
G01 X94.1119 Y76.8219
G01 X94.1119 Y77.0439
G01 X94.0772 Y77.2632
G01 X94.0086 Y77.4743
G01 X93.9078 Y77.6721
G01 X93.7773 Y77.8518
G01 X93.6203 Y78.0088
G01 X93.4407 Y78.1392
G01 X93.4275 Y78.1462
G01 X93.4152 Y78.1542
G01 X93.3809 Y78.1792
G01 X93.3697 Y78.1887
G01 X92.3177 Y79.2406
G01 X92.1445 Y79.3665
G01 X91.9537 Y79.4637
G01 X91.7500 Y79.5299
G01 X91.5385 Y79.5634
G01 X73.7916 Y79.5634
G01 X73.7810 Y79.5638
G01 X73.7740 Y79.5645
G01 X73.7602 Y79.5669
G01 X73.6849 Y79.5882
G01 X73.6749 Y79.5917
G01 X73.6653 Y79.5959
G01 X73.6560 Y79.6009
G01 X73.6412 Y79.6100
G01 X73.5047 Y79.6552
G01 X73.4243 Y79.6634
G01 X71.6386 Y79.6634
G01 X71.5581 Y79.6552
G01 X71.4217 Y79.6100
G01 X71.3002 Y79.5350
G01 X71.1993 Y79.4341
G01 X71.1244 Y79.3126
G01 X71.0791 Y79.1762
G01 X71.0709 Y79.0958
G01 X71.0709 Y77.3100
G01 X71.0791 Y77.2296
G01 X71.1244 Y77.0931
G01 X71.1993 Y76.9716
G01 X71.3002 Y76.8707
G01 X71.4217 Y76.7958
G01 X71.5581 Y76.7506
G01 X71.6386 Y76.7424
G01 X73.4243 Y76.7424
G01 X73.5047 Y76.7506
G01 X73.6412 Y76.7958
G01 X73.6560 Y76.8049
G01 X73.6653 Y76.8099
G01 X73.6749 Y76.8141
G01 X73.6849 Y76.8176
G01 X73.7602 Y76.8388
G01 X73.7740 Y76.8413
G01 X73.7880 Y76.8423
G01 X76.4015 Y76.8424
G01 X76.4128 Y76.8419
G01 X76.4429 Y76.8387
G01 X76.4531 Y76.8373
G01 X76.4598 Y76.8359
G01 X76.4664 Y76.8341
G01 X76.4762 Y76.8309
G01 X76.4858 Y76.8270
G01 X76.4950 Y76.8224
G01 X76.5621 Y76.7856
G01 X76.5758 Y76.7761
G01 X76.5858 Y76.7674
G01 X77.9226 Y75.4307
G01 X77.9326 Y75.4195
G01 X77.9514 Y75.3962
G01 X77.9573 Y75.3878
G01 X77.9627 Y75.3789
G01 X77.9673 Y75.3698
G01 X77.9713 Y75.3603
G01 X77.9746 Y75.3505
G01 X77.9960 Y75.2770
G01 X77.9989 Y75.2606
G01 X77.9999 Y75.2440
G01 X77.9999 Y69.6048
G01 X77.9991 Y69.5898
G01 X77.9954 Y69.5566
G01 X77.9926 Y69.5432
G01 X77.9896 Y69.5333
G01 X77.9873 Y69.5269
G01 X77.9831 Y69.5174
G01 X77.9800 Y69.5113
G01 X77.9449 Y69.4471
G01 X77.9357 Y69.4332
G01 X77.9249 Y69.4205
G01 X77.0908 Y68.5866
G01 X77.0644 Y68.5651
G01 X77.0562 Y68.5589
G01 X77.0445 Y68.5516
G01 X77.0322 Y68.5456
G01 X77.0226 Y68.5418
G01 X77.0160 Y68.5397
G01 X76.9490 Y68.5201
G01 X76.9393 Y68.5176
G01 X76.9295 Y68.5158
G01 X76.9195 Y68.5147
G01 X76.9095 Y68.5144
G01 X70.5434 Y68.5144
G01 X70.3318 Y68.4809
G01 X70.1282 Y68.4147
G01 X69.9374 Y68.3175
G01 X69.7641 Y68.1916
G01 X65.1717 Y63.5993
G01 X65.1618 Y63.5906
G01 X65.1511 Y63.5830
G01 X65.0989 Y63.5510
G01 X65.0873 Y63.5446
G01 X65.0783 Y63.5406
G01 X65.0690 Y63.5372
G01 X64.9588 Y63.5014
G01 X64.7540 Y63.3970
G01 X64.5680 Y63.2619
G01 X64.4054 Y63.0993
G01 X64.2703 Y62.9134
G01 X64.1659 Y62.7085
G01 X64.0949 Y62.4899
G01 X64.0589 Y62.2628
G01 X64.0589 Y62.0329
G01 X64.0949 Y61.8059
G01 X64.1659 Y61.5872
G01 X64.2703 Y61.3824
G01 X64.4054 Y61.1964
G01 X64.5173 Y61.0846
G01 X64.5241 Y61.0772
G01 X64.5342 Y61.0640
G01 X64.5682 Y61.0109
G01 X64.5746 Y60.9985
G01 X64.5796 Y60.9854
G01 X64.5826 Y60.9754
G01 X64.5853 Y60.9616
G01 X64.5864 Y60.9512
G01 X64.5914 Y60.8815
G01 X64.5918 Y60.8746
G01 X64.5916 Y60.8641
G01 X64.5902 Y60.8503
G01 X64.5882 Y60.8401
G01 X64.5844 Y60.8267
G01 X64.5793 Y60.8138
G01 X64.5747 Y60.8044
G01 X64.5412 Y60.7431
G01 X64.5323 Y60.7290
G01 X64.5241 Y60.7185
G01 X64.5173 Y60.7112
G01 X64.4054 Y60.5993
G01 X64.2703 Y60.4134
G01 X64.1659 Y60.2085
G01 X64.0949 Y59.9899
G01 X64.0589 Y59.7628
G01 X64.0589 Y59.5329
G01 X64.0949 Y59.3059
G01 X64.1659 Y59.0872
G01 X64.2703 Y58.8824
G01 X64.3798 Y58.7314
G01 X64.3879 Y58.7173
G01 X64.4118 Y58.6665
G01 X64.4155 Y58.6567
G01 X64.4184 Y58.6467
G01 X64.4210 Y58.6331
G01 X64.4221 Y58.6227
G01 X64.4224 Y58.6088
G01 X64.4202 Y58.5355
G01 X64.4196 Y58.5286
G01 X64.4181 Y58.5182
G01 X64.4159 Y58.5080
G01 X64.4129 Y58.4981
G01 X64.4105 Y58.4915
G01 X64.4063 Y58.4820
G01 X64.4014 Y58.4728
G01 X64.3978 Y58.4669
G01 X64.3563 Y58.4063
G01 X64.3483 Y58.3957
G01 X64.3416 Y58.3883
G01 X64.3344 Y58.3814
G01 X64.3078 Y58.3595
G01 X64.1972 Y58.2239
G01 X64.1162 Y58.0687
G01 X64.0678 Y57.8996
G01 X64.0589 Y57.7997
G01 X64.0589 Y57.6024
G01 X64.0586 Y57.5924
G01 X64.0564 Y57.5759
G01 X64.0429 Y57.5143
G01 X64.0397 Y57.5043
G01 X64.0373 Y57.4978
G01 X64.0313 Y57.4851
G01 X64.0241 Y57.4731
G01 X64.0158 Y57.4619
G01 X63.9678 Y57.4064
G01 X63.9607 Y57.3988
G01 X63.9530 Y57.3917
G01 X63.9448 Y57.3852
G01 X63.9332 Y57.3776
G01 X63.9241 Y57.3726
G01 X63.9145 Y57.3683
G01 X63.9047 Y57.3648
G01 X63.8312 Y57.3432
G01 X63.8149 Y57.3398
G01 X63.8049 Y57.3387
G01 X63.7949 Y57.3384
G01 X57.0932 Y57.3384
G01 X57.0791 Y57.3391
G01 X57.0487 Y57.3424
G01 X56.8215 Y57.3784
G01 X53.3599 Y57.3784
G01 X53.3453 Y57.3796
G01 X53.3033 Y57.3862
G01 X53.2890 Y57.3892
G01 X53.2747 Y57.3937
G01 X53.0554 Y57.4284
G01 X52.8334 Y57.4284
G01 X52.6141 Y57.3937
G01 X52.4768 Y57.3492
G01 X52.4661 Y57.3468
G01 X52.4241 Y57.3401
G01 X52.4169 Y57.3392
G01 X52.4059 Y57.3384
G01 X49.0274 Y57.3384
G01 X48.8158 Y57.3049
G01 X48.6122 Y57.2387
G01 X48.4214 Y57.1415
G01 X48.2481 Y57.0156
G01 X48.0967 Y56.8642
G01 X47.9708 Y56.6909
G01 X47.8736 Y56.5001
G01 X47.8074 Y56.2965
G01 X47.7739 Y56.0850
G01 X47.7739 Y55.8708
G01 X47.8074 Y55.6593
G01 X47.8736 Y55.4556
G01 X47.9708 Y55.2648
G01 X48.0967 Y55.0916
G01 X48.2481 Y54.9402
G00 Z1.2500
G00 X38.9896 Y56.5545
G01 F50.00
G01 Z-0.0400
G01 F100.00
G01 X48.9890 Y46.5550
G01 X49.1963 Y46.3897
G01 X49.4208 Y46.2487
G01 X49.6597 Y46.1336
G01 X49.9099 Y46.0461
G01 X50.1684 Y45.9871
G01 X50.4319 Y45.9574
G01 X50.6970 Y45.9574
G01 X50.9605 Y45.9871
G01 X51.2189 Y46.0461
G01 X51.4692 Y46.1336
G01 X51.7080 Y46.2487
G01 X51.9325 Y46.3897
G01 X52.1398 Y46.5550
G01 X52.3273 Y46.7425
G01 X52.4926 Y46.9498
G01 X52.6336 Y47.1743
G01 X52.7389 Y47.3927
G01 X52.7487 Y47.4131
G01 X52.8362 Y47.6634
G01 X52.8952 Y47.9219
G01 X52.9249 Y48.1853
G01 X52.9249 Y48.4504
G01 X52.8952 Y48.7139
G01 X52.8362 Y48.9724
G01 X52.7487 Y49.2226
G01 X52.6336 Y49.4615
G01 X52.4926 Y49.6860
G01 X52.3273 Y49.8933
G01 X43.1903 Y59.0303
G01 X43.1802 Y59.0415
G01 X43.1594 Y59.0676
G01 X43.1519 Y59.0790
G01 X43.1455 Y59.0912
G01 X43.1416 Y59.1007
G01 X43.1383 Y59.1105
G01 X43.1186 Y59.1775
G01 X43.1155 Y59.1905
G01 X43.1136 Y59.2037
G01 X43.1129 Y59.2170
G01 X43.1129 Y102.3385
G01 X43.0832 Y102.6019
G01 X43.0242 Y102.8604
G01 X42.9367 Y103.1106
G01 X42.8217 Y103.3495
G01 X42.6806 Y103.5740
G01 X42.5153 Y103.7813
G01 X42.3278 Y103.9687
G01 X42.1205 Y104.1340
G01 X41.8960 Y104.2751
G01 X41.6572 Y104.3901
G01 X41.4069 Y104.4777
G01 X41.1484 Y104.5367
G01 X40.8850 Y104.5664
G01 X40.6199 Y104.5664
G01 X40.3564 Y104.5367
G01 X40.0979 Y104.4777
G01 X39.8477 Y104.3901
G01 X39.6088 Y104.2751
G01 X39.3843 Y104.1340
G01 X39.1770 Y103.9687
G01 X38.9896 Y103.7813
G01 X38.8243 Y103.5740
G01 X38.6832 Y103.3495
G01 X38.5682 Y103.1106
G01 X38.4806 Y102.8604
G01 X38.4216 Y102.6019
G01 X38.3919 Y102.3385
G01 X38.3919 Y57.9973
G01 X38.4216 Y57.7339
G01 X38.4806 Y57.4754
G01 X38.5682 Y57.2251
G01 X38.6832 Y56.9863
G01 X38.8243 Y56.7618
G01 X38.9896 Y56.5545
G00 Z1.2500
G00 X71.7370 Y83.9388
G01 F50.00
G01 Z-0.0400
G01 F100.00
G01 X71.9418 Y83.8344
G01 X72.1604 Y83.7633
G01 X72.3875 Y83.7274
G01 X72.6174 Y83.7274
G01 X72.8444 Y83.7633
G01 X73.0631 Y83.8344
G01 X73.2679 Y83.9388
G01 X73.4539 Y84.0739
G01 X73.6164 Y84.2364
G01 X73.7516 Y84.4224
G01 X73.8194 Y84.5556
G01 X73.8559 Y84.6272
G01 X73.9270 Y84.8459
G01 X73.9629 Y85.0729
G01 X73.9629 Y85.3028
G01 X73.9270 Y85.5299
G01 X73.8559 Y85.7485
G01 X73.7516 Y85.9534
G01 X73.6164 Y86.1393
G01 X73.4822 Y86.2736
G01 X73.4735 Y86.2837
G01 X73.4658 Y86.2945
G01 X73.4337 Y86.3448
G01 X73.4303 Y86.3510
G01 X73.4259 Y86.3605
G01 X73.4212 Y86.3737
G01 X73.4177 Y86.3872
G01 X73.4157 Y86.4011
G01 X73.4104 Y86.4743
G01 X73.4101 Y86.4847
G01 X73.4108 Y86.4986
G01 X73.4129 Y86.5123
G01 X73.4154 Y86.5224
G01 X73.4198 Y86.5356
G01 X73.4240 Y86.5452
G01 X73.4272 Y86.5513
G01 X73.4607 Y86.6127
G01 X73.4658 Y86.6213
G01 X73.4735 Y86.6321
G01 X73.4822 Y86.6422
G01 X73.6164 Y86.7764
G01 X73.7516 Y86.9624
G01 X73.8559 Y87.1672
G01 X73.9270 Y87.3859
G01 X73.9629 Y87.6129
G01 X73.9629 Y87.8428
G01 X73.9270 Y88.0699
G01 X73.8559 Y88.2885
G01 X73.7516 Y88.4934
G01 X73.6164 Y88.6793
G01 X73.4539 Y88.8419
G01 X73.2679 Y88.9770
G01 X73.0631 Y89.0814
G01 X72.8444 Y89.1524
G01 X72.6174 Y89.1884
G01 X72.3875 Y89.1884
G01 X72.1604 Y89.1524
G01 X71.9418 Y89.0814
G01 X71.7370 Y88.9770
G01 X71.5510 Y88.8419
G01 X71.3884 Y88.6793
G01 X71.2533 Y88.4934
G01 X71.1489 Y88.2885
G01 X71.0779 Y88.0699
G01 X71.0419 Y87.8428
G01 X71.0419 Y87.6129
G01 X71.0779 Y87.3859
G01 X71.1489 Y87.1672
G01 X71.2533 Y86.9624
G01 X71.3884 Y86.7764
G01 X71.5226 Y86.6422
G01 X71.5313 Y86.6321
G01 X71.5391 Y86.6213
G01 X71.5712 Y86.5709
G01 X71.5745 Y86.5648
G01 X71.5790 Y86.5553
G01 X71.5837 Y86.5421
G01 X71.5871 Y86.5285
G01 X71.5892 Y86.5147
G01 X71.5944 Y86.4415
G01 X71.5948 Y86.4311
G01 X71.5941 Y86.4172
G01 X71.5919 Y86.4035
G01 X71.5895 Y86.3933
G01 X71.5850 Y86.3802
G01 X71.5823 Y86.3738
G01 X71.5777 Y86.3644
G01 X71.5442 Y86.3031
G01 X71.5391 Y86.2945
G01 X71.5313 Y86.2837
G01 X71.5226 Y86.2736
G01 X71.3884 Y86.1393
G01 X71.2533 Y85.9534
G01 X71.1489 Y85.7485
G01 X71.0779 Y85.5299
G01 X71.0419 Y85.3028
G01 X71.0419 Y85.0729
G01 X71.0779 Y84.8459
G01 X71.1489 Y84.6272
G01 X71.2533 Y84.4224
G01 X71.3884 Y84.2364
G01 X71.5510 Y84.0739
G01 X71.7370 Y83.9388
G00 Z1.2500
G00 X71.5532 Y85.4686
G01 F50.00
G01 Z-0.0400
G01 F100.00
G01 X71.5315 Y85.3810
G01 X71.5172 Y85.2849
G01 X71.5124 Y85.1879
G01 X71.5172 Y85.0908
G01 X71.5315 Y84.9947
G01 X71.5551 Y84.9005
G01 X71.5878 Y84.8090
G01 X71.6293 Y84.7212
G01 X71.6793 Y84.6379
G01 X71.7371 Y84.5598
G01 X71.8024 Y84.4878
G01 X71.8744 Y84.4226
G01 X71.9524 Y84.3647
G01 X72.0357 Y84.3148
G01 X72.1236 Y84.2732
G01 X72.2150 Y84.2405
G01 X72.3093 Y84.2169
G01 X72.4054 Y84.2027
G01 X72.5024 Y84.1979
G01 X72.5995 Y84.2027
G01 X72.6956 Y84.2169
G01 X72.7898 Y84.2405
G01 X72.8813 Y84.2732
G01 X72.9691 Y84.3148
G01 X73.0524 Y84.3647
G01 X73.1305 Y84.4226
G01 X73.2025 Y84.4878
G01 X73.2677 Y84.5598
G01 X73.3256 Y84.6379
G01 X73.3755 Y84.7211
G01 X73.4171 Y84.8090
G01 X73.4498 Y84.9005
G01 X73.4734 Y84.9947
G01 X73.4877 Y85.0908
G01 X73.4924 Y85.1879
G01 X73.4877 Y85.2849
G01 X73.4734 Y85.3810
G01 X73.4498 Y85.4753
G01 X73.4171 Y85.5667
G01 X73.3755 Y85.6546
G01 X73.3256 Y85.7379
G01 X73.2677 Y85.8159
G01 X73.2025 Y85.8879
G01 X73.1305 Y85.9532
G01 X73.0524 Y86.0110
G01 X72.9692 Y86.0610
G01 X72.8813 Y86.1025
G01 X72.7898 Y86.1353
G01 X72.6956 Y86.1589
G01 X72.5995 Y86.1731
G01 X72.5024 Y86.1779
G01 X72.4054 Y86.1731
G01 X72.3093 Y86.1589
G01 X72.2150 Y86.1353
G01 X72.1236 Y86.1025
G01 X72.0357 Y86.0610
G01 X71.9524 Y86.0110
G01 X71.8744 Y85.9532
G01 X71.8024 Y85.8879
G01 X71.7371 Y85.8159
G01 X71.6793 Y85.7379
G01 X71.6294 Y85.6546
G01 X71.5878 Y85.5667
G01 X71.5572 Y85.4818
G01 X71.5532 Y85.4686
G00 Z1.2500
G00 X71.5330 Y87.9277
G01 F50.00
G01 Z-0.0400
G01 F100.00
G01 X71.5303 Y87.9143
G01 X71.5172 Y87.8249
G01 X71.5124 Y87.7279
G01 X71.5172 Y87.6308
G01 X71.5315 Y87.5347
G01 X71.5551 Y87.4405
G01 X71.5878 Y87.3490
G01 X71.6293 Y87.2612
G01 X71.6793 Y87.1779
G01 X71.7371 Y87.0998
G01 X71.8024 Y87.0278
G01 X71.8744 Y86.9626
G01 X71.9524 Y86.9047
G01 X72.0357 Y86.8548
G01 X72.1236 Y86.8132
G01 X72.2150 Y86.7805
G01 X72.3093 Y86.7569
G01 X72.4054 Y86.7427
G01 X72.5024 Y86.7379
G01 X72.5995 Y86.7427
G01 X72.6956 Y86.7569
G01 X72.7898 Y86.7805
G01 X72.8813 Y86.8132
G01 X72.9691 Y86.8548
G01 X73.0524 Y86.9047
G01 X73.1305 Y86.9626
G01 X73.2025 Y87.0278
G01 X73.2677 Y87.0998
G01 X73.3256 Y87.1779
G01 X73.3755 Y87.2611
G01 X73.4171 Y87.3490
G01 X73.4498 Y87.4405
G01 X73.4734 Y87.5347
G01 X73.4877 Y87.6308
G01 X73.4924 Y87.7279
G01 X73.4877 Y87.8249
G01 X73.4734 Y87.9210
G01 X73.4498 Y88.0153
G01 X73.4171 Y88.1067
G01 X73.3755 Y88.1946
G01 X73.3256 Y88.2779
G01 X73.2677 Y88.3559
G01 X73.2025 Y88.4279
G01 X73.1305 Y88.4932
G01 X73.0524 Y88.5510
G01 X72.9692 Y88.6010
G01 X72.8813 Y88.6425
G01 X72.7898 Y88.6753
G01 X72.6956 Y88.6989
G01 X72.5995 Y88.7131
G01 X72.5024 Y88.7179
G01 X72.4054 Y88.7131
G01 X72.3093 Y88.6989
G01 X72.2150 Y88.6753
G01 X72.1236 Y88.6425
G01 X72.0357 Y88.6010
G01 X71.9524 Y88.5510
G01 X71.8744 Y88.4932
G01 X71.8024 Y88.4279
G01 X71.7371 Y88.3559
G01 X71.6793 Y88.2779
G01 X71.6294 Y88.1946
G01 X71.5878 Y88.1067
G01 X71.5551 Y88.0153
G01 X71.5330 Y87.9277
G00 Z1.2500
G00 X66.9616 Y94.2468
G01 F50.00
G01 Z-0.0400
G01 F100.00
G01 X66.9513 Y94.2477
G01 X66.9444 Y94.2479
G01 X64.3410 Y94.2478
G01 X64.3273 Y94.2468
G01 X64.3138 Y94.2445
G01 X64.3005 Y94.2408
G01 X64.2877 Y94.2359
G01 X64.2754 Y94.2297
G01 X64.2638 Y94.2223
G01 X64.2530 Y94.2139
G01 X64.2430 Y94.2044
G01 X64.2341 Y94.1940
G01 X64.2262 Y94.1828
G01 X64.2194 Y94.1708
G01 X64.2151 Y94.1615
G01 X64.2105 Y94.1485
G01 X64.2071 Y94.1352
G01 X64.2051 Y94.1216
G01 X64.2045 Y94.1113
G01 X64.2044 Y91.5079
G01 X64.2051 Y91.4942
G01 X64.2059 Y91.4873
G01 X64.2078 Y91.4772
G01 X64.2115 Y91.4640
G01 X64.2164 Y91.4512
G01 X64.2226 Y91.4389
G01 X64.2300 Y91.4273
G01 X64.2384 Y91.4164
G01 X64.2479 Y91.4065
G01 X64.2556 Y91.3997
G01 X64.2667 Y91.3915
G01 X64.2784 Y91.3844
