(G-CODE GENERATED BY FLATCAM v2024.4 - www.flatcam.org - Version Date: 2024/04/15)

(Name: power_board-B_Cu.gbr_iso_combined_1_cnc)
(Type: G-code from Geometry)
(Units: MM)

(Created on Monday, 06 October 2025 at 16:20)

(This preprocessor is the default preprocessor used by FlatCAM.)
(It is made to work with MACH3 compatible motion controllers.)

(TOOL DIAMETER: 0.32 mm)
(Feedrate_XY: 120.0 mm/min)
(Feedrate_Z: 60.0 mm/min)
(Feedrate rapids 1500.0 mm/min)

(Z_Cut: -0.005 mm)
(Z_Move: 1.25 mm)
(Z Start: None mm)
(Z End: 15.0 mm)
(X,Y End: None mm)
(Steps per circle: 64)
(Preprocessor Geometry: default)

(X range:   20.6449 ...  133.8165  mm)
(Y range:    6.6076 ...  143.4482  mm)

(Spindle Speed: 0.0 RPM)
G21
G90
G94

G01 F120.00

M5
G00 Z15.0000
G00 X0.0000 Y0.0000
T1
M6    
(MSG, Change to Tool Dia = 0.3200)
M0
G00 Z15.0000

M03
G01 F120.00
G00 X35.6119 Y14.4547
G01 F60.00
G01 Z-0.0050
G01 F120.00
G01 X35.6126 Y14.4458
G01 X35.6148 Y14.4314
G01 X35.6164 Y14.4170
G01 X35.6180 Y14.4082
G01 X35.6211 Y14.3952
G01 X35.6253 Y14.3824
G01 X35.6285 Y14.3741
G01 X35.6342 Y14.3619
G01 X35.6409 Y14.3496
G01 X35.6455 Y14.3364
G01 X35.6505 Y14.3242
G01 X35.6586 Y14.3086
G01 X35.6682 Y14.2938
G01 X35.6763 Y14.2834
G01 X35.6837 Y14.2751
G01 X35.6933 Y14.2634
G01 X35.6994 Y14.2567
G01 X35.7060 Y14.2504
G01 X35.7163 Y14.2416
G01 X35.7516 Y14.2152
G01 X35.7624 Y14.2081
G01 X35.9645 Y14.0975
G01 X37.3759 Y13.3686
G01 X38.8041 Y12.6723
G01 X40.2563 Y12.0053
G01 X41.7152 Y11.3755
G01 X43.1921 Y10.7781
G01 X44.6760 Y10.2172
G01 X46.1749 Y9.6898
G01 X47.6876 Y9.1964
G01 X49.2158 Y8.7366
G01 X50.7496 Y8.3136
G01 X52.2903 Y7.9266
G01 X53.8445 Y7.5742
G01 X55.4014 Y7.2587
G01 X56.9703 Y6.9782
G01 X58.5398 Y6.7349
G01 X59.4961 Y6.6091
G01 X59.5046 Y6.6082
G01 X59.5175 Y6.6076
G01 X59.5303 Y6.6079
G01 X59.5431 Y6.6091
G01 X59.6252 Y6.6221
G01 X59.6425 Y6.6266
G01 X59.6551 Y6.6311
G01 X59.6674 Y6.6365
G01 X59.6792 Y6.6428
G01 X59.6905 Y6.6500
G01 X59.7013 Y6.6580
G01 X59.7636 Y6.7130
G01 X59.7757 Y6.7254
G01 X59.7839 Y6.7355
G01 X59.7914 Y6.7461
G01 X59.7982 Y6.7572
G01 X59.8041 Y6.7688
G01 X59.8091 Y6.7808
G01 X59.8313 Y6.8442
G01 X59.8355 Y6.8613
G01 X59.8376 Y6.8743
G01 X62.7410 Y31.1115
G01 X62.7723 Y31.1899
G01 X62.8229 Y31.2574
G01 X62.8893 Y31.3096
G01 X62.9669 Y31.3428
G01 X63.0504 Y31.3548
G01 X63.0956 Y31.3494
G01 X64.3327 Y31.2190
G01 X65.5695 Y31.1239
G01 X66.8136 Y31.0635
G01 X68.0564 Y31.0383
G01 X69.2969 Y31.0483
G01 X70.5331 Y31.0930
G01 X71.7761 Y31.1731
G01 X73.0197 Y31.2888
G01 X74.2536 Y31.4389
G01 X75.4770 Y31.6229
G01 X76.6979 Y31.8418
G01 X77.9172 Y32.0962
G01 X79.1322 Y32.3859
G01 X80.3303 Y32.7075
G01 X81.5155 Y33.0619
G01 X82.6983 Y33.4521
G01 X83.8673 Y33.8749
G01 X85.0293 Y34.3327
G01 X86.1725 Y34.8209
G01 X87.2990 Y35.3401
G01 X88.4090 Y35.8901
G01 X88.4488 Y35.9106
G01 X88.5313 Y35.9284
G01 X88.6156 Y35.9242
G01 X88.6959 Y35.8983
G01 X88.7669 Y35.8526
G01 X88.8235 Y35.7900
G01 X99.9718 Y14.0692
G01 X99.9807 Y14.0545
G01 X99.9883 Y14.0442
G01 X99.9937 Y14.0375
G01 X100.0539 Y13.9742
G01 X100.0674 Y13.9625
G01 X100.0821 Y13.9523
G01 X100.0976 Y13.9435
G01 X100.1140 Y13.9363
G01 X100.1310 Y13.9308
G01 X100.2074 Y13.9121
G01 X100.2245 Y13.9092
G01 X100.2418 Y13.9080
G01 X100.2548 Y13.9081
G01 X100.2634 Y13.9088
G01 X100.2806 Y13.9113
G01 X100.2932 Y13.9142
G01 X100.3497 Y13.9297
G01 X100.3663 Y13.9355
G01 X100.3822 Y13.9430
G01 X101.2373 Y14.3945
G01 X102.6291 Y15.1708
G01 X104.0000 Y15.9777
G01 X105.3527 Y16.8164
G01 X106.6932 Y17.6911
G01 X108.0033 Y18.5898
G01 X109.2946 Y19.5201
G01 X110.5714 Y20.4855
G01 X111.8161 Y21.4728
G01 X113.0436 Y22.4935
G01 X114.2430 Y23.5385
G01 X115.4185 Y24.6115
G01 X116.5740 Y25.7161
G01 X117.6982 Y26.8417
G01 X118.7966 Y27.9935
G01 X119.8728 Y29.1755
G01 X120.9181 Y30.3784
G01 X121.9323 Y31.6013
G01 X122.9253 Y32.8567
G01 X123.8819 Y34.1251
G01 X124.8135 Y35.4215
G01 X125.7117 Y36.7346
G01 X126.5797 Y38.0686
G01 X127.4215 Y39.4300
G01 X128.2269 Y40.8027
G01 X129.0001 Y42.1930
G01 X129.7436 Y43.6057
G01 X130.4518 Y45.0302
G01 X131.1293 Y46.4758
G01 X131.7709 Y47.9315
G01 X132.3799 Y49.4042
G01 X132.9556 Y50.8933
G01 X133.4965 Y52.3945
G01 X133.8030 Y53.3110
G01 X133.8072 Y53.3276
G01 X133.8088 Y53.3360
G01 X133.8103 Y53.3487
G01 X133.8134 Y53.4271
G01 X133.8132 Y53.4450
G01 X133.8112 Y53.4628
G01 X133.8086 Y53.4759
G01 X133.8035 Y53.4930
G01 X133.7968 Y53.5096
G01 X133.7885 Y53.5254
G01 X133.7529 Y53.5856
G01 X133.7459 Y53.5965
G01 X133.7381 Y53.6069
G01 X133.7296 Y53.6167
G01 X133.7204 Y53.6259
G01 X133.7071 Y53.6371
G01 X133.6965 Y53.6446
G01 X133.6387 Y53.6787
G01 X133.6269 Y53.6847
G01 X133.6106 Y53.6913
G01 X126.5519 Y55.9619
G01 X126.4810 Y56.0076
G01 X126.4244 Y56.0702
G01 X126.3858 Y56.1453
G01 X126.3681 Y56.2277
G01 X126.3722 Y56.3120
G01 X126.3860 Y56.3548
G01 X126.8151 Y57.7459
G01 X127.2128 Y59.1539
G01 X127.5759 Y60.5679
G01 X127.9039 Y61.9853
G01 X128.2004 Y63.4224
G01 X128.4602 Y64.8539
G01 X128.6862 Y66.2941
G01 X128.8788 Y67.7487
G01 X129.0355 Y69.1981
G01 X129.1577 Y70.6530
G01 X129.2448 Y72.1074
G01 X129.2972 Y73.5643
G01 X129.3148 Y75.0294
G01 X129.2973 Y76.4893
G01 X129.2451 Y77.9432
G01 X129.1575 Y79.4057
G01 X129.0355 Y80.8577
G01 X128.8789 Y82.3071
G01 X128.6862 Y83.7617
G01 X128.4602 Y85.2019
G01 X128.2004 Y86.6334
G01 X127.9039 Y88.0704
G01 X127.5759 Y89.4879
G01 X127.2128 Y90.9019
G01 X126.8151 Y92.3098
G01 X126.3860 Y93.7009
G01 X126.3722 Y93.7437
G01 X126.3681 Y93.8280
G01 X126.3858 Y93.9105
G01 X126.4244 Y93.9856
G01 X126.4810 Y94.0481
G01 X126.5519 Y94.0939
G01 X133.6064 Y96.3631
G01 X133.6185 Y96.3674
G01 X133.6341 Y96.3746
G01 X133.6489 Y96.3832
G01 X133.7103 Y96.4248
G01 X133.7245 Y96.4356
G01 X133.7377 Y96.4477
G01 X133.7495 Y96.4611
G01 X133.7575 Y96.4718
G01 X133.7624 Y96.4793
G01 X133.7710 Y96.4950
G01 X133.8053 Y96.5754
G01 X133.8094 Y96.5878
G01 X133.8116 Y96.5962
G01 X133.8148 Y96.6132
G01 X133.8161 Y96.6261
G01 X133.8165 Y96.6348
G01 X133.8160 Y96.6521
G01 X133.8095 Y96.7146
G01 X133.8073 Y96.7276
G01 X133.8030 Y96.7447
G01 X133.4949 Y97.6660
G01 X132.9563 Y99.1606
G01 X132.3817 Y100.6470
G01 X131.7720 Y102.1217
G01 X131.1301 Y103.5781
G01 X130.4518 Y105.0255
G01 X129.7436 Y106.4501
G01 X129.0015 Y107.8603
G01 X128.2280 Y109.2512
G01 X127.4190 Y110.6300
G01 X126.5824 Y111.9830
G01 X125.7132 Y113.3188
G01 X124.8135 Y114.6342
G01 X123.8819 Y115.9306
G01 X122.9241 Y117.2007
G01 X121.9354 Y118.4506
G01 X120.9195 Y119.6758
G01 X119.8728 Y120.8803
G01 X118.7999 Y122.0587
G01 X117.6982 Y123.2140
G01 X116.5740 Y124.3397
G01 X115.4221 Y125.4409
G01 X114.2430 Y126.5172
G01 X113.0436 Y127.5623
G01 X111.8161 Y128.5830
G01 X110.5697 Y129.5715
G01 X109.2963 Y130.5344
G01 X108.0033 Y131.4660
G01 X106.6914 Y132.3659
G01 X105.3545 Y133.2383
G01 X104.0000 Y134.0781
G01 X102.6291 Y134.8849
G01 X101.2348 Y135.6627
G01 X100.3822 Y136.1128
G01 X100.3706 Y136.1184
G01 X100.3627 Y136.1217
G01 X100.3506 Y136.1258
G01 X100.3423 Y136.1281
G01 X100.2611 Y136.1448
G01 X100.2478 Y136.1466
G01 X100.2389 Y136.1473
G01 X100.2210 Y136.1473
G01 X100.2032 Y136.1456
G01 X100.1857 Y136.1421
G01 X100.1686 Y136.1368
G01 X100.0913 Y136.1066
G01 X100.0758 Y136.0988
G01 X100.0648 Y136.0920
G01 X100.0577 Y136.0870
G01 X100.0475 Y136.0789
G01 X100.0411 Y136.0731
G01 X100.0290 Y136.0606
G01 X99.9888 Y136.0123
G01 X99.9810 Y136.0017
G01 X99.9740 Y135.9905
G01 X88.8235 Y114.2657
G01 X88.7669 Y114.2032
G01 X88.6959 Y114.1574
G01 X88.6156 Y114.1316
G01 X88.5313 Y114.1274
G01 X88.4488 Y114.1452
G01 X88.4082 Y114.1660
G01 X87.2990 Y114.7156
G01 X86.1725 Y115.2348
G01 X85.0293 Y115.7231
G01 X83.8705 Y116.1797
G01 X82.6983 Y116.6036
G01 X81.5154 Y116.9939
G01 X80.3269 Y117.3492
G01 X79.1323 Y117.6699
G01 X77.9206 Y117.9588
G01 X76.6979 Y118.2139
G01 X75.4769 Y118.4329
G01 X74.2537 Y118.6168
G01 X73.0197 Y118.7669
G01 X71.7761 Y118.8826
G01 X70.5330 Y118.9628
G01 X69.2969 Y119.0075
G01 X68.0564 Y119.0174
G01 X66.8137 Y118.9923
G01 X65.5695 Y118.9319
G01 X64.3328 Y118.8368
G01 X63.0956 Y118.7064
G01 X63.0504 Y118.7010
G01 X62.9669 Y118.7130
G01 X62.8893 Y118.7462
G01 X62.8229 Y118.7983
G01 X62.7724 Y118.8659
G01 X62.7410 Y118.9442
G01 X59.8376 Y143.1814
G01 X59.8356 Y143.1941
G01 X59.8327 Y143.2067
G01 X59.8290 Y143.2189
G01 X59.8243 Y143.2309
G01 X59.7931 Y143.3033
G01 X59.7844 Y143.3189
G01 X59.7796 Y143.3264
G01 X59.7715 Y143.3372
G01 X59.7628 Y143.3473
G01 X59.7532 Y143.3567
G01 X59.7430 Y143.3654
G01 X59.7359 Y143.3708
G01 X59.6670 Y143.4172
G01 X59.6518 Y143.4255
G01 X59.6399 Y143.4307
G01 X59.6318 Y143.4337
G01 X59.6194 Y143.4375
G01 X59.6067 Y143.4403
G01 X59.5938 Y143.4422
G01 X59.5312 Y143.4478
G01 X59.5180 Y143.4482
G01 X59.5005 Y143.4472
G01 X58.5447 Y143.3216
G01 X56.9703 Y143.0775
G01 X55.4013 Y142.7971
G01 X53.8418 Y142.4810
G01 X52.2902 Y142.1291
G01 X50.7497 Y141.7422
G01 X49.2132 Y141.3184
G01 X47.6875 Y140.8594
G01 X46.1795 Y140.3676
G01 X44.6759 Y139.8385
G01 X43.1876 Y139.2759
G01 X41.7107 Y138.6783
G01 X40.2518 Y138.0485
G01 X38.8041 Y137.3835
G01 X37.3758 Y136.6871
G01 X35.9645 Y135.9583
G01 X35.7737 Y135.8541
G01 X35.7626 Y135.8475
G01 X35.7555 Y135.8427
G01 X35.7453 Y135.8349
G01 X35.7357 Y135.8264
G01 X35.6801 Y135.7708
G01 X35.6741 Y135.7642
G01 X35.6658 Y135.7537
G01 X35.6582 Y135.7426
G01 X35.6515 Y135.7310
G01 X35.6475 Y135.7230
G01 X35.6423 Y135.7107
G01 X35.6368 Y135.6937
G01 X35.6189 Y135.6123
G01 X35.6168 Y135.5989
G01 X35.6158 Y135.5854
G01 X35.6160 Y135.5674
G01 X35.6173 Y135.5539
G01 X35.6207 Y135.5362
G01 X35.6313 Y135.4924
G01 X35.6350 Y135.4802
G01 X35.6396 Y135.4683
G01 X35.6999 Y135.3265
G01 X35.7159 Y135.2718
G01 X35.7223 Y135.2479
G01 X35.7399 Y135.0969
G01 X35.7399 Y14.9564
G01 X35.7294 Y14.8383
G01 X35.7248 Y14.8131
G01 X35.6834 Y14.6763
G01 X35.6485 Y14.6158
G01 X35.6349 Y14.5872
G01 X35.6299 Y14.5748
G01 X35.6271 Y14.5663
G01 X35.6247 Y14.5577
G01 X35.6219 Y14.5445
G01 X35.6201 Y14.5312
G01 X35.6191 Y14.5172
G01 X35.6158 Y14.5036
G01 X35.6134 Y14.4904
G01 X35.6117 Y14.4726
G01 X35.6119 Y14.4547
G00 Z1.2500
G00 X40.4579 Y22.4911
G01 F60.00
G01 Z-0.0050
G01 F120.00
G01 X40.6361 Y22.4003
G01 X40.8263 Y22.3385
G01 X41.0238 Y22.3072
G01 X41.2238 Y22.3072
G01 X41.4213 Y22.3385
G01 X41.6115 Y22.4003
G01 X41.7897 Y22.4911
G01 X41.9515 Y22.6087
G01 X42.0929 Y22.7501
G01 X42.2105 Y22.9119
G01 X42.3013 Y23.0900
G01 X42.3630 Y23.2802
G01 X42.3943 Y23.4777
G01 X42.3943 Y23.6777
G01 X42.3630 Y23.8753
G01 X42.3013 Y24.0654
G01 X42.2105 Y24.2436
G01 X42.0929 Y24.4054
G01 X41.9515 Y24.5468
G01 X41.7897 Y24.6644
G01 X41.6115 Y24.7552
G01 X41.4213 Y24.8170
G01 X41.2238 Y24.8482
G01 X41.0238 Y24.8482
G01 X40.8263 Y24.8170
G01 X40.6361 Y24.7552
G01 X40.4579 Y24.6644
G01 X40.2962 Y24.5468
G01 X40.1547 Y24.4054
G01 X40.0372 Y24.2436
G01 X39.9464 Y24.0654
G01 X39.8846 Y23.8753
G01 X39.8533 Y23.6777
G01 X39.8533 Y23.4777
G01 X39.8846 Y23.2802
G01 X39.9464 Y23.0900
G01 X40.0372 Y22.9119
G01 X40.1547 Y22.7501
G01 X40.2962 Y22.6087
G01 X40.4579 Y22.4911
G00 Z1.2500
G00 X40.2627 Y23.7580
G01 F60.00
G01 Z-0.0050
G01 F120.00
G01 X40.2592 Y23.7407
G01 X40.2481 Y23.6640
G01 X40.2438 Y23.5777
G01 X40.2481 Y23.4915
G01 X40.2607 Y23.4061
G01 X40.2817 Y23.3223
G01 X40.3108 Y23.2410
G01 X40.3477 Y23.1629
G01 X40.3921 Y23.0888
G01 X40.4436 Y23.0195
G01 X40.5016 Y22.9555
G01 X40.5656 Y22.8975
G01 X40.6349 Y22.8460
G01 X40.7090 Y22.8017
G01 X40.7871 Y22.7647
G01 X40.8684 Y22.7356
G01 X40.9522 Y22.7147
G01 X41.0376 Y22.7020
G01 X41.1238 Y22.6977
G01 X41.2101 Y22.7020
G01 X41.2955 Y22.7147
G01 X41.3793 Y22.7356
G01 X41.4606 Y22.7647
G01 X41.5387 Y22.8017
G01 X41.6127 Y22.8460
G01 X41.6821 Y22.8975
G01 X41.7461 Y22.9555
G01 X41.8041 Y23.0195
G01 X41.8555 Y23.0888
G01 X41.8999 Y23.1629
G01 X41.9368 Y23.2410
G01 X41.9659 Y23.3223
G01 X41.9869 Y23.4061
G01 X41.9996 Y23.4915
G01 X42.0038 Y23.5777
G01 X41.9996 Y23.6640
G01 X41.9869 Y23.7494
G01 X41.9659 Y23.8332
G01 X41.9368 Y23.9145
G01 X41.8999 Y23.9926
G01 X41.8555 Y24.0666
G01 X41.8041 Y24.1360
G01 X41.7461 Y24.2000
G01 X41.6821 Y24.2580
G01 X41.6127 Y24.3094
G01 X41.5387 Y24.3538
G01 X41.4606 Y24.3908
G01 X41.3793 Y24.4198
G01 X41.2955 Y24.4408
G01 X41.2101 Y24.4535
G01 X41.1238 Y24.4577
G01 X41.0376 Y24.4535
G01 X40.9522 Y24.4408
G01 X40.8684 Y24.4198
G01 X40.7871 Y24.3908
G01 X40.7090 Y24.3538
G01 X40.6349 Y24.3094
G01 X40.5656 Y24.2580
G01 X40.5016 Y24.2000
G01 X40.4436 Y24.1360
G01 X40.3921 Y24.0666
G01 X40.3477 Y23.9926
G01 X40.3108 Y23.9145
G01 X40.2817 Y23.8332
G01 X40.2627 Y23.7580
G00 Z1.2500
G00 X30.4038 Y29.8479
G01 F60.00
G01 Z-0.0050
G01 F120.00
G01 X30.5957 Y29.6560
G01 X30.7650 Y29.5261
G01 X32.7290 Y29.2919
G01 X32.8815 Y29.3551
G01 X33.1166 Y29.4908
G01 X33.3319 Y29.6560
G01 X33.5238 Y29.8480
G01 X33.6891 Y30.0633
G01 X33.8248 Y30.2983
G01 X33.9286 Y30.5491
G01 X33.9989 Y30.8113
G01 X34.0343 Y31.0803
G01 X34.0343 Y31.3518
G01 X33.9989 Y31.6209
G01 X33.9286 Y31.8830
G01 X33.8248 Y32.1338
G01 X33.6891 Y32.3688
G01 X33.5220 Y32.5869
G01 X33.5150 Y32.5977
G01 X33.5089 Y32.6090
G01 X33.4827 Y32.6646
G01 X33.4763 Y32.6814
G01 X33.4726 Y32.6944
G01 X33.4698 Y32.7076
G01 X33.4678 Y32.7255
G01 X33.4674 Y32.7389
G01 X33.4677 Y32.7479
G01 X33.4726 Y32.8266
G01 X33.4754 Y32.8442
G01 X33.4800 Y32.8615
G01 X33.4863 Y32.8783
G01 X33.4941 Y32.8943
G01 X33.4987 Y32.9020
G01 X33.5062 Y32.9131
G01 X33.5499 Y32.9730
G01 X33.5610 Y32.9861
G01 X33.5733 Y32.9980
G01 X33.5832 Y33.0062
G01 X33.7463 Y33.1314
G01 X33.9382 Y33.3233
G01 X34.1035 Y33.5387
G01 X34.2392 Y33.7737
G01 X34.3430 Y34.0245
G01 X34.4133 Y34.2866
G01 X34.4487 Y34.5557
G01 X34.4487 Y34.8271
G01 X34.4133 Y35.0962
G01 X34.3430 Y35.3584
G01 X34.2392 Y35.6092
G01 X34.1035 Y35.8442
G01 X33.9382 Y36.0595
G01 X33.7463 Y36.2515
G01 X33.5310 Y36.4167
G01 X33.2959 Y36.5524
G01 X33.0452 Y36.6563
G01 X32.7830 Y36.7265
G01 X32.5139 Y36.7619
G01 X32.2425 Y36.7619
G01 X31.9734 Y36.7265
G01 X31.7112 Y36.6563
G01 X31.4605 Y36.5524
G01 X31.2254 Y36.4167
G01 X31.0101 Y36.2515
G01 X30.8182 Y36.0595
G01 X30.6530 Y35.8442
G01 X30.5173 Y35.6092
G01 X30.4134 Y35.3584
G01 X30.3431 Y35.0962
G01 X30.3077 Y34.8272
G01 X30.3077 Y34.5557
G01 X30.3431 Y34.2866
G01 X30.4134 Y34.0245
G01 X30.5173 Y33.7737
G01 X30.6530 Y33.5387
G01 X30.8200 Y33.3206
G01 X30.8270 Y33.3098
G01 X30.8331 Y33.2985
G01 X30.8593 Y33.2429
G01 X30.8643 Y33.2303
G01 X30.8695 Y33.2131
G01 X30.8722 Y33.1999
G01 X30.8743 Y33.1820
G01 X30.8746 Y33.1730
G01 X30.8743 Y33.1596
G01 X30.8702 Y33.0898
G01 X30.8689 Y33.0765
G01 X30.8656 Y33.0589
G01 X30.8606 Y33.0417
G01 X30.8539 Y33.0251
G01 X30.8479 Y33.0132
G01 X30.8434 Y33.0055
G01 X30.8359 Y32.9944
G01 X30.7921 Y32.9345
G01 X30.7810 Y32.9214
G01 X30.7688 Y32.9095
G01 X30.7589 Y32.9013
G01 X30.5957 Y32.7761
G01 X30.4038 Y32.5842
G01 X30.2386 Y32.3688
G01 X30.1028 Y32.1338
G01 X29.9990 Y31.8830
G01 X29.9833 Y31.8244
G01 X29.9287 Y31.6209
G01 X29.8933 Y31.3518
G01 X29.8933 Y31.0803
G01 X29.9287 Y30.8113
G01 X29.9990 Y30.5491
G01 X30.1028 Y30.2983
G01 X30.2386 Y30.0633
G01 X30.4038 Y29.8479
G00 Z1.2500
G00 X30.3538 Y31.6952
G01 F60.00
G01 Z-0.0050
G01 F120.00
G01 X30.3161 Y31.5438
G01 X30.2919 Y31.3807
G01 X30.2838 Y31.2161
G01 X30.2919 Y31.0514
G01 X30.3161 Y30.8883
G01 X30.3561 Y30.7284
G01 X30.4117 Y30.5731
G01 X30.4822 Y30.4241
G01 X30.5669 Y30.2827
G01 X30.6651 Y30.1503
G01 X30.7759 Y30.0281
G01 X30.8980 Y29.9174
G01 X31.0304 Y29.8192
G01 X31.1719 Y29.7344
G01 X31.3209 Y29.6639
G01 X31.4761 Y29.6084
G01 X31.6361 Y29.5683
G01 X31.7991 Y29.5441
G01 X31.9638 Y29.5361
G01 X32.1285 Y29.5441
G01 X32.2916 Y29.5683
G01 X32.4515 Y29.6084
G01 X32.6067 Y29.6639
G01 X32.7558 Y29.7344
G01 X32.8972 Y29.8192
G01 X33.0296 Y29.9174
G01 X33.1517 Y30.0281
G01 X33.2625 Y30.1503
G01 X33.3607 Y30.2827
G01 X33.4454 Y30.4241
G01 X33.5159 Y30.5731
G01 X33.5715 Y30.7284
G01 X33.6115 Y30.8883
G01 X33.6357 Y31.0514
G01 X33.6438 Y31.2161
G01 X33.6357 Y31.3807
G01 X33.6115 Y31.5438
G01 X33.5715 Y31.7037
G01 X33.5159 Y31.8590
G01 X33.4454 Y32.0080
G01 X33.3607 Y32.1494
G01 X33.2625 Y32.2818
G01 X33.1517 Y32.4040
G01 X33.0296 Y32.5147
G01 X32.8972 Y32.6129
G01 X32.7558 Y32.6977
G01 X32.6067 Y32.7682
G01 X32.4515 Y32.8237
G01 X32.2916 Y32.8638
G01 X32.1285 Y32.8880
G01 X31.9638 Y32.8961
G01 X31.7991 Y32.8880
G01 X31.6361 Y32.8638
G01 X31.4761 Y32.8237
G01 X31.3209 Y32.7682
G01 X31.1719 Y32.6977
G01 X31.0304 Y32.6129
G01 X30.8980 Y32.5147
G01 X30.7759 Y32.4040
G01 X30.6651 Y32.2818
G01 X30.5669 Y32.1494
G01 X30.4822 Y32.0080
G01 X30.4117 Y31.8590
G01 X30.3589 Y31.7121
G01 X30.3538 Y31.6952
G00 Z1.2500
G00 X30.7324 Y35.0278
G01 F60.00
G01 Z-0.0050
G01 F120.00
G01 X30.7290 Y35.0105
G01 X30.7063 Y34.8561
G01 X30.6982 Y34.6914
G01 X30.7063 Y34.5268
G01 X30.7305 Y34.3637
G01 X30.7706 Y34.2038
G01 X30.8261 Y34.0485
G01 X30.8966 Y33.8995
G01 X30.9813 Y33.7581
G01 X31.0796 Y33.6257
G01 X31.1903 Y33.5035
G01 X31.3124 Y33.3928
G01 X31.4449 Y33.2946
G01 X31.5863 Y33.2098
G01 X31.7353 Y33.1393
G01 X31.8905 Y33.0838
G01 X32.0505 Y33.0437
G01 X32.2135 Y33.0195
G01 X32.3782 Y33.0114
G01 X32.5429 Y33.0195
G01 X32.7060 Y33.0437
G01 X32.8659 Y33.0838
G01 X33.0211 Y33.1393
G01 X33.1702 Y33.2098
G01 X33.3116 Y33.2946
G01 X33.4440 Y33.3928
G01 X33.5662 Y33.5035
G01 X33.6769 Y33.6257
G01 X33.7751 Y33.7581
G01 X33.8598 Y33.8995
G01 X33.9303 Y34.0485
G01 X33.9859 Y34.2038
G01 X34.0259 Y34.3637
G01 X34.0501 Y34.5268
G01 X34.0582 Y34.6914
G01 X34.0501 Y34.8561
G01 X34.0259 Y35.0192
G01 X33.9859 Y35.1791
G01 X33.9303 Y35.3343
G01 X33.8598 Y35.4834
G01 X33.7751 Y35.6248
G01 X33.6769 Y35.7572
G01 X33.5662 Y35.8794
G01 X33.4440 Y35.9901
G01 X33.3116 Y36.0883
G01 X33.1702 Y36.1731
G01 X33.0211 Y36.2436
G01 X32.8659 Y36.2991
G01 X32.7060 Y36.3392
G01 X32.5429 Y36.3633
G01 X32.3782 Y36.3714
G01 X32.2135 Y36.3633
G01 X32.0505 Y36.3392
G01 X31.8905 Y36.2991
G01 X31.7353 Y36.2436
G01 X31.5863 Y36.1731
G01 X31.4449 Y36.0883
G01 X31.3124 Y35.9901
G01 X31.1903 Y35.8794
G01 X31.0796 Y35.7572
G01 X30.9813 Y35.6248
G01 X30.8966 Y35.4835
G01 X30.8261 Y35.3343
G01 X30.7706 Y35.1791
G01 X30.7324 Y35.0278
G00 Z1.2500
G00 X26.4129 Y35.7951
G01 F60.00
G01 Z-0.0050
G01 F120.00
G01 X26.3871 Y35.6913
G01 X26.3701 Y35.5767
G01 X26.3644 Y35.4611
G01 X26.3701 Y35.3454
G01 X26.3871 Y35.2309
G01 X26.4152 Y35.1185
G01 X26.4543 Y35.0095
G01 X26.5038 Y34.9048
G01 X26.5633 Y34.8055
G01 X26.6323 Y34.7125
G01 X26.7100 Y34.6267
G01 X26.7958 Y34.5489
G01 X26.8889 Y34.4799
G01 X26.9882 Y34.4204
G01 X27.0929 Y34.3709
G01 X27.2019 Y34.3319
G01 X27.3142 Y34.3037
G01 X27.4288 Y34.2867
G01 X27.5444 Y34.2811
G01 X27.6601 Y34.2867
G01 X27.7746 Y34.3037
G01 X27.8870 Y34.3319
G01 X27.9960 Y34.3709
G01 X28.1007 Y34.4204
G01 X28.2000 Y34.4799
G01 X28.2930 Y34.5489
G01 X28.3788 Y34.6267
G01 X28.4566 Y34.7125
G01 X28.5256 Y34.8055
G01 X28.5851 Y34.9048
G01 X28.6346 Y35.0095
G01 X28.6736 Y35.1185
G01 X28.7018 Y35.2309
G01 X28.7187 Y35.3454
G01 X28.7244 Y35.4611
G01 X28.7187 Y35.5767
G01 X28.7018 Y35.6913
G01 X28.6736 Y35.8036
G01 X28.6346 Y35.9126
G01 X28.5851 Y36.0173
G01 X28.5256 Y36.1166
G01 X28.4566 Y36.2096
G01 X28.3788 Y36.2954
G01 X28.2930 Y36.3732
G01 X28.2000 Y36.4422
G01 X28.1007 Y36.5017
G01 X27.9960 Y36.5512
G01 X27.8870 Y36.5903
G01 X27.7746 Y36.6184
G01 X27.6601 Y36.6354
G01 X27.5444 Y36.6411
G01 X27.4288 Y36.6354
G01 X27.3142 Y36.6184
G01 X27.2019 Y36.5903
G01 X27.0929 Y36.5512
G01 X26.9882 Y36.5017
G01 X26.8889 Y36.4422
G01 X26.7958 Y36.3732
G01 X26.7100 Y36.2954
G01 X26.6323 Y36.2096
G01 X26.5633 Y36.1166
G01 X26.5038 Y36.0173
G01 X26.4543 Y35.9126
G01 X26.4180 Y35.8120
G01 X26.4129 Y35.7951
G00 Z1.2500
G00 X25.9985 Y32.3197
G01 F60.00
G01 Z-0.0050
G01 F120.00
G01 X25.9727 Y32.2159
G01 X25.9557 Y32.1013
G01 X25.9500 Y31.9857
G01 X25.9557 Y31.8700
G01 X25.9727 Y31.7555
G01 X26.0008 Y31.6431
G01 X26.0398 Y31.5341
G01 X26.0893 Y31.4294
G01 X26.1489 Y31.3301
G01 X26.2179 Y31.2371
G01 X26.2956 Y31.1513
G01 X26.3814 Y31.0735
G01 X26.4744 Y31.0045
G01 X26.5738 Y30.9450
G01 X26.6784 Y30.8955
G01 X26.7875 Y30.8565
G01 X26.8998 Y30.8284
G01 X27.0144 Y30.8114
G01 X27.1300 Y30.8057
G01 X27.2457 Y30.8114
G01 X27.3602 Y30.8284
G01 X27.4726 Y30.8565
G01 X27.5816 Y30.8955
G01 X27.6863 Y30.9450
G01 X27.7856 Y31.0045
G01 X27.8786 Y31.0735
G01 X27.9644 Y31.1513
G01 X28.0422 Y31.2371
G01 X28.1111 Y31.3301
G01 X28.1707 Y31.4294
G01 X28.2202 Y31.5341
G01 X28.2592 Y31.6431
G01 X28.2873 Y31.7555
G01 X28.3043 Y31.8700
G01 X28.3100 Y31.9857
G01 X28.3043 Y32.1013
G01 X28.2873 Y32.2159
G01 X28.2592 Y32.3282
G01 X28.2202 Y32.4372
G01 X28.1707 Y32.5419
G01 X28.1111 Y32.6413
G01 X28.0422 Y32.7343
G01 X27.9644 Y32.8201
G01 X27.8786 Y32.8978
G01 X27.7856 Y32.9668
G01 X27.6863 Y33.0263
G01 X27.5816 Y33.0759
G01 X27.4726 Y33.1149
G01 X27.3602 Y33.1430
G01 X27.2457 Y33.1600
G01 X27.1300 Y33.1657
G01 X27.0144 Y33.1600
G01 X26.8998 Y33.1430
G01 X26.7875 Y33.1149
G01 X26.6784 Y33.0759
G01 X26.5738 Y33.0263
G01 X26.4744 Y32.9668
G01 X26.3814 Y32.8978
G01 X26.2956 Y32.8201
G01 X26.2179 Y32.7343
G01 X26.1489 Y32.6413
G01 X26.0893 Y32.5419
G01 X26.0398 Y32.4372
G01 X26.0036 Y32.3366
G01 X25.9985 Y32.3197
G00 Z1.2500
G00 X25.9467 Y30.9480
G01 F60.00
G01 Z-0.0050
G01 F120.00
G01 X26.0923 Y30.8024
G01 X26.2556 Y30.6771
G01 X26.4339 Y30.5741
G01 X26.6241 Y30.4953
G01 X26.8230 Y30.4421
G01 X27.0271 Y30.4152
G01 X27.2330 Y30.4152
G01 X27.4371 Y30.4421
G01 X27.6359 Y30.4953
G01 X27.8261 Y30.5741
G01 X28.0044 Y30.6771
G01 X28.1677 Y30.8024
G01 X28.3133 Y30.9480
G01 X28.4386 Y31.1113
G01 X28.5416 Y31.2896
G01 X28.6204 Y31.4798
G01 X28.6736 Y31.6786
G01 X28.7005 Y31.8827
G01 X28.7005 Y32.0886
G01 X28.6736 Y32.2927
G01 X28.6204 Y32.4916
G01 X28.5416 Y32.6818
G01 X28.4386 Y32.8601
G01 X28.3133 Y33.0234
G01 X28.1677 Y33.1690
G01 X28.0044 Y33.2943
G01 X27.8543 Y33.3809
G01 X27.8413 Y33.3890
G01 X27.8303 Y33.3965
G01 X27.8165 Y33.4077
G01 X27.8069 Y33.4170
G01 X27.7981 Y33.4269
G01 X27.7536 Y33.4808
G01 X27.7454 Y33.4914
G01 X27.7381 Y33.5027
G01 X27.7316 Y33.5144
G01 X27.7260 Y33.5266
G01 X27.7228 Y33.5349
G01 X27.7188 Y33.5477
G01 X27.7149 Y33.5652
G01 X27.7053 Y33.6434
G01 X27.7043 Y33.6568
G01 X27.7041 Y33.6657
G01 X27.7046 Y33.6791
G01 X27.7056 Y33.6880
G01 X27.7078 Y33.7012
G01 X27.7098 Y33.7099
G01 X27.7123 Y33.7185
G01 X27.7168 Y33.7312
G01 X27.7222 Y33.7434
G01 X27.7568 Y33.8142
G01 X27.7662 Y33.8294
G01 X27.7770 Y33.8437
G01 X27.7892 Y33.8567
G01 X27.8026 Y33.8685
G01 X27.8171 Y33.8789
G01 X27.8806 Y33.9177
G01 X27.8918 Y33.9240
G01 X27.9074 Y33.9311
G01 X27.9195 Y33.9354
G01 X27.9277 Y33.9379
G01 X28.0503 Y33.9707
G01 X28.2405 Y34.0495
G01 X28.4188 Y34.1524
G01 X28.5822 Y34.2778
G01 X28.7277 Y34.4233
G01 X28.8531 Y34.5867
G01 X28.9560 Y34.7650
G01 X29.0348 Y34.9552
G01 X29.0881 Y35.1540
G01 X29.1149 Y35.3581
G01 X29.1149 Y35.5640
G01 X29.0881 Y35.7681
G01 X29.0348 Y35.9670
G01 X28.9560 Y36.1572
G01 X28.8531 Y36.3355
G01 X28.7277 Y36.4988
G01 X28.5822 Y36.6444
G01 X28.4188 Y36.7697
G01 X28.2405 Y36.8726
G01 X28.0503 Y36.9514
G01 X27.8515 Y37.0047
G01 X27.6474 Y37.0316
G01 X27.4415 Y37.0316
G01 X27.2374 Y37.0047
G01 X27.0385 Y36.9514
G01 X26.8483 Y36.8726
G01 X26.6700 Y36.7697
G01 X26.5067 Y36.6444
G01 X26.3611 Y36.4988
G01 X26.2358 Y36.3355
G01 X26.1329 Y36.1572
G01 X26.0541 Y35.9670
G01 X26.0008 Y35.7681
G01 X25.9739 Y35.5640
G01 X25.9739 Y35.3581
G01 X26.0008 Y35.1540
G01 X26.0541 Y34.9552
G01 X26.1329 Y34.7650
G01 X26.2358 Y34.5867
G01 X26.3611 Y34.4233
G01 X26.5067 Y34.2778
G01 X26.6700 Y34.1524
G01 X26.8201 Y34.0658
G01 X26.8331 Y34.0578
G01 X26.8441 Y34.0503
G01 X26.8546 Y34.0420
G01 X26.8644 Y34.0330
G01 X26.8735 Y34.0232
G01 X26.9209 Y33.9659
G01 X26.9290 Y33.9553
G01 X26.9364 Y33.9441
G01 X26.9408 Y33.9363
G01 X26.9466 Y33.9242
G01 X26.9501 Y33.9160
G01 X26.9544 Y33.9033
G01 X26.9568 Y33.8947
G01 X26.9602 Y33.8771
G01 X26.9696 Y33.7989
G01 X26.9702 Y33.7900
G01 X26.9703 Y33.7766
G01 X26.9694 Y33.7632
G01 X26.9666 Y33.7455
G01 X26.9634 Y33.7325
G01 X26.9593 Y33.7198
G01 X26.9523 Y33.7033
G01 X26.9197 Y33.6365
G01 X26.9154 Y33.6286
G01 X26.9083 Y33.6173
G01 X26.9030 Y33.6101
G01 X26.8945 Y33.5997
G01 X26.8884 Y33.5932
G01 X26.8787 Y33.5839
G01 X26.8718 Y33.5782
G01 X26.8610 Y33.5703
G01 X26.7902 Y33.5269
G01 X26.7788 Y33.5209
G01 X26.7671 Y33.5157
G01 X26.7591 Y33.5127
G01 X26.7468 Y33.5089
G01 X26.6241 Y33.4760
G01 X26.4339 Y33.3972
G01 X26.2556 Y33.2943
G01 X26.0923 Y33.1690
G01 X25.9467 Y33.0234
G01 X25.8214 Y32.8601
G01 X25.7184 Y32.6818
G01 X25.6397 Y32.4916
G01 X25.5864 Y32.2927
G01 X25.5595 Y32.0886
G01 X25.5595 Y31.8827
G01 X25.5864 Y31.6786
G01 X25.6397 Y31.4798
G01 X25.7185 Y31.2896
G01 X25.8214 Y31.1113
G01 X25.9467 Y30.9480
G00 Z1.2500
G00 X41.9972 Y35.3997
G01 F60.00
G01 Z-0.0050
G01 F120.00
G01 X42.1754 Y35.3089
G01 X42.3656 Y35.2471
G01 X42.5631 Y35.2158
G01 X42.7631 Y35.2158
G01 X42.9606 Y35.2471
G01 X43.1508 Y35.3089
G01 X43.3290 Y35.3997
G01 X43.4908 Y35.5172
G01 X43.6322 Y35.6586
G01 X43.7497 Y35.8204
G01 X43.8405 Y35.9986
G01 X43.9023 Y36.1888
G01 X43.9336 Y36.3863
G01 X43.9336 Y36.5863
G01 X43.9023 Y36.7838
G01 X43.8405 Y36.9740
G01 X43.7497 Y37.1522
G01 X43.6322 Y37.3140
G01 X43.4908 Y37.4554
G01 X43.3290 Y37.5729
G01 X43.1508 Y37.6637
G01 X42.9606 Y37.7255
G01 X42.7631 Y37.7568
G01 X42.5631 Y37.7568
G01 X42.3656 Y37.7255
G01 X42.1754 Y37.6637
G01 X41.9972 Y37.5729
G01 X41.8354 Y37.4554
G01 X41.6940 Y37.3140
G01 X41.5765 Y37.1522
G01 X41.4857 Y36.9740
G01 X41.4239 Y36.7838
G01 X41.3926 Y36.5863
G01 X41.3926 Y36.3863
G01 X41.4239 Y36.1888
G01 X41.4857 Y35.9986
G01 X41.5765 Y35.8204
G01 X41.6940 Y35.6586
G01 X41.8354 Y35.5172
G01 X41.9972 Y35.3997
G00 Z1.2500
G00 X41.8186 Y36.7332
G01 F60.00
G01 Z-0.0050
G01 F120.00
G01 X41.8000 Y36.6580
G01 X41.7873 Y36.5726
G01 X41.7831 Y36.4863
G01 X41.7873 Y36.4000
G01 X41.8000 Y36.3146
G01 X41.8210 Y36.2308
G01 X41.8501 Y36.1495
G01 X41.8870 Y36.0715
G01 X41.9314 Y35.9974
G01 X41.9828 Y35.9280
G01 X42.0408 Y35.8640
G01 X42.1048 Y35.8060
G01 X42.1742 Y35.7546
G01 X42.2483 Y35.7102
G01 X42.3263 Y35.6733
G01 X42.4076 Y35.6442
G01 X42.4914 Y35.6232
G01 X42.5768 Y35.6105
G01 X42.6631 Y35.6063
G01 X42.7493 Y35.6105
G01 X42.8348 Y35.6232
G01 X42.9185 Y35.6442
G01 X42.9998 Y35.6733
G01 X43.0779 Y35.7102
G01 X43.1520 Y35.7546
G01 X43.2213 Y35.8060
G01 X43.2853 Y35.8640
G01 X43.3433 Y35.9280
G01 X43.3948 Y35.9974
G01 X43.4392 Y36.0715
G01 X43.4761 Y36.1495
G01 X43.5052 Y36.2308
G01 X43.5262 Y36.3146
G01 X43.5388 Y36.4000
G01 X43.5431 Y36.4863
G01 X43.5388 Y36.5726
G01 X43.5262 Y36.6580
G01 X43.5052 Y36.7417
G01 X43.4761 Y36.8231
G01 X43.4392 Y36.9011
G01 X43.3948 Y36.9752
G01 X43.3433 Y37.0446
G01 X43.2853 Y37.1085
G01 X43.2213 Y37.1665
G01 X43.1520 Y37.2180
G01 X43.0779 Y37.2624
G01 X42.9998 Y37.2993
G01 X42.9185 Y37.3284
G01 X42.8348 Y37.3494
G01 X42.7493 Y37.3621
G01 X42.6631 Y37.3663
G01 X42.5768 Y37.3621
G01 X42.4914 Y37.3494
G01 X42.4076 Y37.3284
G01 X42.3263 Y37.2993
G01 X42.2483 Y37.2624
G01 X42.1742 Y37.2180
G01 X42.1048 Y37.1665
G01 X42.0408 Y37.1085
G01 X41.9828 Y37.0446
G01 X41.9314 Y36.9752
G01 X41.8870 Y36.9011
G01 X41.8501 Y36.8231
G01 X41.8237 Y36.7501
G01 X41.8186 Y36.7332
G00 Z1.2500
G00 X49.1745 Y41.4799
G01 F60.00
G01 Z-0.0050
G01 F120.00
G01 X49.2486 Y41.4724
G01 X51.8803 Y41.4724
G01 X51.9543 Y41.4799
G01 X52.0822 Y41.5223
G01 X52.1957 Y41.5923
G01 X52.2900 Y41.6866
G01 X52.3600 Y41.8001
G01 X52.4024 Y41.9280
G01 X52.4099 Y42.0020
G01 X52.4099 Y44.6337
G01 X52.4024 Y44.7078
G01 X52.3600 Y44.8356
G01 X52.2900 Y44.9491
G01 X52.1957 Y45.0434
G01 X52.0822 Y45.1135
G01 X51.9543 Y45.1558
G01 X51.8803 Y45.1634
G01 X49.2486 Y45.1634
G01 X49.1745 Y45.1558
G01 X49.0467 Y45.1135
G01 X48.9332 Y45.0434
G01 X48.8389 Y44.9491
G01 X48.7689 Y44.8356
G01 X48.7265 Y44.7078
G01 X48.7189 Y44.6337
G01 X48.7189 Y42.0020
G01 X48.7265 Y41.9280
G01 X48.7689 Y41.8001
G01 X48.8389 Y41.6866
G01 X48.9332 Y41.5923
G01 X49.0467 Y41.5223
G01 X49.1745 Y41.4799
G00 Z1.2500
G00 X51.8571 Y44.7720
G01 F60.00
G01 Z-0.0050
G01 F120.00
G01 X51.8394 Y44.7729
G01 X49.2850 Y44.7728
G01 X49.2674 Y44.7715
G01 X49.2500 Y44.7685
G01 X49.2330 Y44.7638
G01 X49.2165 Y44.7574
G01 X49.2007 Y44.7495
G01 X49.1858 Y44.7400
G01 X49.1719 Y44.7292
G01 X49.1591 Y44.7170
G01 X49.1475 Y44.7036
G01 X49.1398 Y44.6929
G01 X49.1307 Y44.6777
G01 X49.1231 Y44.6618
G01 X49.1172 Y44.6451
G01 X49.1129 Y44.6280
G01 X49.1103 Y44.6105
G01 X49.1095 Y44.5973
G01 X49.1094 Y42.0429
G01 X49.1103 Y42.0252
G01 X49.1129 Y42.0078
G01 X49.1172 Y41.9906
G01 X49.1231 Y41.9740
G01 X49.1307 Y41.9580
G01 X49.1398 Y41.9429
G01 X49.1449 Y41.9357
G01 X49.1531 Y41.9253
G01 X49.1653 Y41.9125
G01 X49.1787 Y41.9010
G01 X49.1894 Y41.8932
G01 X49.2046 Y41.8841
G01 X49.2205 Y41.8766
G01 X49.2372 Y41.8706
G01 X49.2500 Y41.8673
G01 X49.2674 Y41.8642
G01 X49.2850 Y41.8629
G01 X51.8394 Y41.8629
G01 X51.8571 Y41.8638
G01 X51.8745 Y41.8663
G01 X51.8917 Y41.8706
G01 X51.9083 Y41.8766
G01 X51.9243 Y41.8841
G01 X51.9394 Y41.8932
G01 X51.9502 Y41.9010
G01 X51.9570 Y41.9066
G01 X51.9698 Y41.9188
G01 X51.9813 Y41.9321
G01 X51.9915 Y41.9466
G01 X52.0002 Y41.9620
G01 X52.0057 Y41.9740
G01 X52.0117 Y41.9906
G01 X52.0160 Y42.0078
G01 X52.0181 Y42.0209
G01 X52.0194 Y42.0385
G01 X52.0192 Y44.6017
G01 X52.0175 Y44.6193
G01 X52.0151 Y44.6323
G01 X52.0103 Y44.6493
G01 X52.0057 Y44.6618
G01 X52.0002 Y44.6738
G01 X51.9915 Y44.6892
G01 X51.9813 Y44.7036
G01 X51.9698 Y44.7170
G01 X51.9570 Y44.7292
G01 X51.9431 Y44.7400
G01 X51.9320 Y44.7473
G01 X51.9164 Y44.7556
G01 X51.9042 Y44.7608
G01 X51.8874 Y44.7664
G01 X51.8745 Y44.7694
G01 X51.8571 Y44.7720
G00 Z1.2500
G00 X59.6683 Y40.5805
G01 F60.00
G01 Z-0.0050
G01 F120.00
G01 X59.6484 Y40.5001
G01 X59.6349 Y40.4094
G01 X59.6304 Y40.3179
G01 X59.6349 Y40.2263
G01 X59.6484 Y40.1357
G01 X59.6706 Y40.0468
G01 X59.7015 Y39.9605
G01 X59.7407 Y39.8776
G01 X59.7878 Y39.7990
G01 X59.8424 Y39.7254
G01 X59.9040 Y39.6574
G01 X59.9719 Y39.5959
G01 X60.0455 Y39.5413
G01 X60.1241 Y39.4942
G01 X60.2070 Y39.4550
G01 X60.2933 Y39.4241
G01 X60.3822 Y39.4018
G01 X60.4729 Y39.3884
G01 X60.5644 Y39.3839
G01 X60.6560 Y39.3884
G01 X60.7466 Y39.4018
G01 X60.8356 Y39.4241
G01 X60.9219 Y39.4550
G01 X61.0047 Y39.4942
G01 X61.0833 Y39.5413
G01 X61.1570 Y39.5959
G01 X61.2249 Y39.6574
G01 X61.2864 Y39.7254
G01 X61.3410 Y39.7990
G01 X61.3881 Y39.8776
G01 X61.4273 Y39.9605
G01 X61.4582 Y40.0468
G01 X61.4805 Y40.1357
G01 X61.4939 Y40.2263
G01 X61.4984 Y40.3179
G01 X61.4939 Y40.4094
G01 X61.4805 Y40.5001
G01 X61.4582 Y40.5890
G01 X61.4273 Y40.6753
G01 X61.3881 Y40.7582
G01 X61.3410 Y40.8368
G01 X61.2864 Y40.9104
G01 X61.2249 Y40.9783
G01 X61.1570 Y41.0399
G01 X61.0833 Y41.0945
G01 X61.0047 Y41.1416
G01 X60.9219 Y41.1808
G01 X60.8356 Y41.2117
G01 X60.7466 Y41.2339
G01 X60.6560 Y41.2474
G01 X60.5644 Y41.2519
G01 X60.4729 Y41.2474
G01 X60.3822 Y41.2339
G01 X60.2933 Y41.2117
G01 X60.2070 Y41.1808
G01 X60.1241 Y41.1416
G01 X60.0455 Y41.0945
G01 X59.9719 Y41.0399
G01 X59.9040 Y40.9783
G01 X59.8424 Y40.9104
G01 X59.7878 Y40.8368
G01 X59.7407 Y40.7582
G01 X59.7015 Y40.6753
G01 X59.6734 Y40.5974
G01 X59.6683 Y40.5805
G00 Z1.2500
G00 X59.7016 Y39.3076
G01 F60.00
G01 Z-0.0050
G01 F120.00
G01 X59.8702 Y39.1851
G01 X60.0560 Y39.0904
G01 X60.2543 Y39.0260
G01 X60.3962 Y39.0035
G01 X60.4602 Y38.9934
G01 X60.6687 Y38.9934
G01 X60.8746 Y39.0260
G01 X61.0729 Y39.0904
G01 X61.2586 Y39.1851
G01 X61.4273 Y39.3076
G01 X61.5747 Y39.4550
G01 X61.6972 Y39.6237
G01 X61.7919 Y39.8095
G01 X61.8563 Y40.0077
G01 X61.8889 Y40.2136
G01 X61.8889 Y40.4221
G01 X61.8563 Y40.6280
G01 X61.7919 Y40.8263
G01 X61.6972 Y41.0121
G01 X61.5747 Y41.1807
G01 X61.4273 Y41.3282
G01 X61.2586 Y41.4507
G01 X61.0729 Y41.5453
G01 X60.8746 Y41.6098
G01 X60.6687 Y41.6424
G01 X60.4602 Y41.6424
G01 X60.2543 Y41.6098
G01 X60.0560 Y41.5453
G01 X59.8702 Y41.4507
G01 X59.7016 Y41.3282
G01 X59.5542 Y41.1807
G01 X59.4316 Y41.0121
G01 X59.3370 Y40.8263
G01 X59.2725 Y40.6280
G01 X59.2399 Y40.4221
G01 X59.2399 Y40.2136
G01 X59.2725 Y40.0077
G01 X59.3370 Y39.8095
G01 X59.4316 Y39.6237
G01 X59.5542 Y39.4550
G01 X59.7016 Y39.3076
G00 Z1.2500
G00 X59.7016 Y50.3076
G01 F60.00
G01 Z-0.0050
G01 F120.00
G01 X59.8702 Y50.1851
G01 X60.0560 Y50.0904
G01 X60.2543 Y50.0260
G01 X60.3962 Y50.0035
G01 X60.4602 Y49.9934
G01 X60.6687 Y49.9934
G01 X60.8746 Y50.0260
G01 X61.0729 Y50.0904
G01 X61.2586 Y50.1851
G01 X61.4273 Y50.3076
G01 X61.5747 Y50.4550
G01 X61.6972 Y50.6237
G01 X61.7919 Y50.8095
G01 X61.8563 Y51.0077
G01 X61.8889 Y51.2136
G01 X61.8889 Y51.4221
G01 X61.8563 Y51.6280
G01 X61.7919 Y51.8263
G01 X61.6972 Y52.0121
G01 X61.5747 Y52.1807
G01 X61.4273 Y52.3282
G01 X61.2586 Y52.4507
G01 X61.0729 Y52.5453
G01 X60.8746 Y52.6098
G01 X60.6687 Y52.6424
G01 X60.4602 Y52.6424
G01 X60.2543 Y52.6098
G01 X60.0560 Y52.5453
G01 X59.8702 Y52.4507
G01 X59.7016 Y52.3282
G01 X59.5542 Y52.1807
G01 X59.4316 Y52.0121
G01 X59.3370 Y51.8263
G01 X59.2725 Y51.6280
G01 X59.2399 Y51.4221
G01 X59.2399 Y51.2136
G01 X59.2725 Y51.0077
G01 X59.3370 Y50.8095
G01 X59.4316 Y50.6237
G01 X59.5542 Y50.4550
G01 X59.7016 Y50.3076
G00 Z1.2500
G00 X59.6683 Y51.5805
G01 F60.00
G01 Z-0.0050
G01 F120.00
G01 X59.6484 Y51.5001
G01 X59.6349 Y51.4094
G01 X59.6304 Y51.3179
G01 X59.6349 Y51.2263
G01 X59.6484 Y51.1357
G01 X59.6706 Y51.0468
G01 X59.7015 Y50.9605
G01 X59.7407 Y50.8776
G01 X59.7878 Y50.7990
G01 X59.8424 Y50.7254
G01 X59.9040 Y50.6574
G01 X59.9719 Y50.5959
G01 X60.0455 Y50.5413
G01 X60.1241 Y50.4942
G01 X60.2070 Y50.4550
G01 X60.2933 Y50.4241
G01 X60.3822 Y50.4018
G01 X60.4729 Y50.3884
G01 X60.5644 Y50.3839
G01 X60.6560 Y50.3884
G01 X60.7466 Y50.4018
G01 X60.8356 Y50.4241
G01 X60.9219 Y50.4550
G01 X61.0047 Y50.4942
G01 X61.0833 Y50.5413
G01 X61.1570 Y50.5959
G01 X61.2249 Y50.6574
G01 X61.2864 Y50.7254
G01 X61.3410 Y50.7990
G01 X61.3881 Y50.8776
G01 X61.4273 Y50.9605
G01 X61.4582 Y51.0468
G01 X61.4805 Y51.1357
G01 X61.4939 Y51.2263
G01 X61.4984 Y51.3179
G01 X61.4939 Y51.4094
G01 X61.4805 Y51.5001
G01 X61.4582 Y51.5890
G01 X61.4273 Y51.6753
G01 X61.3881 Y51.7582
G01 X61.3410 Y51.8368
G01 X61.2864 Y51.9104
G01 X61.2249 Y51.9783
G01 X61.1570 Y52.0399
G01 X61.0833 Y52.0945
G01 X61.0047 Y52.1416
G01 X60.9219 Y52.1808
G01 X60.8356 Y52.2117
G01 X60.7466 Y52.2339
G01 X60.6560 Y52.2474
G01 X60.5644 Y52.2519
G01 X60.4729 Y52.2474
G01 X60.3822 Y52.2339
G01 X60.2933 Y52.2117
G01 X60.2070 Y52.1808
G01 X60.1241 Y52.1416
G01 X60.0455 Y52.0945
G01 X59.9719 Y52.0399
G01 X59.9040 Y51.9783
G01 X59.8424 Y51.9104
G01 X59.7878 Y51.8368
G01 X59.7407 Y51.7582
G01 X59.7015 Y51.6753
G01 X59.6734 Y51.5974
G01 X59.6683 Y51.5805
G00 Z1.2500
G00 X64.5314 Y59.9384
G01 F60.00
G01 Z-0.0050
G01 F120.00
G01 X64.5092 Y59.8488
G01 X64.4944 Y59.7488
G01 X64.4894 Y59.6479
G01 X64.4944 Y59.5469
G01 X64.5092 Y59.4469
G01 X64.5338 Y59.3489
G01 X64.5678 Y59.2537
G01 X64.6111 Y59.1623
G01 X64.6630 Y59.0756
G01 X64.7232 Y58.9945
G01 X64.7911 Y58.9196
G01 X64.8660 Y58.8517
G01 X64.9472 Y58.7915
G01 X65.0338 Y58.7395
G01 X65.1253 Y58.6963
G01 X65.2162 Y58.6636
G01 X65.2290 Y58.6599
G01 X65.3185 Y58.6377
G01 X65.4097 Y58.6239
G01 X65.4229 Y58.6225
G01 X65.5150 Y58.6179
G01 X65.7738 Y58.6179
G01 X65.8704 Y58.6228
G01 X65.9617 Y58.6362
G01 X65.9747 Y58.6386
G01 X66.0599 Y58.6599
G01 X66.0726 Y58.6636
G01 X66.1595 Y58.6946
G01 X66.1717 Y58.6999
G01 X66.2090 Y58.7175
G01 X67.8738 Y58.7176
G01 X67.9606 Y58.7220
G01 X68.0422 Y58.7339
G01 X68.0596 Y58.7373
G01 X68.1310 Y58.7552
G01 X68.1479 Y58.7603
G01 X68.2172 Y58.7851
G01 X68.2335 Y58.7919
G01 X68.3080 Y58.8274
G01 X68.3789 Y58.8696
G01 X68.3935 Y58.8794
G01 X68.4597 Y58.9287
G01 X68.5241 Y58.9869
G01 X72.1052 Y62.5679
G01 X73.2544 Y62.5679
G01 X73.2677 Y62.5684
G01 X73.2808 Y62.5698
G01 X73.2895 Y62.5713
G01 X73.2982 Y62.5733
G01 X73.3109 Y62.5770
G01 X73.3233 Y62.5816
G01 X73.3354 Y62.5871
G01 X73.3470 Y62.5935
G01 X73.3544 Y62.5982
G01 X73.3652 Y62.6060
G01 X73.3753 Y62.6145
G01 X73.3848 Y62.6238
G01 X73.3907 Y62.6303
G01 X73.3963 Y62.6371
G01 X73.4041 Y62.6479
G01 X73.4110 Y62.6592
G01 X73.4155 Y62.6675
G01 X90.9191 Y62.6675
G01 X91.7003 Y61.8863
G01 X91.7081 Y61.8698
G01 X91.7123 Y61.8620
G01 X91.7572 Y61.7871
G01 X91.7647 Y61.7762
G01 X91.8169 Y61.7062
G01 X91.8815 Y61.6349
G01 X91.9460 Y61.5761
G01 X91.9562 Y61.5676
G01 X92.0300 Y61.5130
G01 X92.1125 Y61.4636
G01 X92.1994 Y61.4225
G01 X92.2816 Y61.3929
G01 X92.2985 Y61.3877
G01 X92.3746 Y61.3687
G01 X92.3919 Y61.3652
G01 X92.4784 Y61.3526
G01 X92.5744 Y61.3479
G01 X92.6705 Y61.3526
G01 X92.7656 Y61.3667
G01 X92.8589 Y61.3901
G01 X92.9495 Y61.4225
G01 X93.0364 Y61.4636
G01 X93.1189 Y61.5130
G01 X93.1961 Y61.5703
G01 X93.2610 Y61.6288
G01 X93.2735 Y61.6413
G01 X93.3262 Y61.6995
G01 X93.3374 Y61.7131
G01 X93.3893 Y61.7834
G01 X93.4344 Y61.8582
G01 X93.4427 Y61.8738
G01 X93.4798 Y61.9529
G01 X93.5095 Y62.0350
G01 X93.5146 Y62.0519
G01 X93.5356 Y62.1367
G01 X93.5497 Y62.2318
G01 X93.5544 Y62.3279
G01 X93.5501 Y62.4195
G01 X93.5486 Y62.4327
G01 X93.5356 Y62.5191
G01 X93.5146 Y62.6038
G01 X93.5095 Y62.6208
G01 X93.4830 Y62.6947
G01 X93.4763 Y62.7110
G01 X93.4387 Y62.7899
G01 X93.3893 Y62.8723
G01 X93.3320 Y62.9496
G01 X93.2674 Y63.0208
G01 X93.1961 Y63.0854
G01 X93.1225 Y63.1402
G01 X93.1114 Y63.1475
G01 X93.0403 Y63.1900
G01 X93.0325 Y63.1942
G01 X93.0160 Y63.2020
G01 X91.9623 Y64.2558
G01 X91.8947 Y64.3171
G01 X91.8213 Y64.3715
G01 X91.7507 Y64.4140
G01 X91.7351 Y64.4224
G01 X91.6605 Y64.4574
G01 X91.5829 Y64.4854
G01 X91.5660 Y64.4906
G01 X91.4859 Y64.5104
G01 X91.3956 Y64.5238
G01 X91.3044 Y64.5283
G01 X73.4155 Y64.5283
G01 X73.4110 Y64.5366
G01 X73.4041 Y64.5479
G01 X73.3963 Y64.5586
G01 X73.3907 Y64.5655
G01 X73.3817 Y64.5752
G01 X73.3720 Y64.5842
G01 X73.3652 Y64.5898
G01 X73.3544 Y64.5975
G01 X73.3470 Y64.6023
G01 X73.3354 Y64.6087
G01 X73.3233 Y64.6142
G01 X73.3109 Y64.6188
G01 X73.2982 Y64.6225
G01 X73.2895 Y64.6244
G01 X73.2765 Y64.6265
G01 X73.2633 Y64.6277
G01 X71.5544 Y64.6279
G01 X71.5412 Y64.6274
G01 X71.5237 Y64.6252
G01 X71.5107 Y64.6225
G01 X71.4980 Y64.6188
G01 X71.4815 Y64.6124
G01 X71.4657 Y64.6045
G01 X71.4544 Y64.5975
G01 X71.4402 Y64.5870
G01 X71.4272 Y64.5752
G01 X71.4211 Y64.5688
G01 X71.4125 Y64.5586
G01 X71.4048 Y64.5479
G01 X71.4000 Y64.5404
G01 X71.3917 Y64.5248
G01 X71.3865 Y64.5127
G01 X71.3835 Y64.5043
G01 X71.3810 Y64.4959
G01 X71.3779 Y64.4830
G01 X71.3753 Y64.4655
G01 X71.3745 Y64.4523
G01 X71.3744 Y64.4148
G01 X71.3025 Y64.3715
G01 X71.2362 Y64.3225
G01 X71.2225 Y64.3113
G01 X71.1616 Y64.2558
G01 X67.4841 Y60.5783
G01 X66.2090 Y60.5783
G01 X66.1717 Y60.5959
G01 X66.1595 Y60.6011
G01 X66.0768 Y60.6308
G01 X66.0642 Y60.6348
G01 X65.9704 Y60.6581
G01 X65.8704 Y60.6729
G01 X65.7738 Y60.6778
G01 X65.5150 Y60.6778
G01 X65.4185 Y60.6729
G01 X65.3272 Y60.6596
G01 X65.3142 Y60.6572
G01 X65.2204 Y60.6335
G01 X65.1335 Y60.6027
G01 X65.1172 Y60.5959
G01 X65.0339 Y60.5563
G01 X64.9547 Y60.5090
G01 X64.9400 Y60.4992
G01 X64.8660 Y60.4441
G01 X64.7975 Y60.3823
G01 X64.7850 Y60.3698
G01 X64.7232 Y60.3013
G01 X64.6681 Y60.2273
G01 X64.6583 Y60.2127
G01 X64.6111 Y60.1335
G01 X64.5714 Y60.0501
G01 X64.5647 Y60.0338
G01 X64.5366 Y59.9553
G01 X64.5314 Y59.9384
G00 Z1.2500
G00 X64.5112 Y62.3574
G01 F60.00
G01 Z-0.0050
G01 F120.00
G01 X64.5077 Y62.3401
G01 X64.4955 Y62.2576
G01 X64.4937 Y62.2400
G01 X64.4894 Y62.1479
G01 X64.4944 Y62.0469
G01 X64.5092 Y61.9469
G01 X64.5314 Y61.8574
G01 X64.5366 Y61.8405
G01 X64.5678 Y61.7537
G01 X64.6111 Y61.6623
G01 X64.6583 Y61.5831
G01 X64.6681 Y61.5684
G01 X64.7232 Y61.4945
G01 X64.7850 Y61.4260
G01 X64.7975 Y61.4135
G01 X64.8660 Y61.3517
G01 X64.9435 Y61.2940
G01 X64.9547 Y61.2867
G01 X65.0262 Y61.2439
G01 X65.0418 Y61.2355
G01 X65.1253 Y61.1963
G01 X65.2120 Y61.1650
G01 X65.2290 Y61.1599
G01 X65.3185 Y61.1377
G01 X65.4097 Y61.1239
G01 X65.4229 Y61.1225
G01 X65.5150 Y61.1179
G01 X65.7694 Y61.1179
G01 X65.8704 Y61.1228
G01 X65.9617 Y61.1362
G01 X65.9790 Y61.1396
G01 X66.0684 Y61.1622
G01 X66.1595 Y61.1946
G01 X66.1717 Y61.1999
G01 X66.2550 Y61.2395
G01 X66.3342 Y61.2867
G01 X66.3489 Y61.2966
G01 X66.4229 Y61.3517
G01 X66.4914 Y61.4135
G01 X66.5038 Y61.4260
G01 X66.5656 Y61.4945
G01 X66.6208 Y61.5684
G01 X66.6306 Y61.5831
G01 X66.6778 Y61.6623
G01 X66.7193 Y61.7497
G01 X66.7242 Y61.7620
G01 X66.7523 Y61.8405
G01 X66.7563 Y61.8531
G01 X66.7787 Y61.9426
G01 X66.7804 Y61.9513
G01 X66.7834 Y61.9712
G01 X71.0358 Y66.2235
G01 X77.5824 Y66.2235
G01 X77.6736 Y66.2280
G01 X77.7552 Y66.2399
G01 X77.7683 Y66.2423
G01 X77.8440 Y66.2612
G01 X77.8609 Y66.2663
G01 X77.9385 Y66.2943
G01 X78.0131 Y66.3294
G01 X78.0287 Y66.3377
G01 X78.0993 Y66.3803
G01 X78.1657 Y66.4293
G01 X78.1793 Y66.4405
G01 X78.2403 Y66.4960
G01 X80.0183 Y68.2740
G01 X80.0796 Y68.3417
G01 X80.1340 Y68.4150
G01 X80.1809 Y68.4933
G01 X80.2200 Y68.5758
G01 X80.2507 Y68.6618
G01 X80.2729 Y68.7504
G01 X80.2863 Y68.8407
G01 X80.2908 Y68.9275
G01 X80.2908 Y75.9169
G01 X80.2867 Y76.0037
G01 X80.2852 Y76.0168
G01 X80.2744 Y76.0897
G01 X80.2710 Y76.1070
G01 X80.2507 Y76.1870
G01 X80.2200 Y76.2729
G01 X80.1849 Y76.3476
G01 X80.1766 Y76.3631
G01 X80.1340 Y76.4338
G01 X80.0824 Y76.5037
G01 X80.0738 Y76.5138
G01 X80.0183 Y76.5748
G01 X79.3206 Y77.2725
G01 X91.0461 Y77.2725
G01 X91.8273 Y76.4913
G01 X91.8351 Y76.4748
G01 X91.8393 Y76.4670
G01 X91.8842 Y76.3921
G01 X91.8917 Y76.3812
G01 X91.9439 Y76.3112
G01 X92.0085 Y76.2399
G01 X92.0730 Y76.1811
G01 X92.0832 Y76.1726
G01 X92.1570 Y76.1180
G01 X92.2395 Y76.0686
G01 X92.3264 Y76.0275
G01 X92.4086 Y75.9979
G01 X92.4255 Y75.9927
G01 X92.5016 Y75.9737
G01 X92.5189 Y75.9702
G01 X92.6054 Y75.9576
G01 X92.7014 Y75.9529
G01 X92.7975 Y75.9576
G01 X92.8839 Y75.9702
G01 X92.9012 Y75.9737
G01 X92.9859 Y75.9951
G01 X93.0682 Y76.0243
G01 X93.0845 Y76.0311
G01 X93.1634 Y76.0686
G01 X93.2384 Y76.1133
G01 X93.2531 Y76.1231
G01 X93.3231 Y76.1753
G01 X93.3880 Y76.2338
G01 X93.4005 Y76.2463
G01 X93.4590 Y76.3112
G01 X93.5112 Y76.3812
G01 X93.5210 Y76.3959
G01 X93.5657 Y76.4709
G01 X93.6033 Y76.5498
G01 X93.6100 Y76.5661
G01 X93.6392 Y76.6484
G01 X93.6607 Y76.7331
G01 X93.6641 Y76.7504
G01 X93.6767 Y76.8368
G01 X93.6812 Y76.9241
G01 X93.6812 Y76.9417
G01 X93.6767 Y77.0289
G01 X93.6641 Y77.1154
G01 X93.6607 Y77.1327
G01 X93.6392 Y77.2174
G01 X93.6100 Y77.2997
G01 X93.6033 Y77.3160
G01 X93.5677 Y77.3909
G01 X93.5614 Y77.4025
G01 X93.5210 Y77.4699
G01 X93.5112 Y77.4846
G01 X93.4590 Y77.5546
G01 X93.3944 Y77.6258
G01 X93.3231 Y77.6904
G01 X93.2495 Y77.7452
G01 X93.2384 Y77.7525
G01 X93.1673 Y77.7950
G01 X93.1595 Y77.7992
G01 X93.1430 Y77.8070
G01 X92.0893 Y78.8608
G01 X92.0250 Y78.9192
G01 X92.0147 Y78.9275
G01 X91.9555 Y78.9714
G01 X91.9409 Y78.9812
G01 X91.8700 Y79.0234
G01 X91.7875 Y79.0624
G01 X91.7015 Y79.0932
G01 X91.6216 Y79.1134
G01 X91.6042 Y79.1169
G01 X91.5314 Y79.1277
G01 X91.5182 Y79.1292
G01 X91.4314 Y79.1333
G01 X73.5425 Y79.1333
G01 X73.5380 Y79.1416
G01 X73.5311 Y79.1529
G01 X73.5233 Y79.1636
G01 X73.5177 Y79.1705
G01 X73.5087 Y79.1802
G01 X73.4990 Y79.1892
G01 X73.4922 Y79.1948
G01 X73.4814 Y79.2025
G01 X73.4702 Y79.2095
G01 X73.4584 Y79.2156
G01 X73.4503 Y79.2192
G01 X73.4379 Y79.2238
G01 X73.4294 Y79.2264
G01 X73.4165 Y79.2294
G01 X73.4035 Y79.2315
G01 X73.3903 Y79.2327
G01 X71.6814 Y79.2329
G01 X71.6682 Y79.2324
G01 X71.6594 Y79.2315
G01 X71.6420 Y79.2285
G01 X71.6334 Y79.2264
G01 X71.6208 Y79.2224
G01 X71.6125 Y79.2192
G01 X71.6005 Y79.2137
G01 X71.5889 Y79.2073
G01 X71.5778 Y79.2000
G01 X71.5672 Y79.1920
G01 X71.5573 Y79.1832
G01 X71.5481 Y79.1738
G01 X71.5395 Y79.1636
G01 X71.5318 Y79.1529
G01 X71.5270 Y79.1454
G01 X71.5206 Y79.1338
G01 X71.5151 Y79.1218
G01 X71.5105 Y79.1093
G01 X71.5080 Y79.1009
G01 X71.5049 Y79.0880
G01 X71.5034 Y79.0793
G01 X71.5019 Y79.0661
G01 X71.5014 Y79.0529
G01 X71.5016 Y77.3441
G01 X71.5028 Y77.3309
G01 X71.5041 Y77.3221
G01 X71.5068 Y77.3091
G01 X71.5105 Y77.2964
G01 X71.5135 Y77.2881
G01 X71.5187 Y77.2759
G01 X71.5248 Y77.2642
G01 X71.5294 Y77.2566
G01 X71.5343 Y77.2492
G01 X71.5423 Y77.2387
G01 X71.5511 Y77.2288
G01 X71.5605 Y77.2195
G01 X71.5707 Y77.2110
G01 X71.5778 Y77.2057
G01 X71.5889 Y77.1985
G01 X71.5966 Y77.1941
G01 X71.6045 Y77.1902
G01 X71.6166 Y77.1849
G01 X71.6250 Y77.1820
G01 X71.6377 Y77.1783
G01 X71.6463 Y77.1763
G01 X71.6594 Y77.1742
G01 X71.6726 Y77.1731
G01 X71.6814 Y77.1729
G01 X73.3858 Y77.1729
G01 X73.3947 Y77.1734
G01 X73.4078 Y77.1748
G01 X73.4209 Y77.1773
G01 X73.4337 Y77.1806
G01 X73.4421 Y77.1834
G01 X73.4544 Y77.1883
G01 X73.4663 Y77.1941
G01 X73.4777 Y77.2008
G01 X73.4887 Y77.2083
G01 X73.4990 Y77.2166
G01 X73.5087 Y77.2256
G01 X73.5148 Y77.2320
G01 X73.5233 Y77.2421
G01 X73.5311 Y77.2529
G01 X73.5380 Y77.2642
G01 X73.5425 Y77.2725
G01 X76.6891 Y77.2725
G01 X78.4301 Y75.5315
G01 X78.4301 Y69.3173
G01 X77.1971 Y68.0843
G01 X70.6460 Y68.0842
G01 X70.5680 Y68.0804
G01 X70.5505 Y68.0787
G01 X70.4689 Y68.0664
G01 X70.3889 Y68.0466
G01 X70.3720 Y68.0414
G01 X70.2944 Y68.0134
G01 X70.2158 Y67.9764
G01 X70.2042 Y67.9700
G01 X70.1410 Y67.9322
G01 X70.1263 Y67.9224
G01 X70.0602 Y67.8731
G01 X69.9926 Y67.8118
G01 X65.3427 Y63.1619
G01 X65.3228 Y63.1589
G01 X65.3142 Y63.1572
G01 X65.2290 Y63.1359
G01 X65.2162 Y63.1322
G01 X65.1253 Y63.0995
G01 X65.0378 Y63.0583
G01 X65.0262 Y63.0519
G01 X64.9547 Y63.0090
G01 X64.9400 Y62.9992
G01 X64.8660 Y62.9441
G01 X64.7911 Y62.8762
G01 X64.7290 Y62.8080
G01 X64.7178 Y62.7943
G01 X64.6630 Y62.7201
G01 X64.6111 Y62.6335
G01 X64.5714 Y62.5501
G01 X64.5647 Y62.5338
G01 X64.5338 Y62.4469
G01 X64.5112 Y62.3574
G00 Z1.2500
G00 X71.4164 Y58.8084
G01 F60.00
G01 Z-0.0050
G01 F120.00
G01 X71.3942 Y58.7188
G01 X71.3794 Y58.6188
G01 X71.3744 Y58.5179
G01 X71.3794 Y58.4169
G01 X71.3942 Y58.3169
G01 X71.4188 Y58.2189
G01 X71.4528 Y58.1237
G01 X71.4961 Y58.0323
G01 X71.5480 Y57.9456
G01 X71.6082 Y57.8645
G01 X71.6761 Y57.7896
G01 X71.7510 Y57.7217
G01 X71.8322 Y57.6615
G01 X71.9188 Y57.6095
G01 X72.0103 Y57.5663
G01 X72.1054 Y57.5322
G01 X72.2035 Y57.5077
G01 X72.3035 Y57.4928
G01 X72.4044 Y57.4879
G01 X72.5054 Y57.4928
G01 X72.6054 Y57.5077
G01 X72.7034 Y57.5322
G01 X72.7986 Y57.5663
G01 X72.8900 Y57.6095
G01 X72.9767 Y57.6615
G01 X73.0579 Y57.7217
G01 X73.1327 Y57.7896
G01 X73.2006 Y57.8645
G01 X73.2608 Y57.9456
G01 X73.3128 Y58.0323
G01 X73.3560 Y58.1237
G01 X73.3901 Y58.2189
G01 X73.4146 Y58.3169
G01 X73.4295 Y58.4169
G01 X73.4344 Y58.5179
G01 X73.4295 Y58.6188
G01 X73.4146 Y58.7188
G01 X73.3901 Y58.8169
G01 X73.3560 Y58.9120
G01 X73.3128 Y59.0034
G01 X73.2608 Y59.0901
G01 X73.2006 Y59.1713
G01 X73.1327 Y59.2462
G01 X73.0579 Y59.3141
G01 X72.9767 Y59.3743
G01 X72.8900 Y59.4262
G01 X72.7986 Y59.4695
G01 X72.7034 Y59.5035
G01 X72.6054 Y59.5281
G01 X72.5054 Y59.5429
G01 X72.4044 Y59.5479
G01 X72.3035 Y59.5429
G01 X72.2035 Y59.5281
G01 X72.1054 Y59.5035
G01 X72.0103 Y59.4695
G01 X71.9189 Y59.4263
G01 X71.8322 Y59.3743
G01 X71.7510 Y59.3141
G01 X71.6761 Y59.2462
G01 X71.6082 Y59.1713
G01 X71.5480 Y59.0901
G01 X71.4961 Y59.0035
G01 X71.4528 Y58.9120
G01 X71.4216 Y58.8253
G01 X71.4164 Y58.8084
G00 Z1.2500
G00 X71.3962 Y56.1874
G01 F60.00
G01 Z-0.0050
G01 F120.00
G01 X71.3927 Y56.1701
G01 X71.3794 Y56.0788
G01 X71.3744 Y55.9779
G01 X71.3794 Y55.8769
G01 X71.3942 Y55.7769
G01 X71.4188 Y55.6789
G01 X71.4528 Y55.5837
G01 X71.4961 Y55.4923
G01 X71.5480 Y55.4056
G01 X71.6082 Y55.3245
G01 X71.6761 Y55.2496
G01 X71.7510 Y55.1817
G01 X71.8322 Y55.1215
G01 X71.9188 Y55.0695
G01 X72.0103 Y55.0263
G01 X72.1054 Y54.9922
G01 X72.2035 Y54.9677
G01 X72.3035 Y54.9528
G01 X72.4044 Y54.9479
G01 X72.5054 Y54.9528
G01 X72.6054 Y54.9677
G01 X72.7034 Y54.9922
G01 X72.7986 Y55.0263
G01 X72.8900 Y55.0695
G01 X72.9767 Y55.1215
G01 X73.0579 Y55.1817
G01 X73.1327 Y55.2496
G01 X73.2006 Y55.3245
G01 X73.2608 Y55.4056
G01 X73.3128 Y55.4923
G01 X73.3560 Y55.5837
G01 X73.3901 Y55.6789
G01 X73.4146 Y55.7769
G01 X73.4295 Y55.8769
G01 X73.4344 Y55.9779
G01 X73.4295 Y56.0788
G01 X73.4146 Y56.1788
G01 X73.3901 Y56.2769
G01 X73.3560 Y56.3720
G01 X73.3128 Y56.4634
G01 X73.2608 Y56.5501
G01 X73.2006 Y56.6313
G01 X73.1327 Y56.7062
G01 X73.0579 Y56.7741
G01 X72.9767 Y56.8343
G01 X72.8900 Y56.8862
G01 X72.7986 Y56.9295
G01 X72.7034 Y56.9635
G01 X72.6054 Y56.9881
G01 X72.5054 Y57.0029
G01 X72.4044 Y57.0079
G01 X72.3035 Y57.0029
G01 X72.2035 Y56.9881
G01 X72.1054 Y56.9635
G01 X72.0103 Y56.9295
G01 X71.9189 Y56.8863
G01 X71.8322 Y56.8343
G01 X71.7510 Y56.7741
G01 X71.6761 Y56.7062
G01 X71.6082 Y56.6313
G01 X71.5480 Y56.5501
G01 X71.4961 Y56.4635
G01 X71.4528 Y56.3720
G01 X71.4188 Y56.2769
G01 X71.3962 Y56.1874
G00 Z1.2500
G00 X71.4790 Y54.8944
G01 F60.00
G01 Z-0.0050
G01 F120.00
G01 X71.6599 Y54.7630
G01 X71.8591 Y54.6615
G01 X72.0718 Y54.5924
G01 X72.2926 Y54.5574
G01 X72.5162 Y54.5574
G01 X72.7371 Y54.5924
G01 X72.9497 Y54.6615
G01 X73.1489 Y54.7630
G01 X73.3298 Y54.8944
G01 X73.4879 Y55.0525
G01 X73.6194 Y55.2334
G01 X73.7209 Y55.4326
G01 X73.7900 Y55.6452
G01 X73.8249 Y55.8661
G01 X73.8249 Y56.0897
G01 X73.7900 Y56.3105
G01 X73.7209 Y56.5232
G01 X73.6194 Y56.7224
G01 X73.4879 Y56.9033
G01 X73.3583 Y57.0329
G01 X73.3495 Y57.0423
G01 X73.3415 Y57.0523
G01 X73.3365 Y57.0593
G01 X73.3056 Y57.1072
G01 X73.2988 Y57.1188
G01 X73.2928 Y57.1309
G01 X73.2863 Y57.1477
G01 X73.2825 Y57.1607
G01 X73.2797 Y57.1739
G01 X73.2775 Y57.1917
G01 X73.2725 Y57.2614
G01 X73.2721 Y57.2748
G01 X73.2730 Y57.2927
G01 X73.2757 Y57.3103
G01 X73.2789 Y57.3233
G01 X73.2846 Y57.3403
G01 X73.2881 Y57.3485
G01 X73.2941 Y57.3605
G01 X73.3276 Y57.4218
G01 X73.3341 Y57.4329
G01 X73.3441 Y57.4468
G01 X73.3553 Y57.4598
G01 X73.4879 Y57.5925
G01 X73.6194 Y57.7734
G01 X73.7209 Y57.9726
G01 X73.7900 Y58.1852
G01 X73.8249 Y58.4061
G01 X73.8249 Y58.6297
G01 X73.7900 Y58.8505
G01 X73.7209 Y59.0632
G01 X73.6194 Y59.2624
G01 X73.4879 Y59.4433
G01 X73.3298 Y59.6014
G01 X73.1489 Y59.7328
G01 X72.9497 Y59.8343
G01 X72.7371 Y59.9034
G01 X72.5162 Y59.9384
G01 X72.2926 Y59.9384
G01 X72.0718 Y59.9034
G01 X71.8591 Y59.8343
G01 X71.6599 Y59.7328
G01 X71.4790 Y59.6014
G01 X71.3209 Y59.4433
G01 X71.1895 Y59.2624
G01 X71.0880 Y59.0632
G01 X71.0189 Y58.8505
G01 X70.9839 Y58.6297
G01 X70.9839 Y58.4061
G01 X71.0189 Y58.1852
G01 X71.0880 Y57.9726
G01 X71.1895 Y57.7734
G01 X71.3209 Y57.5925
G01 X71.4506 Y57.4628
G01 X71.4593 Y57.4534
G01 X71.4674 Y57.4434
G01 X71.4724 Y57.4365
G01 X71.5032 Y57.3885
G01 X71.5101 Y57.3769
G01 X71.5161 Y57.3648
G01 X71.5211 Y57.3523
G01 X71.5264 Y57.3351
G01 X71.5292 Y57.3219
G01 X71.5313 Y57.3041
G01 X71.5363 Y57.2344
G01 X71.5368 Y57.2210
G01 X71.5358 Y57.2031
G01 X71.5331 Y57.1855
G01 X71.5287 Y57.1681
G01 X71.5242 Y57.1555
G01 X71.5189 Y57.1432
G01 X71.5148 Y57.1353
G01 X71.4813 Y57.0739
G01 X71.4747 Y57.0629
G01 X71.4648 Y57.0489
G01 X71.4536 Y57.0360
G01 X71.3209 Y56.9033
G01 X71.1895 Y56.7224
G01 X71.0880 Y56.5232
G01 X71.0189 Y56.3105
G01 X71.0174 Y56.3011
G01 X70.9839 Y56.0897
G01 X70.9839 Y55.8661
G01 X71.0189 Y55.6452
G01 X71.0880 Y55.4326
G01 X71.1895 Y55.2334
G01 X71.3209 Y55.0525
G01 X71.4790 Y54.8944
G00 Z1.2500
G00 X72.0828 Y46.1946
G01 F60.00
G01 Z-0.0050
G01 F120.00
G01 X72.2565 Y46.0613
G01 X72.4462 Y45.9518
G01 X72.6485 Y45.8680
G01 X72.8600 Y45.8113
G01 X73.0771 Y45.7828
G01 X73.2961 Y45.7828
G01 X73.5132 Y45.8113
G01 X73.7247 Y45.8680
G01 X73.9270 Y45.9518
G01 X74.1167 Y46.0613
G01 X74.2904 Y46.1946
G01 X74.4452 Y46.3495
G01 X74.5785 Y46.5232
G01 X74.6880 Y46.7128
G01 X74.7718 Y46.9152
G01 X74.8285 Y47.1267
G01 X74.8571 Y47.3438
G01 X74.8571 Y47.5628
G01 X74.8285 Y47.7799
G01 X74.7718 Y47.9914
G01 X74.6880 Y48.1937
G01 X74.5785 Y48.3833
G01 X74.4452 Y48.5571
G01 X74.2904 Y48.7119
G01 X74.1167 Y48.8452
G01 X73.9270 Y48.9547
G01 X73.7247 Y49.0385
G01 X73.5132 Y49.0952
G01 X73.2961 Y49.1238
G01 X73.0771 Y49.1238
G01 X72.8600 Y49.0952
G01 X72.6485 Y49.0385
G01 X72.4461 Y48.9547
G01 X72.2565 Y48.8452
G01 X72.0828 Y48.7119
G01 X71.9279 Y48.5571
G01 X71.7946 Y48.3833
G01 X71.6851 Y48.1937
G01 X71.6013 Y47.9914
G01 X71.5447 Y47.7799
G01 X71.5161 Y47.5628
G01 X71.5161 Y47.3438
G01 X71.5447 Y47.1267
G01 X71.6013 Y46.9151
G01 X71.6851 Y46.7128
G01 X71.7946 Y46.5232
G01 X71.9279 Y46.3495
G01 X72.0828 Y46.1946
G00 Z1.2500
G00 X71.7869 Y69.3680
G01 F60.00
G01 Z-0.0050
G01 F120.00
G01 X71.9861 Y69.2665
G01 X72.1988 Y69.1974
G01 X72.4196 Y69.1624
G01 X72.6432 Y69.1624
G01 X72.8641 Y69.1974
G01 X73.0767 Y69.2665
G01 X73.2759 Y69.3680
G01 X73.4568 Y69.4994
G01 X73.6149 Y69.6575
G01 X73.7463 Y69.8384
G01 X73.8479 Y70.0376
G01 X73.9170 Y70.2502
G01 X73.9519 Y70.4711
G01 X73.9519 Y70.6947
G01 X73.9170 Y70.9155
G01 X73.8479 Y71.1282
G01 X73.7464 Y71.3274
G01 X73.6149 Y71.5083
G01 X73.4853 Y71.6379
G01 X73.4765 Y71.6473
G01 X73.4685 Y71.6573
G01 X73.4635 Y71.6643
G01 X73.4326 Y71.7122
G01 X73.4258 Y71.7238
G01 X73.4198 Y71.7359
G01 X73.4147 Y71.7485
G01 X73.4106 Y71.7613
G01 X73.4067 Y71.7789
G01 X73.4045 Y71.7967
G01 X73.3995 Y71.8664
G01 X73.3991 Y71.8798
G01 X73.4000 Y71.8977
G01 X73.4019 Y71.9109
G01 X73.4059 Y71.9283
G01 X73.4116 Y71.9453
G01 X73.4151 Y71.9535
G01 X73.4211 Y71.9655
G01 X73.4546 Y72.0268
G01 X73.4611 Y72.0379
G01 X73.4711 Y72.0518
G01 X73.4823 Y72.0648
G01 X73.6149 Y72.1975
G01 X73.7464 Y72.3784
G01 X73.8479 Y72.5776
G01 X73.9170 Y72.7902
G01 X73.9519 Y73.0111
G01 X73.9519 Y73.2347
G01 X73.9170 Y73.4555
G01 X73.8479 Y73.6682
G01 X73.7464 Y73.8674
G01 X73.6149 Y74.0483
G01 X73.4568 Y74.2064
G01 X73.2759 Y74.3378
G01 X73.0767 Y74.4393
G01 X72.8641 Y74.5084
G01 X72.6432 Y74.5434
G01 X72.4196 Y74.5434
G01 X72.1988 Y74.5084
G01 X71.9861 Y74.4393
G01 X71.7869 Y74.3378
G01 X71.6060 Y74.2064
G01 X71.4479 Y74.0483
G01 X71.3165 Y73.8674
G01 X71.2150 Y73.6682
G01 X71.1459 Y73.4555
G01 X71.1109 Y73.2347
G01 X71.1109 Y73.0111
G01 X71.1459 Y72.7902
G01 X71.2150 Y72.5776
G01 X71.3165 Y72.3784
G01 X71.4479 Y72.1975
G01 X71.5776 Y72.0678
G01 X71.5863 Y72.0584
G01 X71.5944 Y72.0484
G01 X71.5994 Y72.0415
G01 X71.6302 Y71.9935
G01 X71.6371 Y71.9819
G01 X71.6431 Y71.9698
G01 X71.6496 Y71.9531
G01 X71.6534 Y71.9401
G01 X71.6562 Y71.9269
G01 X71.6583 Y71.9091
G01 X71.6633 Y71.8394
G01 X71.6638 Y71.8260
G01 X71.6628 Y71.8081
G01 X71.6610 Y71.7948
G01 X71.6570 Y71.7774
G01 X71.6512 Y71.7605
G01 X71.6477 Y71.7523
G01 X71.6418 Y71.7403
G01 X71.6083 Y71.6789
G01 X71.6017 Y71.6679
G01 X71.5918 Y71.6539
G01 X71.5806 Y71.6410
G01 X71.4479 Y71.5083
G01 X71.3165 Y71.3274
G01 X71.2150 Y71.1282
G01 X71.1459 Y70.9155
G01 X71.1109 Y70.6947
G01 X71.1109 Y70.4711
G01 X71.1459 Y70.2502
G01 X71.2150 Y70.0376
G01 X71.3165 Y69.8384
G01 X71.4479 Y69.6575
G01 X71.6060 Y69.4994
G01 X71.7869 Y69.3680
G00 Z1.2500
G00 X71.5434 Y70.8734
G01 F60.00
G01 Z-0.0050
G01 F120.00
G01 X71.5212 Y70.7838
G01 X71.5064 Y70.6838
G01 X71.5014 Y70.5829
G01 X71.5064 Y70.4819
G01 X71.5212 Y70.3819
G01 X71.5458 Y70.2839
G01 X71.5798 Y70.1887
G01 X71.6231 Y70.0973
G01 X71.6750 Y70.0106
G01 X71.7352 Y69.9295
G01 X71.8031 Y69.8546
G01 X71.8780 Y69.7867
G01 X71.9592 Y69.7265
G01 X72.0458 Y69.6745
G01 X72.1373 Y69.6313
G01 X72.2324 Y69.5972
G01 X72.3305 Y69.5727
G01 X72.4305 Y69.5578
G01 X72.5314 Y69.5529
G01 X72.6324 Y69.5578
G01 X72.7324 Y69.5727
G01 X72.8304 Y69.5972
G01 X72.9256 Y69.6313
G01 X73.0170 Y69.6745
G01 X73.1037 Y69.7265
G01 X73.1849 Y69.7867
G01 X73.2597 Y69.8546
G01 X73.3276 Y69.9295
G01 X73.3878 Y70.0106
G01 X73.4398 Y70.0973
G01 X73.4830 Y70.1887
G01 X73.5171 Y70.2839
G01 X73.5416 Y70.3819
G01 X73.5565 Y70.4819
G01 X73.5614 Y70.5829
G01 X73.5565 Y70.6838
G01 X73.5416 Y70.7838
G01 X73.5171 Y70.8819
G01 X73.4830 Y70.9770
G01 X73.4398 Y71.0684
G01 X73.3878 Y71.1551
G01 X73.3276 Y71.2363
G01 X73.2597 Y71.3112
G01 X73.1849 Y71.3791
G01 X73.1037 Y71.4393
G01 X73.0170 Y71.4912
G01 X72.9256 Y71.5345
G01 X72.8304 Y71.5685
G01 X72.7324 Y71.5931
G01 X72.6324 Y71.6079
G01 X72.5314 Y71.6129
G01 X72.4305 Y71.6079
G01 X72.3305 Y71.5931
G01 X72.2324 Y71.5685
G01 X72.1373 Y71.5345
G01 X72.0459 Y71.4913
G01 X71.9592 Y71.4393
G01 X71.8780 Y71.3791
G01 X71.8031 Y71.3112
G01 X71.7352 Y71.2363
G01 X71.6750 Y71.1551
G01 X71.6231 Y71.0685
G01 X71.5798 Y70.9770
G01 X71.5486 Y70.8903
G01 X71.5434 Y70.8734
G00 Z1.2500
G00 X71.5232 Y73.3324
G01 F60.00
G01 Z-0.0050
G01 F120.00
G01 X71.5197 Y73.3151
G01 X71.5064 Y73.2238
G01 X71.5014 Y73.1229
G01 X71.5064 Y73.0219
G01 X71.5212 Y72.9219
G01 X71.5458 Y72.8239
G01 X71.5798 Y72.7287
G01 X71.6231 Y72.6373
G01 X71.6750 Y72.5506
G01 X71.7352 Y72.4695
G01 X71.8031 Y72.3946
G01 X71.8780 Y72.3267
G01 X71.9592 Y72.2665
G01 X72.0458 Y72.2145
G01 X72.1373 Y72.1713
G01 X72.2324 Y72.1372
G01 X72.3305 Y72.1127
G01 X72.4305 Y72.0978
G01 X72.5314 Y72.0929
G01 X72.6324 Y72.0978
G01 X72.7324 Y72.1127
G01 X72.8304 Y72.1372
G01 X72.9256 Y72.1713
G01 X73.0170 Y72.2145
G01 X73.1037 Y72.2665
G01 X73.1849 Y72.3267
G01 X73.2597 Y72.3946
G01 X73.3276 Y72.4695
G01 X73.3878 Y72.5506
G01 X73.4398 Y72.6373
G01 X73.4830 Y72.7287
G01 X73.5171 Y72.8239
G01 X73.5416 Y72.9219
G01 X73.5565 Y73.0219
G01 X73.5614 Y73.1229
G01 X73.5565 Y73.2238
G01 X73.5416 Y73.3238
G01 X73.5171 Y73.4219
G01 X73.4830 Y73.5170
G01 X73.4398 Y73.6084
G01 X73.3878 Y73.6951
G01 X73.3276 Y73.7763
G01 X73.2597 Y73.8512
G01 X73.1849 Y73.9191
G01 X73.1037 Y73.9793
G01 X73.0170 Y74.0312
G01 X72.9256 Y74.0745
G01 X72.8304 Y74.1085
G01 X72.7324 Y74.1331
G01 X72.6324 Y74.1479
G01 X72.5314 Y74.1529
G01 X72.4305 Y74.1479
G01 X72.3305 Y74.1331
G01 X72.2324 Y74.1085
G01 X72.1373 Y74.0745
G01 X72.0459 Y74.0313
G01 X71.9592 Y73.9793
G01 X71.8780 Y73.9191
G01 X71.8031 Y73.8512
G01 X71.7352 Y73.7763
G01 X71.6750 Y73.6951
G01 X71.6231 Y73.6085
G01 X71.5798 Y73.5170
G01 X71.5458 Y73.4219
G01 X71.5232 Y73.3324
G00 Z1.2500
G00 X63.2614 Y74.5434
G01 F60.00
G01 Z-0.0050
G01 F120.00
G01 X63.2392 Y74.4538
G01 X63.2244 Y74.3538
G01 X63.2194 Y74.2529
G01 X63.2237 Y74.1607
G01 X63.2255 Y74.1432
G01 X63.2392 Y74.0519
G01 X63.2614 Y73.9624
G01 X63.2666 Y73.9455
G01 X63.2978 Y73.8587
G01 X63.3371 Y73.7752
G01 X63.3454 Y73.7597
G01 X63.3883 Y73.6881
G01 X63.3981 Y73.6734
G01 X63.4532 Y73.5995
G01 X63.5211 Y73.5246
G01 X63.5960 Y73.4567
G01 X63.6772 Y73.3965
G01 X63.7638 Y73.3445
G01 X63.8553 Y73.3013
G01 X63.9504 Y73.2672
G01 X64.0442 Y73.2436
G01 X64.0572 Y73.2412
G01 X64.1485 Y73.2278
G01 X64.2450 Y73.2229
G01 X64.5038 Y73.2229
G01 X64.6004 Y73.2278
G01 X64.7004 Y73.2427
G01 X64.7984 Y73.2672
G01 X64.8936 Y73.3013
G01 X64.9850 Y73.3445
G01 X65.0717 Y73.3965
G01 X65.1529 Y73.4567
G01 X65.2277 Y73.5246
G01 X65.2899 Y73.5928
G01 X65.3011 Y73.6064
G01 X65.3508 Y73.6734
G01 X65.3606 Y73.6881
G01 X65.4078 Y73.7673
G01 X65.4474 Y73.8506
G01 X65.4542 Y73.8670
G01 X65.4851 Y73.9539
G01 X65.5087 Y74.0476
G01 X65.5111 Y74.0606
G01 X65.5245 Y74.1519
G01 X65.5294 Y74.2529
G01 X65.5245 Y74.3538
G01 X65.5096 Y74.4538
G01 X65.4851 Y74.5519
G01 X65.4510 Y74.6470
G01 X65.4078 Y74.7384
G01 X65.3558 Y74.8251
G01 X65.2956 Y74.9063
G01 X65.2277 Y74.9812
G01 X65.1529 Y75.0491
G01 X65.0717 Y75.1093
G01 X64.9850 Y75.1612
G01 X64.8936 Y75.2045
G01 X64.7984 Y75.2385
G01 X64.7047 Y75.2622
G01 X64.6917 Y75.2646
G01 X64.6004 Y75.2779
G01 X64.5038 Y75.2828
G01 X64.2450 Y75.2828
G01 X64.1485 Y75.2779
G01 X64.0485 Y75.2631
G01 X63.9504 Y75.2385
G01 X63.8553 Y75.2045
G01 X63.7678 Y75.1633
G01 X63.7562 Y75.1569
G01 X63.6772 Y75.1093
G01 X63.5960 Y75.0491
G01 X63.5211 Y74.9812
G01 X63.4532 Y74.9063
G01 X63.3930 Y74.8251
G01 X63.3411 Y74.7385
G01 X63.2978 Y74.6470
G01 X63.2666 Y74.5603
G01 X63.2614 Y74.5434
G00 Z1.2500
G00 X63.2614 Y72.0434
G01 F60.00
G01 Z-0.0050
G01 F120.00
G01 X63.2392 Y71.9538
G01 X63.2244 Y71.8538
G01 X63.2194 Y71.7529
G01 X63.2237 Y71.6607
G01 X63.2255 Y71.6432
G01 X63.2392 Y71.5519
G01 X63.2614 Y71.4624
G01 X63.2666 Y71.4455
G01 X63.2978 Y71.3587
G01 X63.3371 Y71.2752
G01 X63.3454 Y71.2597
G01 X63.3883 Y71.1881
G01 X63.3981 Y71.1734
G01 X63.4532 Y71.0995
G01 X63.5211 Y71.0246
G01 X63.5960 Y70.9567
G01 X63.6772 Y70.8965
G01 X63.7638 Y70.8445
G01 X63.8553 Y70.8013
G01 X63.9504 Y70.7672
G01 X64.0442 Y70.7436
G01 X64.0572 Y70.7412
G01 X64.1485 Y70.7278
G01 X64.2450 Y70.7229
G01 X64.5038 Y70.7229
G01 X64.6004 Y70.7278
G01 X64.7004 Y70.7427
G01 X64.7984 Y70.7672
G01 X64.8936 Y70.8013
G01 X64.9850 Y70.8445
G01 X65.0717 Y70.8965
G01 X65.1529 Y70.9567
G01 X65.2277 Y71.0246
G01 X65.2899 Y71.0928
G01 X65.3011 Y71.1064
G01 X65.3508 Y71.1734
G01 X65.3606 Y71.1881
G01 X65.4078 Y71.2673
G01 X65.4474 Y71.3506
G01 X65.4542 Y71.3670
G01 X65.4851 Y71.4539
G01 X65.5087 Y71.5476
G01 X65.5111 Y71.5606
G01 X65.5245 Y71.6519
G01 X65.5294 Y71.7529
G01 X65.5245 Y71.8538
G01 X65.5096 Y71.9538
G01 X65.4851 Y72.0519
G01 X65.4510 Y72.1470
G01 X65.4078 Y72.2384
G01 X65.3558 Y72.3251
G01 X65.2956 Y72.4063
G01 X65.2277 Y72.4812
G01 X65.1529 Y72.5491
G01 X65.0717 Y72.6093
G01 X64.9850 Y72.6612
G01 X64.8936 Y72.7045
G01 X64.7984 Y72.7385
G01 X64.7047 Y72.7622
G01 X64.6917 Y72.7646
G01 X64.6004 Y72.7779
G01 X64.5038 Y72.7828
G01 X64.2450 Y72.7828
G01 X64.1485 Y72.7779
G01 X64.0485 Y72.7631
G01 X63.9504 Y72.7385
G01 X63.8553 Y72.7045
G01 X63.7678 Y72.6633
G01 X63.7562 Y72.6569
G01 X63.6772 Y72.6093
G01 X63.5960 Y72.5491
G01 X63.5211 Y72.4812
G01 X63.4532 Y72.4063
G01 X63.3930 Y72.3251
G01 X63.3411 Y72.2385
G01 X63.2978 Y72.1470
G01 X63.2666 Y72.0603
G01 X63.2614 Y72.0434
G00 Z1.2500
G00 X63.3240 Y70.6694
G01 F60.00
G01 Z-0.0050
G01 F120.00
G01 X63.5049 Y70.5380
G01 X63.7041 Y70.4365
G01 X63.9168 Y70.3674
G01 X64.1376 Y70.3324
G01 X64.6112 Y70.3324
G01 X64.8321 Y70.3674
G01 X65.0447 Y70.4365
G01 X65.2439 Y70.5380
G01 X65.4248 Y70.6694
G01 X65.5829 Y70.8275
G01 X65.7144 Y71.0084
G01 X65.8159 Y71.2076
G01 X65.8850 Y71.4202
G01 X65.9199 Y71.6411
G01 X65.9199 Y71.8647
G01 X65.8850 Y72.0855
G01 X65.8159 Y72.2982
G01 X65.7144 Y72.4974
G01 X65.5829 Y72.6783
G01 X65.4733 Y72.7879
G01 X65.4645 Y72.7973
G01 X65.4565 Y72.8073
G01 X65.4491 Y72.8179
G01 X65.4183 Y72.8660
G01 X65.4117 Y72.8778
G01 X65.4060 Y72.8901
G01 X65.3999 Y72.9070
G01 X65.3965 Y72.9200
G01 X65.3940 Y72.9333
G01 X65.3925 Y72.9467
G01 X65.3875 Y73.0164
G01 X65.3871 Y73.0343
G01 X65.3880 Y73.0477
G01 X65.3907 Y73.0653
G01 X65.3952 Y73.0826
G01 X65.4013 Y73.0994
G01 X65.4091 Y73.1155
G01 X65.4426 Y73.1768
G01 X65.4515 Y73.1915
G01 X65.4591 Y73.2018
G01 X65.4703 Y73.2148
G01 X65.5829 Y73.3275
G01 X65.7144 Y73.5084
G01 X65.8159 Y73.7076
G01 X65.8850 Y73.9202
G01 X65.9199 Y74.1411
G01 X65.9199 Y74.3647
G01 X65.8850 Y74.5855
G01 X65.8159 Y74.7982
G01 X65.7144 Y74.9974
G01 X65.5829 Y75.1783
G01 X65.4248 Y75.3364
G01 X65.2439 Y75.4678
G01 X65.0447 Y75.5693
G01 X64.8321 Y75.6384
G01 X64.6112 Y75.6734
G01 X64.1376 Y75.6734
G01 X63.9168 Y75.6384
G01 X63.7041 Y75.5693
G01 X63.5049 Y75.4678
G01 X63.3240 Y75.3364
G01 X63.1660 Y75.1783
G01 X63.0340 Y74.9964
G01 X62.9330 Y74.7982
G01 X62.8639 Y74.5855
G01 X62.8289 Y74.3647
G01 X62.8289 Y74.1411
G01 X62.8639 Y73.9202
G01 X62.9330 Y73.7076
G01 X63.0345 Y73.5084
G01 X63.1659 Y73.3275
G01 X63.2756 Y73.2178
G01 X63.2843 Y73.2084
G01 X63.2924 Y73.1984
G01 X63.2997 Y73.1879
G01 X63.3306 Y73.1397
G01 X63.3372 Y73.1279
G01 X63.3429 Y73.1157
G01 X63.3476 Y73.1031
G01 X63.3524 Y73.0857
G01 X63.3549 Y73.0725
G01 X63.3563 Y73.0591
G01 X63.3613 Y72.9894
G01 X63.3617 Y72.9715
G01 X63.3608 Y72.9581
G01 X63.3581 Y72.9405
G01 X63.3537 Y72.9231
G01 X63.3492 Y72.9105
G01 X63.3439 Y72.8982
G01 X63.3398 Y72.8903
G01 X63.3063 Y72.8289
G01 X63.2997 Y72.8179
G01 X63.2898 Y72.8039
G01 X63.2786 Y72.7910
G01 X63.1659 Y72.6783
G01 X63.0345 Y72.4974
G01 X62.9330 Y72.2982
G01 X62.8639 Y72.0855
G01 X62.8289 Y71.8647
G01 X62.8289 Y71.6411
G01 X62.8639 Y71.4202
G01 X62.9330 Y71.2076
G01 X63.0345 Y71.0084
G01 X63.1659 Y70.8275
G01 X63.3240 Y70.6694
G00 Z1.2500
G00 X53.0470 Y74.5200
G01 F60.00
G01 Z-0.0050
G01 F120.00
G01 X53.0382 Y74.5209
G01 X53.0249 Y74.5214
G01 X51.4455 Y74.5213
G01 X51.4323 Y74.5205
G01 X51.4235 Y74.5194
G01 X51.4062 Y74.5160
G01 X51.3893 Y74.5109
G01 X51.3730 Y74.5041
G01 X51.3574 Y74.4958
G01 X51.3427 Y74.4860
G01 X51.3290 Y74.4748
G01 X51.3166 Y74.4623
G01 X51.3080 Y74.4521
G01 X51.2979 Y74.4377
G01 X51.2891 Y74.4223
G01 X51.2820 Y74.4062
G01 X51.2777 Y74.3936
G01 X51.2734 Y74.3765
G01 X51.2713 Y74.3634
G01 X51.2700 Y74.3458
G01 X51.2699 Y72.7664
G01 X51.2708 Y72.7487
G01 X51.2734 Y72.7313
G01 X51.2777 Y72.7141
G01 X51.2805 Y72.7057
G01 X51.2854 Y72.6934
G01 X51.2933 Y72.6777
G01 X51.2979 Y72.6701
G01 X51.3054 Y72.6592
G01 X51.3166 Y72.6455
G01 X51.3290 Y72.6330
G01 X51.3427 Y72.6218
G01 X51.3536 Y72.6143
G01 X51.3690 Y72.6056
G01 X51.3851 Y72.5984
G01 X51.4019 Y72.5929
G01 X51.4192 Y72.5890
G01 X51.4367 Y72.5869
G01 X51.4499 Y72.5864
G01 X53.0293 Y72.5864
G01 X53.0426 Y72.5873
G01 X53.0557 Y72.5890
G01 X53.0687 Y72.5918
G01 X53.0856 Y72.5969
G01 X53.0979 Y72.6018
G01 X53.1098 Y72.6076
G01 X53.1212 Y72.6143
G01 X53.1344 Y72.6235
G01 X55.7934 Y72.6235
G01 X55.8758 Y72.6273
G01 X55.8934 Y72.6291
G01 X55.9749 Y72.6414
G01 X56.0550 Y72.6612
G01 X56.0719 Y72.6663
G01 X56.1412 Y72.6911
G01 X56.1575 Y72.6979
G01 X56.2320 Y72.7334
G01 X56.3103 Y72.7803
G01 X56.3837 Y72.8347
G01 X56.4481 Y72.8929
G01 X58.7404 Y75.1852
G01 X58.7986 Y75.2497
G01 X58.8530 Y75.3230
G01 X58.8999 Y75.4013
G01 X58.9390 Y75.4838
G01 X58.9697 Y75.5698
G01 X58.9919 Y75.6584
G01 X59.0053 Y75.7487
G01 X59.0098 Y75.8355
G01 X59.0098 Y79.2645
G01 X71.5531 Y91.8078
G01 X71.5637 Y91.8013
G01 X71.5755 Y91.7952
G01 X71.5876 Y91.7899
G01 X71.6002 Y91.7856
G01 X71.6087 Y91.7833
G01 X71.6217 Y91.7805
G01 X71.6348 Y91.7788
G01 X71.6480 Y91.7779
G01 X73.3568 Y91.7779
G01 X73.3657 Y91.7784
G01 X73.3788 Y91.7798
G01 X73.3919 Y91.7823
G01 X73.4047 Y91.7856
G01 X73.4131 Y91.7884
G01 X73.4254 Y91.7933
G01 X73.4373 Y91.7991
G01 X73.4487 Y91.8058
G01 X73.4597 Y91.8133
G01 X73.4700 Y91.8216
G01 X73.4797 Y91.8306
G01 X73.4858 Y91.8370
G01 X73.4943 Y91.8471
G01 X73.5021 Y91.8579
G01 X73.5090 Y91.8692
G01 X73.5135 Y91.8775
G01 X90.9591 Y91.8775
G01 X91.7603 Y91.0763
G01 X91.7681 Y91.0598
G01 X91.7723 Y91.0520
G01 X91.8172 Y90.9771
G01 X91.8247 Y90.9662
G01 X91.8769 Y90.8962
G01 X91.9415 Y90.8249
G01 X92.0060 Y90.7661
G01 X92.0162 Y90.7576
G01 X92.0900 Y90.7030
G01 X92.1725 Y90.6536
G01 X92.2594 Y90.6125
G01 X92.3416 Y90.5829
G01 X92.3585 Y90.5777
G01 X92.4346 Y90.5587
G01 X92.4519 Y90.5552
G01 X92.5384 Y90.5426
G01 X92.6344 Y90.5379
G01 X92.7305 Y90.5426
G01 X92.8169 Y90.5552
G01 X92.8342 Y90.5587
G01 X92.9189 Y90.5801
G01 X93.0012 Y90.6093
G01 X93.0175 Y90.6161
G01 X93.0964 Y90.6536
G01 X93.1789 Y90.7030
G01 X93.2492 Y90.7549
G01 X93.2628 Y90.7661
G01 X93.3274 Y90.8249
G01 X93.3862 Y90.8895
G01 X93.3974 Y90.9031
G01 X93.4493 Y90.9734
G01 X93.4944 Y91.0482
G01 X93.5027 Y91.0638
G01 X93.5398 Y91.1429
G01 X93.5695 Y91.2250
G01 X93.5746 Y91.2419
G01 X93.5956 Y91.3267
G01 X93.6097 Y91.4218
G01 X93.6142 Y91.5091
G01 X93.6142 Y91.5267
G01 X93.6097 Y91.6139
G01 X93.5971 Y91.7004
G01 X93.5937 Y91.7177
G01 X93.5722 Y91.8024
G01 X93.5430 Y91.8847
G01 X93.5381 Y91.8970
G01 X93.4987 Y91.9799
G01 X93.4493 Y92.0623
G01 X93.3920 Y92.1396
G01 X93.3274 Y92.2108
G01 X93.2561 Y92.2754
G01 X93.1825 Y92.3302
G01 X93.1714 Y92.3375
G01 X93.1003 Y92.3800
G01 X93.0925 Y92.3842
G01 X93.0760 Y92.3920
G01 X92.0023 Y93.4658
G01 X91.9380 Y93.5242
G01 X91.9277 Y93.5325
G01 X91.8685 Y93.5764
G01 X91.8539 Y93.5862
G01 X91.7830 Y93.6284
G01 X91.7005 Y93.6674
G01 X91.6145 Y93.6982
G01 X91.5346 Y93.7184
G01 X91.5172 Y93.7219
G01 X91.4444 Y93.7327
G01 X91.4312 Y93.7342
G01 X91.3444 Y93.7383
G01 X73.5135 Y93.7383
G01 X73.5090 Y93.7466
G01 X73.5021 Y93.7579
G01 X73.4943 Y93.7686
G01 X73.4887 Y93.7755
G01 X73.4797 Y93.7852
G01 X73.4700 Y93.7942
G01 X73.4632 Y93.7998
G01 X73.4524 Y93.8075
G01 X73.4412 Y93.8145
G01 X73.4294 Y93.8206
G01 X73.4213 Y93.8242
G01 X73.4089 Y93.8288
G01 X73.4004 Y93.8314
G01 X73.3875 Y93.8344
G01 X73.3745 Y93.8365
G01 X73.3613 Y93.8377
G01 X71.6524 Y93.8379
G01 X71.6392 Y93.8374
G01 X71.6260 Y93.8359
G01 X71.6130 Y93.8335
G01 X71.6044 Y93.8314
G01 X71.5918 Y93.8274
G01 X71.5795 Y93.8224
G01 X71.5676 Y93.8166
G01 X71.5561 Y93.8100
G01 X71.5452 Y93.8025
G01 X71.5349 Y93.7942
G01 X71.5252 Y93.7852
G01 X71.5191 Y93.7788
G01 X71.5105 Y93.7686
G01 X71.5028 Y93.7579
G01 X71.4958 Y93.7466
G01 X71.4914 Y93.7383
G01 X71.2330 Y93.7382
G01 X71.1550 Y93.7344
G01 X71.1418 Y93.7333
G01 X71.0559 Y93.7204
G01 X70.9759 Y93.7006
G01 X70.9590 Y93.6954
G01 X70.8896 Y93.6706
G01 X70.8773 Y93.6657
G01 X70.7989 Y93.6284
G01 X70.7205 Y93.5815
G01 X70.6472 Y93.5271
G01 X70.5796 Y93.4658
G01 X57.4216 Y80.3078
G01 X57.3660 Y80.2468
G01 X57.3575 Y80.2367
G01 X57.3059 Y80.1668
G01 X57.2633 Y80.0961
G01 X57.2549 Y80.0806
G01 X57.2199 Y80.0059
G01 X57.1891 Y79.9200
G01 X57.1689 Y79.8400
G01 X57.1654 Y79.8227
G01 X57.1546 Y79.7498
G01 X57.1529 Y79.7323
G01 X57.1491 Y79.6499
G01 X57.1491 Y76.2253
G01 X55.4081 Y74.4843
G01 X53.1344 Y74.4843
G01 X53.1249 Y74.4910
G01 X53.1137 Y74.4980
G01 X53.1019 Y74.5041
G01 X53.0938 Y74.5077
G01 X53.0814 Y74.5123
G01 X53.0687 Y74.5160
G01 X53.0600 Y74.5179
G01 X53.0470 Y74.5200
G00 Z1.2500
G00 X51.3350 Y72.2034
G01 F60.00
G01 Z-0.0050
G01 F120.00
G01 X51.4091 Y72.1959
G01 X53.0658 Y72.1959
G01 X53.1398 Y72.2034
G01 X53.1875 Y72.2192
G01 X53.1994 Y72.2224
G01 X53.2115 Y72.2248
G01 X53.2546 Y72.2317
G01 X53.2669 Y72.2330
G01 X53.2751 Y72.2333
G01 X55.8974 Y72.2334
G01 X56.1026 Y72.2659
G01 X56.3003 Y72.3301
G01 X56.4855 Y72.4245
G01 X56.6537 Y72.5467
G01 X59.0867 Y74.9796
G01 X59.2088 Y75.1478
G01 X59.3032 Y75.3330
G01 X59.3674 Y75.5307
G01 X59.3999 Y75.7360
G01 X59.4000 Y78.9818
G01 X59.4010 Y78.9962
G01 X59.4038 Y79.0226
G01 X59.4057 Y79.0357
G01 X59.4097 Y79.0529
G01 X59.4154 Y79.0696
G01 X59.4227 Y79.0857
G01 X59.4583 Y79.1509
G01 X59.4672 Y79.1656
G01 X59.4748 Y79.1759
G01 X59.4802 Y79.1826
G01 X59.4890 Y79.1920
G01 X71.5954 Y91.2983
G01 X71.6060 Y91.3081
G01 X71.6373 Y91.3332
G01 X71.6521 Y91.3429
G01 X71.6678 Y91.3511
G01 X71.6759 Y91.3546
G01 X71.6883 Y91.3591
G01 X71.7637 Y91.3813
G01 X71.7763 Y91.3841
G01 X71.7847 Y91.3856
G01 X71.7932 Y91.3866
G01 X71.8060 Y91.3873
G01 X73.3933 Y91.3874
G01 X73.4673 Y91.3949
G01 X73.5952 Y91.4373
G01 X73.6068 Y91.4444
G01 X73.6188 Y91.4508
G01 X73.6312 Y91.4563
G01 X73.6440 Y91.4608
G01 X73.7222 Y91.4828
G01 X73.7355 Y91.4853
G01 X73.7445 Y91.4865
G01 X73.7626 Y91.4874
G01 X90.6715 Y91.4874
G01 X90.6812 Y91.4871
G01 X90.7171 Y91.4835
G01 X90.7303 Y91.4816
G01 X90.7475 Y91.4776
G01 X90.7600 Y91.4735
G01 X90.7683 Y91.4702
G01 X90.7842 Y91.4625
G01 X90.8492 Y91.4269
G01 X90.8601 Y91.4201
G01 X90.8671 Y91.4152
G01 X90.8803 Y91.4043
G01 X91.4108 Y90.8737
G01 X91.4199 Y90.8628
G01 X91.4482 Y90.8238
G01 X91.4557 Y90.8118
G01 X91.4623 Y90.7996
G01 X91.5891 Y90.6251
G01 X91.7416 Y90.4725
G01 X91.9161 Y90.3457
G01 X92.1083 Y90.2478
G01 X92.3135 Y90.1811
G01 X92.5266 Y90.1474
G01 X92.7423 Y90.1474
G01 X92.9554 Y90.1811
G01 X93.1605 Y90.2478
G01 X93.3527 Y90.3457
G01 X93.5272 Y90.4725
G01 X93.6798 Y90.6251
G01 X93.8066 Y90.7996
G01 X93.9045 Y90.9918
G01 X93.9712 Y91.1970
G01 X94.0049 Y91.4100
G01 X94.0049 Y91.6257
G01 X93.9712 Y91.8388
G01 X93.9045 Y92.0440
G01 X93.8066 Y92.2362
G01 X93.6798 Y92.4107
G01 X93.5272 Y92.5632
G01 X93.3527 Y92.6900
G01 X93.3364 Y92.6990
G01 X93.3247 Y92.7068
G01 X93.2895 Y92.7324
G01 X93.2752 Y92.7447
G01 X92.2047 Y93.8151
G01 X92.0365 Y93.9373
G01 X91.8513 Y94.0316
G01 X91.6536 Y94.0959
G01 X91.4484 Y94.1284
G01 X73.7626 Y94.1284
G01 X73.7445 Y94.1293
G01 X73.7311 Y94.1312
G01 X73.7222 Y94.1330
G01 X73.6440 Y94.1550
G01 X73.6312 Y94.1595
G01 X73.6188 Y94.1649
G01 X73.6068 Y94.1713
G01 X73.5952 Y94.1785
G01 X73.4673 Y94.2208
G01 X73.3933 Y94.2284
G01 X71.6116 Y94.2284
G01 X71.5375 Y94.2208
G01 X71.4097 Y94.1785
G01 X71.3980 Y94.1713
G01 X71.3860 Y94.1649
G01 X71.3736 Y94.1595
G01 X71.3651 Y94.1564
G01 X71.2826 Y94.1330
G01 X71.2648 Y94.1298
G01 X71.2468 Y94.1284
G01 X71.1335 Y94.1284
G01 X70.9282 Y94.0959
G01 X70.7305 Y94.0316
G01 X70.5453 Y93.9373
G01 X70.3772 Y93.8151
G01 X68.0293 Y91.4674
G01 X68.0195 Y91.4583
G01 X68.0092 Y91.4499
G01 X67.9983 Y91.4422
G01 X67.9868 Y91.4353
G01 X67.9749 Y91.4293
G01 X67.9031 Y91.3968
G01 X67.8947 Y91.3937
G01 X67.8819 Y91.3898
G01 X67.8644 Y91.3862
G01 X67.8555 Y91.3850
G01 X67.8422 Y91.3841
G01 X67.8288 Y91.3842
G01 X67.8198 Y91.3848
G01 X67.7330 Y91.3973
G01 X67.7156 Y91.4016
G01 X67.7071 Y91.4044
G01 X67.6947 Y91.4093
G01 X67.6866 Y91.4131
G01 X67.6748 Y91.4196
G01 X67.6673 Y91.4244
G01 X67.6564 Y91.4323
G01 X67.5934 Y91.4867
G01 X67.5808 Y91.4993
G01 X67.5695 Y91.5132
G01 X67.5644 Y91.5205
G01 X67.5574 Y91.5320
G01 X67.5495 Y91.5480
G01 X67.5462 Y91.5563
G01 X67.5419 Y91.5690
G01 X67.5211 Y91.6402
G01 X67.5174 Y91.6569
G01 X67.5157 Y91.6697
G01 X67.5149 Y91.6868
G01 X67.5149 Y94.1487
G01 X67.5074 Y94.2228
G01 X67.4650 Y94.3506
G01 X67.3950 Y94.4641
G01 X67.3007 Y94.5584
G01 X67.1872 Y94.6285
G01 X67.0593 Y94.6708
G01 X66.9853 Y94.6784
G01 X64.3036 Y94.6784
G01 X64.2295 Y94.6708
G01 X64.1017 Y94.6285
G01 X63.9882 Y94.5584
G01 X63.8939 Y94.4641
G01 X63.8239 Y94.3506
G01 X63.7815 Y94.2228
G01 X63.7739 Y94.1487
G01 X63.7739 Y91.4670
G01 X63.7815 Y91.3930
G01 X63.8239 Y91.2651
G01 X63.8939 Y91.1516
G01 X63.9882 Y91.0573
G01 X64.1017 Y90.9873
G01 X64.2295 Y90.9449
G01 X64.3036 Y90.9374
G01 X66.7655 Y90.9374
G01 X66.7897 Y90.9364
G01 X66.8029 Y90.9348
G01 X66.8117 Y90.9332
G01 X66.8203 Y90.9311
G01 X66.8331 Y90.9272
G01 X66.9111 Y90.8980
G01 X66.9232 Y90.8922
G01 X66.9348 Y90.8856
G01 X66.9423 Y90.8807
G01 X66.9530 Y90.8726
G01 X66.9663 Y90.8607
G01 X66.9784 Y90.8475
G01 X67.0258 Y90.7846
G01 X67.0310 Y90.7773
G01 X67.0381 Y90.7659
G01 X67.0443 Y90.7540
G01 X67.0479 Y90.7459
G01 X67.0526 Y90.7333
G01 X67.0563 Y90.7204
G01 X67.0591 Y90.7073
G01 X67.0609 Y90.6940
G01 X67.0665 Y90.6154
G01 X67.0666 Y90.6020
G01 X67.0653 Y90.5842
G01 X67.0631 Y90.5710
G01 X67.0610 Y90.5622
G01 X67.0572 Y90.5494
G01 X67.0525 Y90.5369
G01 X67.0447 Y90.5208
G01 X67.0091 Y90.4557
G01 X67.0023 Y90.4448
G01 X66.9947 Y90.4344
G01 X66.9893 Y90.4278
G01 X66.9805 Y90.4184
G01 X57.0722 Y80.5101
G01 X56.9500 Y80.3420
G01 X56.8557 Y80.1568
G01 X56.7914 Y79.9591
G01 X56.7589 Y79.7538
G01 X56.7589 Y76.5128
G01 X56.7583 Y76.4983
G01 X56.7545 Y76.4628
G01 X56.7514 Y76.4454
G01 X56.7479 Y76.4326
G01 X56.7434 Y76.4201
G01 X56.7361 Y76.4041
G01 X56.6985 Y76.3351
G01 X56.6917 Y76.3242
G01 X56.6867 Y76.3172
G01 X56.6814 Y76.3105
G01 X56.6729 Y76.3009
G01 X55.3355 Y74.9634
G01 X55.3249 Y74.9536
G01 X55.2935 Y74.9285
G01 X55.2787 Y74.9189
G01 X55.2671 Y74.9126
G01 X55.2591 Y74.9089
G01 X55.2425 Y74.9027
G01 X55.1671 Y74.8805
G01 X55.1546 Y74.8776
G01 X55.1462 Y74.8762
G01 X55.1334 Y74.8748
G01 X55.1248 Y74.8744
G01 X53.2792 Y74.8744
G01 X53.2669 Y74.8748
G01 X53.2546 Y74.8761
G01 X53.2034 Y74.8845
G01 X53.1875 Y74.8886
G01 X53.1398 Y74.9043
G01 X53.0658 Y74.9119
G01 X51.4091 Y74.9119
G01 X51.3350 Y74.9043
G01 X51.2072 Y74.8620
G01 X51.0937 Y74.7919
G01 X50.9994 Y74.6976
G01 X50.9294 Y74.5841
G01 X50.8870 Y74.4563
G01 X50.8794 Y74.3822
G01 X50.8794 Y72.7255
G01 X50.8870 Y72.6515
G01 X50.9294 Y72.5236
G01 X50.9994 Y72.4101
G01 X51.0937 Y72.3158
G01 X51.2072 Y72.2458
G01 X51.3350 Y72.2034
G00 Z1.2500
G00 X48.2900 Y61.3048
G01 F60.00
G01 Z-0.0050
G01 F120.00
G01 X48.2713 Y61.2296
G01 X48.2587 Y61.1441
G01 X48.2544 Y61.0579
G01 X48.2587 Y60.9716
G01 X48.2713 Y60.8862
G01 X48.2923 Y60.8024
G01 X48.3214 Y60.7211
G01 X48.3583 Y60.6431
G01 X48.4027 Y60.5690
G01 X48.4542 Y60.4996
G01 X48.5122 Y60.4356
G01 X48.5762 Y60.3776
G01 X48.6455 Y60.3262
G01 X48.7196 Y60.2818
G01 X48.7977 Y60.2449
G01 X48.8790 Y60.2158
G01 X48.9628 Y60.1948
G01 X49.0482 Y60.1821
G01 X49.1344 Y60.1779
G01 X49.2207 Y60.1821
G01 X49.3061 Y60.1948
G01 X49.3899 Y60.2158
G01 X49.4712 Y60.2449
G01 X49.5493 Y60.2818
G01 X49.6233 Y60.3262
G01 X49.6927 Y60.3776
G01 X49.7567 Y60.4356
G01 X49.8147 Y60.4996
G01 X49.8661 Y60.5690
G01 X49.9105 Y60.6431
G01 X49.9474 Y60.7211
G01 X49.9765 Y60.8024
G01 X49.9975 Y60.8862
G01 X50.0102 Y60.9716
G01 X50.0144 Y61.0579
G01 X50.0102 Y61.1441
G01 X49.9975 Y61.2296
G01 X49.9765 Y61.3133
G01 X49.9474 Y61.3946
G01 X49.9105 Y61.4727
G01 X49.8661 Y61.5468
G01 X49.8147 Y61.6161
G01 X49.7567 Y61.6801
G01 X49.6927 Y61.7381
G01 X49.6233 Y61.7896
G01 X49.5493 Y61.8340
G01 X49.4712 Y61.8709
G01 X49.3899 Y61.9000
G01 X49.3061 Y61.9210
G01 X49.2207 Y61.9336
G01 X49.1344 Y61.9379
G01 X49.0482 Y61.9336
G01 X48.9628 Y61.9210
G01 X48.8790 Y61.9000
G01 X48.7977 Y61.8709
G01 X48.7196 Y61.8340
G01 X48.6455 Y61.7896
G01 X48.5762 Y61.7381
G01 X48.5122 Y61.6801
G01 X48.4542 Y61.6161
G01 X48.4027 Y61.5468
G01 X48.3583 Y61.4727
G01 X48.3214 Y61.3946
G01 X48.2951 Y61.3217
G01 X48.2900 Y61.3048
G00 Z1.2500
G00 X48.4685 Y59.9713
G01 F60.00
G01 Z-0.0050
G01 F120.00
G01 X48.6467 Y59.8805
G01 X48.8369 Y59.8187
G01 X49.0344 Y59.7874
G01 X49.2344 Y59.7874
G01 X49.4319 Y59.8187
G01 X49.6221 Y59.8805
G01 X49.8003 Y59.9713
G01 X49.9621 Y60.0888
G01 X50.1035 Y60.2302
G01 X50.2211 Y60.3920
G01 X50.3118 Y60.5702
G01 X50.3736 Y60.7604
G01 X50.4049 Y60.9579
G01 X50.4049 Y61.1579
G01 X50.3736 Y61.3554
G01 X50.3118 Y61.5456
G01 X50.2211 Y61.7238
G01 X50.1035 Y61.8856
G01 X49.9621 Y62.0270
G01 X49.8003 Y62.1445
G01 X49.6221 Y62.2353
G01 X49.4319 Y62.2971
G01 X49.2344 Y62.3284
G01 X49.0344 Y62.3284
G01 X48.8369 Y62.2971
G01 X48.6467 Y62.2353
G01 X48.4685 Y62.1445
G01 X48.3068 Y62.0270
G01 X48.1653 Y61.8856
G01 X48.0478 Y61.7238
G01 X47.9570 Y61.5456
G01 X47.8952 Y61.3554
G01 X47.8639 Y61.1579
G01 X47.8639 Y60.9579
G01 X47.8952 Y60.7604
G01 X47.9570 Y60.5702
G01 X48.0478 Y60.3920
G01 X48.1653 Y60.2302
G01 X48.3068 Y60.0888
G01 X48.4685 Y59.9713
G00 Z1.2500
G00 X48.2239 Y56.1680
G01 F60.00
G01 Z-0.0050
G01 F120.00
G01 X48.2204 Y56.1507
G01 X48.2085 Y56.0691
G01 X48.2041 Y55.9779
G01 X48.2085 Y55.8867
G01 X48.2219 Y55.7964
G01 X48.2441 Y55.7078
G01 X48.2749 Y55.6218
G01 X48.3139 Y55.5393
G01 X48.3561 Y55.4685
G01 X48.3659 Y55.4538
G01 X48.4152 Y55.3877
G01 X48.4705 Y55.3264
G01 X48.4830 Y55.3139
G01 X48.5375 Y55.2645
G01 X48.5512 Y55.2533
G01 X48.6175 Y55.2043
G01 X48.6882 Y55.1617
G01 X48.7037 Y55.1534
G01 X48.7784 Y55.1183
G01 X48.8644 Y55.0876
G01 X48.9529 Y55.0654
G01 X49.0345 Y55.0531
G01 X49.0476 Y55.0516
G01 X49.1344 Y55.0475
G01 X52.8138 Y55.0475
G01 X52.8440 Y55.0431
G01 X52.8528 Y55.0422
G01 X52.9444 Y55.0379
G01 X53.0405 Y55.0426
G01 X53.1313 Y55.0559
G01 X53.1442 Y55.0587
G01 X53.2247 Y55.0789
G01 X53.2331 Y55.0814
G01 X53.2503 Y55.0875
G01 X56.4846 Y55.0875
G01 X56.5729 Y55.0654
G01 X56.6545 Y55.0531
G01 X56.6720 Y55.0513
G01 X56.7544 Y55.0475
G01 X64.4744 Y55.0475
G01 X64.5656 Y55.0520
G01 X64.6559 Y55.0654
G01 X64.7360 Y55.0852
G01 X64.7529 Y55.0903
G01 X64.8305 Y55.1183
G01 X64.9051 Y55.1534
G01 X64.9207 Y55.1617
G01 X64.9913 Y55.2043
G01 X65.0612 Y55.2559
G01 X65.0713 Y55.2645
G01 X65.1323 Y55.3200
G01 X65.9302 Y56.1179
G01 X66.3738 Y56.1179
G01 X66.4116 Y56.1200
G01 X66.4533 Y56.1261
G01 X66.4943 Y56.1364
G01 X66.5257 Y56.1474
G01 X66.5421 Y56.1542
G01 X66.5682 Y56.1666
G01 X66.5798 Y56.1730
G01 X66.6083 Y56.1904
G01 X66.6422 Y56.2155
G01 X66.6735 Y56.2438
G01 X66.7018 Y56.2751
G01 X66.7245 Y56.3053
G01 X66.7317 Y56.3165
G01 X66.7487 Y56.3452
G01 X66.7666 Y56.3830
G01 X66.7809 Y56.4231
G01 X66.7892 Y56.4554
G01 X66.7927 Y56.4727
G01 X66.7969 Y56.5013
G01 X66.7977 Y56.5101
G01 X66.7994 Y56.5479
G01 X66.7994 Y57.7479
G01 X66.7974 Y57.7900
G01 X66.7912 Y57.8318
G01 X66.7833 Y57.8642
G01 X66.7796 Y57.8769
G01 X66.7699 Y57.9042
G01 X66.7631 Y57.9205
G01 X66.7487 Y57.9506
G01 X66.7270 Y57.9868
G01 X66.7018 Y58.0207
G01 X66.6796 Y58.0455
G01 X66.6703 Y58.0550
G01 X66.6489 Y58.0745
G01 X66.6353 Y58.0857
G01 X66.6083 Y58.1054
G01 X66.5721 Y58.1271
G01 X66.5342 Y58.1451
G01 X66.5026 Y58.1566
G01 X66.4857 Y58.1617
G01 X66.4576 Y58.1687
G01 X66.4490 Y58.1704
G01 X66.4116 Y58.1758
G01 X66.3694 Y58.1779
G01 X64.9194 Y58.1779
G01 X64.8773 Y58.1758
G01 X64.8442 Y58.1711
G01 X64.8269 Y58.1677
G01 X64.7989 Y58.1606
G01 X64.7904 Y58.1580
G01 X64.7590 Y58.1468
G01 X64.7468 Y58.1416
G01 X64.7167 Y58.1271
G01 X64.6880 Y58.1101
G01 X64.6769 Y58.1029
G01 X64.6466 Y58.0803
G01 X64.6154 Y58.0519
G01 X64.5870 Y58.0207
G01 X64.5644 Y57.9904
G01 X64.5572 Y57.9793
G01 X64.5402 Y57.9506
G01 X64.5257 Y57.9205
G01 X64.5205 Y57.9083
G01 X64.5107 Y57.8811
G01 X64.5056 Y57.8642
G01 X64.4986 Y57.8361
G01 X64.4969 Y57.8274
G01 X64.4915 Y57.7900
G01 X64.4896 Y57.7567
G01 X64.4894 Y57.3086
G01 X64.0891 Y56.9083
G01 X56.9843 Y56.9083
G01 X56.8959 Y56.9304
G01 X56.8144 Y56.9427
G01 X56.7968 Y56.9444
G01 X56.7144 Y56.9483
G01 X53.2503 Y56.9483
G01 X53.2331 Y56.9544
G01 X53.2247 Y56.9569
G01 X53.1442 Y56.9771
G01 X53.1313 Y56.9799
G01 X53.0405 Y56.9932
G01 X52.9444 Y56.9979
G01 X52.8484 Y56.9932
G01 X52.7619 Y56.9806
G01 X52.7489 Y56.9781
G01 X52.6685 Y56.9580
G01 X52.6557 Y56.9544
G01 X52.5735 Y56.9249
G01 X52.5613 Y56.9197
G01 X52.5371 Y56.9083
G01 X49.1344 Y56.9083
G01 X49.0432 Y56.9038
G01 X48.9529 Y56.8904
G01 X48.8729 Y56.8706
G01 X48.8560 Y56.8654
G01 X48.7784 Y56.8374
G01 X48.6959 Y56.7984
G01 X48.6250 Y56.7562
G01 X48.6103 Y56.7464
G01 X48.5512 Y56.7025
G01 X48.5375 Y56.6913
G01 X48.4766 Y56.6358
G01 X48.4152 Y56.5681
G01 X48.3609 Y56.4948
G01 X48.3183 Y56.4241
G01 X48.3099 Y56.4086
G01 X48.2785 Y56.3420
G01 X48.2717 Y56.3257
G01 X48.2441 Y56.2480
G01 X48.2239 Y56.1680
G00 Z1.2500
G00 X48.2742 Y54.9707
G01 F60.00
G01 Z-0.0050
G01 F120.00
G01 X48.4423 Y54.8485
G01 X48.6275 Y54.7541
G01 X48.8252 Y54.6899
G01 X49.0305 Y54.6574
G01 X52.7495 Y54.6574
G01 X52.7636 Y54.6568
G01 X52.7878 Y54.6549
G01 X52.8366 Y54.6474
G01 X53.0523 Y54.6474
G01 X53.2654 Y54.6811
G01 X53.2832 Y54.6863
G01 X53.2970 Y54.6891
G01 X53.3400 Y54.6958
G01 X53.3494 Y54.6968
G01 X53.3635 Y54.6974
G01 X56.3757 Y54.6974
G01 X56.3938 Y54.6965
G01 X56.4264 Y54.6929
G01 X56.6505 Y54.6574
G01 X64.5784 Y54.6574
G01 X64.7836 Y54.6899
G01 X64.9813 Y54.7541
G01 X65.1665 Y54.8485
G01 X65.3347 Y54.9707
G01 X66.0024 Y55.6383
G01 X66.0130 Y55.6481
G01 X66.0373 Y55.6679
G01 X66.0443 Y55.6732
G01 X66.0553 Y55.6806
G01 X66.0708 Y55.6892
G01 X66.0829 Y55.6946
G01 X66.0912 Y55.6977
G01 X66.1666 Y55.7201
G01 X66.1791 Y55.7233
G01 X66.1875 Y55.7249
G01 X66.2045 Y55.7269
G01 X66.2173 Y55.7274
G01 X66.4195 Y55.7274
G01 X66.5138 Y55.7358
G01 X66.6754 Y55.7820
G01 X66.8233 Y55.8593
G01 X66.9526 Y55.9647
G01 X67.0581 Y56.0940
G01 X67.1353 Y56.2419
G01 X67.1815 Y56.4035
G01 X67.1899 Y56.4978
G01 X67.1899 Y57.7979
G01 X67.1815 Y57.8923
G01 X67.1669 Y57.9437
G01 X67.1606 Y57.9725
G01 X67.1581 Y57.9906
G01 X67.1575 Y58.0042
G01 X67.1576 Y58.0133
G01 X67.1593 Y58.0314
G01 X67.1708 Y58.1093
G01 X67.1727 Y58.1181
G01 X67.1764 Y58.1309
G01 X67.1828 Y58.1476
G01 X67.1866 Y58.1557
G01 X67.1931 Y58.1675
G01 X67.2004 Y58.1787
G01 X67.2057 Y58.1859
G01 X67.2572 Y58.2456
G01 X67.2663 Y58.2554
G01 X67.2796 Y58.2673
G01 X67.2940 Y58.2779
G01 X67.3094 Y58.2870
G01 X67.3256 Y58.2945
G01 X67.3425 Y58.3004
G01 X67.4136 Y58.3213
G01 X67.4262 Y58.3241
G01 X67.4389 Y58.3261
G01 X67.4474 Y58.3269
G01 X67.4602 Y58.3274
G01 X67.9734 Y58.3274
G01 X68.1786 Y58.3599
G01 X68.3763 Y58.4241
G01 X68.5615 Y58.5185
G01 X68.7297 Y58.6407
G01 X71.4094 Y61.3204
G01 X71.4164 Y61.3484
G01 X71.4201 Y61.3611
G01 X71.4512 Y61.4479
G01 X71.4564 Y61.4601
G01 X71.4921 Y61.5355
G01 X71.4982 Y61.5474
G01 X71.5480 Y61.6301
G01 X71.6028 Y61.7043
G01 X71.6140 Y61.7180
G01 X71.6700 Y61.7798
G01 X71.6793 Y61.7893
G01 X71.7510 Y61.8541
G01 X71.8250 Y61.9092
G01 X71.8397 Y61.9190
G01 X71.9150 Y61.9641
G01 X71.9268 Y61.9702
G01 X72.0022 Y62.0059
G01 X72.0144 Y62.0111
G01 X72.1012 Y62.0422
G01 X72.1140 Y62.0459
G01 X72.1419 Y62.0529
G01 X72.1808 Y62.0917
G01 X72.1917 Y62.1012
G01 X72.2123 Y62.1179
G01 X72.2230 Y62.1258
G01 X72.2380 Y62.1351
G01 X72.2498 Y62.1411
G01 X72.2620 Y62.1462
G01 X72.2746 Y62.1504
G01 X72.3457 Y62.1713
G01 X72.3541 Y62.1733
G01 X72.3667 Y62.1756
G01 X72.3795 Y62.1769
G01 X72.3923 Y62.1774
G01 X73.2953 Y62.1774
G01 X73.3693 Y62.1849
G01 X73.4972 Y62.2273
G01 X73.5088 Y62.2344
G01 X73.5208 Y62.2408
G01 X73.5332 Y62.2463
G01 X73.5460 Y62.2508
G01 X73.6242 Y62.2728
G01 X73.6420 Y62.2760
G01 X73.6555 Y62.2772
G01 X73.6646 Y62.2774
G01 X90.6315 Y62.2774
G01 X90.6412 Y62.2771
G01 X90.6771 Y62.2735
G01 X90.6903 Y62.2716
G01 X90.6989 Y62.2698
G01 X90.7117 Y62.2663
G01 X90.7283 Y62.2602
G01 X90.7442 Y62.2525
G01 X90.8129 Y62.2148
G01 X90.8236 Y62.2077
G01 X90.8305 Y62.2026
G01 X90.8434 Y62.1913
G01 X91.3508 Y61.6837
G01 X91.3599 Y61.6728
G01 X91.3882 Y61.6338
G01 X91.3957 Y61.6218
G01 X91.4023 Y61.6096
G01 X91.5291 Y61.4351
G01 X91.6816 Y61.2825
G01 X91.8561 Y61.1557
G01 X92.0483 Y61.0578
G01 X92.2535 Y60.9911
G01 X92.4666 Y60.9574
G01 X92.6823 Y60.9574
G01 X92.7410 Y60.9667
G01 X92.8954 Y60.9911
G01 X93.1005 Y61.0578
G01 X93.2927 Y61.1557
G01 X93.4672 Y61.2825
G01 X93.6198 Y61.4351
G01 X93.7466 Y61.6096
G01 X93.8445 Y61.8018
G01 X93.9112 Y62.0070
G01 X93.9449 Y62.2200
G01 X93.9449 Y62.4357
G01 X93.9112 Y62.6488
G01 X93.8445 Y62.8540
G01 X93.7466 Y63.0462
G01 X93.6198 Y63.2207
G01 X93.4672 Y63.3732
G01 X93.2927 Y63.5000
G01 X93.2764 Y63.5090
G01 X93.2647 Y63.5168
G01 X93.2295 Y63.5424
G01 X93.2152 Y63.5547
G01 X92.1647 Y64.6051
G01 X91.9965 Y64.7273
G01 X91.8113 Y64.8216
G01 X91.6136 Y64.8859
G01 X91.4084 Y64.9184
G01 X73.6646 Y64.9184
G01 X73.6510 Y64.9189
G01 X73.6420 Y64.9198
G01 X73.6242 Y64.9230
G01 X73.5460 Y64.9450
G01 X73.5332 Y64.9495
G01 X73.5208 Y64.9549
G01 X73.5088 Y64.9613
G01 X73.4972 Y64.9685
G01 X73.3693 Y65.0108
G01 X73.2953 Y65.0184
G01 X71.5136 Y65.0184
G01 X71.4395 Y65.0108
G01 X71.3117 Y64.9685
G01 X71.1982 Y64.8984
G01 X71.1039 Y64.8041
G01 X71.0256 Y64.6777
G01 X71.0178 Y64.6671
G01 X71.0122 Y64.6604
G01 X70.9735 Y64.6188
G01 X70.9620 Y64.6079
G01 X67.5384 Y61.1843
G01 X67.5253 Y61.1724
G01 X67.5147 Y61.1644
G01 X67.5073 Y61.1594
G01 X67.4806 Y61.1441
G01 X67.4614 Y61.1307
G01 X67.4459 Y61.1218
G01 X67.4337 Y61.1162
G01 X67.4212 Y61.1114
G01 X67.4016 Y61.1056
G01 X67.3846 Y61.1017
G01 X67.3717 Y61.0999
G01 X67.3586 Y61.0990
G01 X67.3499 Y61.0990
G01 X67.3244 Y61.1000
G01 X67.2943 Y61.0988
G01 X67.2764 Y61.0997
G01 X67.2587 Y61.1023
G01 X67.2457 Y61.1055
G01 X67.2275 Y61.1108
G01 X67.2108 Y61.1172
G01 X67.1988 Y61.1231
G01 X67.1872 Y61.1298
G01 X67.1624 Y61.1470
G01 X67.1402 Y61.1599
G01 X67.1254 Y61.1699
G01 X67.1117 Y61.1814
G01 X67.1022 Y61.1908
G01 X67.0868 Y61.2085
G01 X67.0787 Y61.2192
G01 X67.0715 Y61.2305
G01 X67.0651 Y61.2423
G01 X67.0613 Y61.2504
G01 X67.0516 Y61.2741
G01 X67.0379 Y61.3010
G01 X67.0314 Y61.3176
G01 X67.0275 Y61.3305
G01 X67.0239 Y61.3479
G01 X67.0208 Y61.3712
G01 X67.0201 Y61.3891
G01 X67.0212 Y61.4069
G01 X67.0224 Y61.4157
G01 X67.0271 Y61.4410
G01 X67.0295 Y61.4664
G01 X67.0307 Y61.4748
G01 X67.0343 Y61.4916
G01 X67.0381 Y61.5039
G01 X67.0411 Y61.5119
G01 X67.0482 Y61.5285
G01 X67.0859 Y61.6026
G01 X67.1233 Y61.7175
G01 X67.1292 Y61.7327
G01 X67.1330 Y61.7410
G01 X67.1395 Y61.7531
G01 X67.1465 Y61.7642
G01 X67.1555 Y61.7809
G01 X67.1623 Y61.7920
G01 X67.1727 Y61.8061
G01 X67.1917 Y61.8276
G01 X71.1084 Y65.7443
G01 X71.1190 Y65.7541
G01 X71.1503 Y65.7792
G01 X71.1613 Y65.7866
G01 X71.1768 Y65.7952
G01 X71.1889 Y65.8006
G01 X71.2013 Y65.8051
G01 X71.2767 Y65.8273
G01 X71.2893 Y65.8301
G01 X71.2977 Y65.8316
G01 X71.3105 Y65.8329
G01 X71.3233 Y65.8334
G01 X77.6864 Y65.8334
G01 X77.8916 Y65.8659
G01 X78.0893 Y65.9301
G01 X78.2745 Y66.0245
G01 X78.4427 Y66.1467
G01 X80.3677 Y68.0716
G01 X80.4898 Y68.2398
G01 X80.5842 Y68.4250
G01 X80.6484 Y68.6227
G01 X80.6809 Y68.8280
G01 X80.6809 Y76.0208
G01 X80.6484 Y76.2261
G01 X80.5842 Y76.4238
G01 X80.5739 Y76.4442
G01 X80.5688 Y76.4558
G01 X80.5645 Y76.4677
G01 X80.5523 Y76.5063
G01 X80.5487 Y76.5193
G01 X80.5461 Y76.5326
G01 X80.5445 Y76.5460
G01 X80.5439 Y76.5595
G01 X80.5443 Y76.5729
G01 X80.5451 Y76.5819
G01 X80.5571 Y76.6643
G01 X80.5602 Y76.6774
G01 X80.5642 Y76.6902
G01 X80.5692 Y76.7026
G01 X80.5730 Y76.7107
G01 X80.5818 Y76.7263
G01 X80.5921 Y76.7409
G01 X80.6465 Y76.8039
G01 X80.6559 Y76.8135
G01 X80.6660 Y76.8223
G01 X80.6767 Y76.8304
G01 X80.6880 Y76.8376
G01 X80.7038 Y76.8460
G01 X80.7203 Y76.8527
G01 X80.7959 Y76.8751
G01 X80.8083 Y76.8783
G01 X80.8210 Y76.8806
G01 X80.8338 Y76.8819
G01 X80.8466 Y76.8824
G01 X90.7585 Y76.8824
G01 X90.7682 Y76.8821
G01 X90.7778 Y76.8814
G01 X90.8085 Y76.8780
G01 X90.8216 Y76.8758
G01 X90.8387 Y76.8713
G01 X90.8553 Y76.8652
G01 X90.8712 Y76.8575
G01 X90.9362 Y76.8219
G01 X90.9471 Y76.8151
G01 X90.9541 Y76.8102
G01 X90.9673 Y76.7993
G01 X91.4778 Y76.2887
G01 X91.4869 Y76.2778
G01 X91.5152 Y76.2388
G01 X91.5227 Y76.2268
G01 X91.5293 Y76.2146
G01 X91.6561 Y76.0401
G01 X91.8086 Y75.8875
G01 X91.9831 Y75.7607
G01 X92.1753 Y75.6628
G01 X92.3805 Y75.5961
G01 X92.5936 Y75.5624
G01 X92.8093 Y75.5624
G01 X93.0224 Y75.5961
G01 X93.2275 Y75.6628
G01 X93.4197 Y75.7607
G01 X93.5942 Y75.8875
G01 X93.7468 Y76.0401
G01 X93.8736 Y76.2146
G01 X93.9715 Y76.4068
G01 X94.0382 Y76.6120
G01 X94.0719 Y76.8250
G01 X94.0719 Y77.0407
G01 X94.0382 Y77.2538
G01 X93.9715 Y77.4590
G01 X93.8736 Y77.6512
G01 X93.7468 Y77.8257
G01 X93.5942 Y77.9782
G01 X93.4197 Y78.1050
G01 X93.4034 Y78.1140
G01 X93.3917 Y78.1218
G01 X93.3565 Y78.1474
G01 X93.3422 Y78.1597
G01 X92.2917 Y79.2101
G01 X92.1235 Y79.3323
G01 X91.9383 Y79.4266
G01 X91.7406 Y79.4909
G01 X91.5354 Y79.5234
G01 X73.7916 Y79.5234
G01 X73.7780 Y79.5239
G01 X73.7690 Y79.5248
G01 X73.7512 Y79.5280
G01 X73.6730 Y79.5500
G01 X73.6602 Y79.5545
G01 X73.6478 Y79.5599
G01 X73.6358 Y79.5663
G01 X73.6242 Y79.5735
G01 X73.4963 Y79.6158
G01 X73.4223 Y79.6234
G01 X71.6406 Y79.6234
G01 X71.5665 Y79.6158
G01 X71.4387 Y79.5735
G01 X71.3252 Y79.5034
G01 X71.2309 Y79.4091
G01 X71.1609 Y79.2956
G01 X71.1185 Y79.1678
G01 X71.1109 Y79.0937
G01 X71.1109 Y77.3120
G01 X71.1185 Y77.2380
G01 X71.1609 Y77.1101
G01 X71.2309 Y76.9966
G01 X71.3252 Y76.9023
G01 X71.4387 Y76.8323
G01 X71.5665 Y76.7899
G01 X71.6406 Y76.7824
G01 X73.4223 Y76.7824
G01 X73.4963 Y76.7899
G01 X73.6242 Y76.8323
G01 X73.6358 Y76.8394
G01 X73.6478 Y76.8458
G01 X73.6602 Y76.8513
G01 X73.6730 Y76.8558
G01 X73.7512 Y76.8778
G01 X73.7690 Y76.8810
G01 X73.7870 Y76.8823
G01 X76.4015 Y76.8824
G01 X76.4160 Y76.8818
G01 X76.4471 Y76.8785
G01 X76.4603 Y76.8766
G01 X76.4689 Y76.8748
G01 X76.4817 Y76.8713
G01 X76.4900 Y76.8685
G01 X76.5023 Y76.8634
G01 X76.5142 Y76.8575
G01 X76.5829 Y76.8198
G01 X76.5971 Y76.8102
G01 X76.6038 Y76.8049
G01 X76.6134 Y76.7963
G01 X77.9509 Y75.4590
G01 X77.9575 Y75.4520
G01 X77.9638 Y75.4446
G01 X77.9831 Y75.4205
G01 X77.9908 Y75.4097
G01 X77.9976 Y75.3984
G01 X78.0036 Y75.3865
G01 X78.0088 Y75.3743
G01 X78.0130 Y75.3617
G01 X78.0326 Y75.2947
G01 X78.0358 Y75.2823
G01 X78.0381 Y75.2696
G01 X78.0391 Y75.2611
G01 X78.0399 Y75.2440
G01 X78.0399 Y69.6048
G01 X78.0393 Y69.5903
G01 X78.0349 Y69.5504
G01 X78.0333 Y69.5417
G01 X78.0301 Y69.5289
G01 X78.0244 Y69.5121
G01 X78.0171 Y69.4961
G01 X77.9795 Y69.4271
G01 X77.9727 Y69.4162
G01 X77.9677 Y69.4092
G01 X77.9624 Y69.4025
G01 X77.9539 Y69.3929
G01 X77.1245 Y68.5634
G01 X77.1175 Y68.5568
G01 X77.0895 Y68.5339
G01 X77.0789 Y68.5260
G01 X77.0639 Y68.5167
G01 X77.0481 Y68.5089
G01 X77.0315 Y68.5027
G01 X76.9603 Y68.4817
G01 X76.9478 Y68.4785
G01 X76.9352 Y68.4762
G01 X76.9224 Y68.4748
G01 X76.9095 Y68.4744
G01 X70.5465 Y68.4744
G01 X70.3412 Y68.4419
G01 X70.1435 Y68.3776
G01 X69.9583 Y68.2833
G01 X69.7902 Y68.1611
G01 X65.1994 Y63.5703
G01 X65.1865 Y63.5592
G01 X65.1727 Y63.5494
G01 X65.1198 Y63.5169
G01 X65.1049 Y63.5087
G01 X65.0972 Y63.5051
G01 X65.0854 Y63.5005
G01 X64.9741 Y63.4643
G01 X64.7749 Y63.3628
G01 X64.5940 Y63.2314
G01 X64.4359 Y63.0733
G01 X64.3045 Y62.8924
G01 X64.2030 Y62.6932
G01 X64.1339 Y62.4805
G01 X64.0989 Y62.2597
G01 X64.0989 Y62.0361
G01 X64.1339 Y61.8152
G01 X64.2030 Y61.6026
G01 X64.3045 Y61.4034
G01 X64.4359 Y61.2225
G01 X64.5456 Y61.1128
G01 X64.5543 Y61.1034
G01 X64.5624 Y61.0934
G01 X64.5697 Y61.0829
G01 X64.6006 Y61.0347
G01 X64.6072 Y61.0229
G01 X64.6145 Y61.0065
G01 X64.6190 Y60.9938
G01 X64.6224 Y60.9807
G01 X64.6249 Y60.9675
G01 X64.6263 Y60.9541
G01 X64.6313 Y60.8844
G01 X64.6317 Y60.8754
G01 X64.6315 Y60.8620
G01 X64.6303 Y60.8487
G01 X64.6272 Y60.8311
G01 X64.6237 Y60.8181
G01 X64.6175 Y60.8014
G01 X64.6098 Y60.7853
G01 X64.5763 Y60.7239
G01 X64.5720 Y60.7165
G01 X64.5649 Y60.7058
G01 X64.5571 Y60.6956
G01 X64.5486 Y60.6860
G01 X64.4359 Y60.5733
G01 X64.3045 Y60.3924
G01 X64.2030 Y60.1932
G01 X64.1339 Y59.9805
G01 X64.0989 Y59.7597
G01 X64.0989 Y59.5361
G01 X64.1339 Y59.3152
G01 X64.2030 Y59.1026
G01 X64.3045 Y58.9034
G01 X64.4132 Y58.7534
G01 X64.4177 Y58.7463
G01 X64.4237 Y58.7353
G01 X64.4488 Y58.6818
G01 X64.4535 Y58.6692
G01 X64.4572 Y58.6563
G01 X64.4599 Y58.6432
G01 X64.4620 Y58.6255
G01 X64.4624 Y58.6076
G01 X64.4598 Y58.5288
G01 X64.4583 Y58.5155
G01 X64.4567 Y58.5067
G01 X64.4546 Y58.4980
G01 X64.4508 Y58.4852
G01 X64.4460 Y58.4726
G01 X64.4423 Y58.4645
G01 X64.4382 Y58.4566
G01 X64.4313 Y58.4451
G01 X64.3893 Y58.3837
G01 X64.3790 Y58.3701
G01 X64.3704 Y58.3605
G01 X64.3611 Y58.3516
G01 X64.3363 Y58.3311
G01 X64.2308 Y58.2017
G01 X64.1535 Y58.0538
G01 X64.1073 Y57.8923
G01 X64.0989 Y57.7979
G01 X64.0989 Y57.6024
G01 X64.0985 Y57.5895
G01 X64.0971 Y57.5768
G01 X64.0957 Y57.5683
G01 X64.0836 Y57.5126
G01 X64.0802 Y57.4995
G01 X64.0743 Y57.4826
G01 X64.0687 Y57.4703
G01 X64.0645 Y57.4624
G01 X64.0548 Y57.4472
G01 X64.0438 Y57.4330
G01 X63.9980 Y57.3802
G01 X63.9856 Y57.3673
G01 X63.9756 Y57.3584
G01 X63.9649 Y57.3504
G01 X63.9536 Y57.3431
G01 X63.9418 Y57.3367
G01 X63.9296 Y57.3312
G01 X63.9170 Y57.3267
G01 X63.8415 Y57.3045
G01 X63.8290 Y57.3016
G01 X63.8163 Y57.2997
G01 X63.8078 Y57.2988
G01 X63.7949 Y57.2984
G01 X57.0932 Y57.2984
G01 X57.0750 Y57.2993
G01 X57.0425 Y57.3029
G01 X56.8184 Y57.3384
G01 X53.3588 Y57.3384
G01 X53.3400 Y57.3399
G01 X53.2971 Y57.3467
G01 X53.2832 Y57.3494
G01 X53.2654 Y57.3546
G01 X53.0523 Y57.3884
G01 X52.8366 Y57.3884
G01 X52.6235 Y57.3546
G01 X52.4871 Y57.3106
G01 X52.4733 Y57.3075
G01 X52.4304 Y57.3006
G01 X52.4210 Y57.2994
G01 X52.4069 Y57.2984
G01 X49.0305 Y57.2984
G01 X48.8252 Y57.2659
G01 X48.6275 Y57.2016
G01 X48.4423 Y57.1073
G01 X48.2742 Y56.9851
G01 X48.1272 Y56.8381
G01 X48.0050 Y56.6700
G01 X47.9107 Y56.4848
G01 X47.8464 Y56.2871
G01 X47.8139 Y56.0818
G01 X47.8139 Y55.8740
G01 X47.8464 Y55.6687
G01 X47.9107 Y55.4710
G01 X48.0050 Y55.2858
G01 X48.1272 Y55.1176
G01 X48.2742 Y54.9707
G00 Z1.2500
G00 X39.0194 Y56.5812
G01 F60.00
G01 Z-0.0050
G01 F120.00
G01 X49.0157 Y46.5849
G01 X49.2195 Y46.4224
G01 X49.4402 Y46.2837
G01 X49.6750 Y46.1706
G01 X49.9210 Y46.0846
G01 X50.1751 Y46.0266
G01 X50.4341 Y45.9974
G01 X50.6948 Y45.9974
G01 X50.9537 Y46.0266
G01 X51.2078 Y46.0846
G01 X51.4539 Y46.1706
G01 X51.6887 Y46.2837
G01 X51.9094 Y46.4224
G01 X52.1131 Y46.5849
G01 X52.2974 Y46.7692
G01 X52.4599 Y46.9730
G01 X52.5986 Y47.1936
G01 X52.7028 Y47.4101
G01 X52.7117 Y47.4285
G01 X52.7978 Y47.6745
G01 X52.8558 Y47.9286
G01 X52.8849 Y48.1876
G01 X52.8849 Y48.4482
G01 X52.8557 Y48.7072
G01 X52.7978 Y48.9613
G01 X52.7117 Y49.2073
G01 X52.5986 Y49.4421
G01 X52.4599 Y49.6628
G01 X52.2974 Y49.8666
G01 X43.1620 Y59.0020
G01 X43.1522 Y59.0127
G01 X43.1271 Y59.0440
G01 X43.1174 Y59.0588
G01 X43.1092 Y59.0744
G01 X43.1041 Y59.0867
G01 X43.0999 Y59.0992
G01 X43.0802 Y59.1663
G01 X43.0762 Y59.1829
G01 X43.0737 Y59.1999
G01 X43.0729 Y59.2170
G01 X43.0729 Y102.3362
G01 X43.0437 Y102.5952
G01 X42.9858 Y102.8493
G01 X42.8997 Y103.0953
G01 X42.7866 Y103.3301
G01 X42.6479 Y103.5508
G01 X42.4854 Y103.7546
G01 X42.3011 Y103.9389
G01 X42.0974 Y104.1014
G01 X41.8767 Y104.2400
G01 X41.6418 Y104.3531
G01 X41.3958 Y104.4392
G01 X41.1417 Y104.4972
G01 X40.8827 Y104.5264
G01 X40.6221 Y104.5264
G01 X40.3631 Y104.4972
G01 X40.1090 Y104.4392
G01 X39.8630 Y104.3531
G01 X39.6282 Y104.2400
G01 X39.4075 Y104.1014
G01 X39.2037 Y103.9389
G01 X39.0194 Y103.7546
G01 X38.8569 Y103.5508
G01 X38.7183 Y103.3301
G01 X38.6052 Y103.0953
G01 X38.5191 Y102.8493
G01 X38.4611 Y102.5952
G01 X38.4319 Y102.3362
G01 X38.4319 Y57.9996
G01 X38.4611 Y57.7406
G01 X38.5191 Y57.4865
G01 X38.6052 Y57.2405
G01 X38.7183 Y57.0056
G01 X38.8569 Y56.7850
G01 X39.0194 Y56.5812
G00 Z1.2500
G00 X71.7579 Y83.9730
G01 F60.00
G01 Z-0.0050
G01 F120.00
G01 X71.9571 Y83.8715
G01 X72.1698 Y83.8024
G01 X72.3906 Y83.7674
G01 X72.6142 Y83.7674
G01 X72.8351 Y83.8024
G01 X73.0477 Y83.8715
G01 X73.2469 Y83.9730
G01 X73.4278 Y84.1044
G01 X73.5859 Y84.2625
G01 X73.7174 Y84.4434
G01 X73.7838 Y84.5738
G01 X73.8189 Y84.6426
G01 X73.8880 Y84.8552
G01 X73.9229 Y85.0761
G01 X73.9229 Y85.2997
G01 X73.8880 Y85.5205
G01 X73.8189 Y85.7332
G01 X73.7174 Y85.9324
G01 X73.5859 Y86.1133
G01 X73.4563 Y86.2429
G01 X73.4475 Y86.2523
G01 X73.4395 Y86.2623
G01 X73.4345 Y86.2693
G01 X73.4036 Y86.3172
G01 X73.3968 Y86.3288
G01 X73.3908 Y86.3409
G01 X73.3857 Y86.3535
G01 X73.3816 Y86.3663
G01 X73.3777 Y86.3839
G01 X73.3755 Y86.4017
G01 X73.3705 Y86.4714
G01 X73.3701 Y86.4848
G01 X73.3710 Y86.5027
G01 X73.3737 Y86.5203
G01 X73.3769 Y86.5333
G01 X73.3826 Y86.5503
G01 X73.3880 Y86.5626
G01 X73.3921 Y86.5705
G01 X73.4256 Y86.6318
G01 X73.4321 Y86.6429
G01 X73.4421 Y86.6568
G01 X73.4533 Y86.6698
G01 X73.5859 Y86.8025
G01 X73.7174 Y86.9834
G01 X73.8189 Y87.1826
G01 X73.8880 Y87.3952
G01 X73.9229 Y87.6161
G01 X73.9229 Y87.8397
G01 X73.8880 Y88.0605
G01 X73.8189 Y88.2732
G01 X73.7174 Y88.4724
G01 X73.5859 Y88.6533
G01 X73.4278 Y88.8114
G01 X73.2469 Y88.9428
G01 X73.0477 Y89.0443
G01 X72.8351 Y89.1134
G01 X72.6142 Y89.1484
G01 X72.3906 Y89.1484
G01 X72.1698 Y89.1134
G01 X71.9571 Y89.0443
G01 X71.7579 Y88.9428
G01 X71.5770 Y88.8114
G01 X71.4189 Y88.6533
G01 X71.2875 Y88.4724
G01 X71.1860 Y88.2732
G01 X71.1169 Y88.0605
G01 X71.0819 Y87.8397
G01 X71.0819 Y87.6161
G01 X71.1169 Y87.3952
G01 X71.1860 Y87.1826
G01 X71.2875 Y86.9834
G01 X71.4189 Y86.8025
G01 X71.5486 Y86.6728
G01 X71.5573 Y86.6634
G01 X71.5628 Y86.6568
G01 X71.5704 Y86.6465
G01 X71.6012 Y86.5985
G01 X71.6081 Y86.5869
G01 X71.6141 Y86.5748
G01 X71.6191 Y86.5623
G01 X71.6232 Y86.5495
G01 X71.6272 Y86.5319
G01 X71.6293 Y86.5141
G01 X71.6343 Y86.4444
G01 X71.6348 Y86.4310
G01 X71.6338 Y86.4131
G01 X71.6320 Y86.3998
G01 X71.6280 Y86.3824
G01 X71.6222 Y86.3655
G01 X71.6169 Y86.3532
G01 X71.6128 Y86.3453
G01 X71.5793 Y86.2839
G01 X71.5727 Y86.2729
G01 X71.5628 Y86.2589
G01 X71.5516 Y86.2460
G01 X71.4189 Y86.1133
G01 X71.2875 Y85.9324
G01 X71.1860 Y85.7332
G01 X71.1169 Y85.5205
G01 X71.0819 Y85.2997
G01 X71.0819 Y85.0761
G01 X71.1169 Y84.8552
G01 X71.1860 Y84.6426
G01 X71.2875 Y84.4434
G01 X71.4189 Y84.2625
G01 X71.5770 Y84.1044
G01 X71.7579 Y83.9730
G00 Z1.2500
G00 X71.5144 Y85.4784
G01 F60.00
G01 Z-0.0050
G01 F120.00
G01 X71.4922 Y85.3888
G01 X71.4774 Y85.2888
G01 X71.4724 Y85.1879
G01 X71.4774 Y85.0869
G01 X71.4922 Y84.9869
G01 X71.5168 Y84.8889
G01 X71.5508 Y84.7937
G01 X71.5941 Y84.7023
G01 X71.6460 Y84.6156
G01 X71.7062 Y84.5345
G01 X71.7741 Y84.4596
G01 X71.8490 Y84.3917
G01 X71.9302 Y84.3315
G01 X72.0168 Y84.2795
G01 X72.1083 Y84.2363
G01 X72.2034 Y84.2022
G01 X72.3015 Y84.1777
G01 X72.4015 Y84.1628
G01 X72.5024 Y84.1579
G01 X72.6034 Y84.1628
G01 X72.7034 Y84.1777
G01 X72.8014 Y84.2022
G01 X72.8966 Y84.2363
G01 X72.9880 Y84.2795
G01 X73.0747 Y84.3315
G01 X73.1559 Y84.3917
G01 X73.2307 Y84.4596
G01 X73.2986 Y84.5345
G01 X73.3588 Y84.6156
G01 X73.4108 Y84.7023
G01 X73.4540 Y84.7937
G01 X73.4881 Y84.8889
G01 X73.5126 Y84.9869
G01 X73.5275 Y85.0869
G01 X73.5324 Y85.1879
G01 X73.5275 Y85.2888
G01 X73.5126 Y85.3888
G01 X73.4881 Y85.4869
G01 X73.4540 Y85.5820
G01 X73.4108 Y85.6734
G01 X73.3588 Y85.7601
G01 X73.2986 Y85.8413
G01 X73.2307 Y85.9162
G01 X73.1559 Y85.9841
G01 X73.0747 Y86.0443
G01 X72.9880 Y86.0962
G01 X72.8966 Y86.1395
G01 X72.8014 Y86.1735
G01 X72.7034 Y86.1981
G01 X72.6034 Y86.2129
G01 X72.5024 Y86.2179
G01 X72.4015 Y86.2129
G01 X72.3015 Y86.1981
G01 X72.2034 Y86.1735
G01 X72.1083 Y86.1395
G01 X72.0169 Y86.0963
G01 X71.9302 Y86.0443
G01 X71.8490 Y85.9841
G01 X71.7741 Y85.9162
G01 X71.7062 Y85.8413
G01 X71.6460 Y85.7601
G01 X71.5941 Y85.6735
G01 X71.5508 Y85.5820
G01 X71.5196 Y85.4953
G01 X71.5144 Y85.4784
G00 Z1.2500
G00 X71.4942 Y87.9374
G01 F60.00
G01 Z-0.0050
G01 F120.00
G01 X71.4907 Y87.9201
G01 X71.4774 Y87.8288
G01 X71.4724 Y87.7279
G01 X71.4774 Y87.6269
G01 X71.4922 Y87.5269
G01 X71.5168 Y87.4289
G01 X71.5508 Y87.3337
G01 X71.5941 Y87.2423
G01 X71.6460 Y87.1556
G01 X71.7062 Y87.0745
G01 X71.7741 Y86.9996
G01 X71.8490 Y86.9317
G01 X71.9302 Y86.8715
G01 X72.0168 Y86.8195
G01 X72.1083 Y86.7763
G01 X72.2034 Y86.7422
G01 X72.3015 Y86.7177
G01 X72.4015 Y86.7028
G01 X72.5024 Y86.6979
G01 X72.6034 Y86.7028
G01 X72.7034 Y86.7177
G01 X72.8014 Y86.7422
G01 X72.8966 Y86.7763
G01 X72.9880 Y86.8195
G01 X73.0747 Y86.8715
G01 X73.1559 Y86.9317
G01 X73.2307 Y86.9996
G01 X73.2986 Y87.0745
G01 X73.3588 Y87.1556
G01 X73.4108 Y87.2423
G01 X73.4540 Y87.3337
G01 X73.4881 Y87.4289
G01 X73.5126 Y87.5269
G01 X73.5275 Y87.6269
G01 X73.5324 Y87.7279
G01 X73.5275 Y87.8288
G01 X73.5126 Y87.9288
G01 X73.4881 Y88.0269
G01 X73.4540 Y88.1220
G01 X73.4108 Y88.2134
