(G-CODE GENERATED BY FLATCAM v2024.4 - www.flatcam.org - Version Date: 2024/04/15)

(Name: power_board.drl_cnc)
(Type: G-code from Geometry)
(Units: MM)

(Created on Sunday, 05 October 2025 at 19:51)

(This preprocessor is the default preprocessor used by FlatCAM.)
(It is made to work with MACH3 compatible motion controllers.)


(TOOLS DIAMETER: )
(Tool: 1 -> Dia: 0.3)
(Tool: 2 -> Dia: 1.9)
(Tool: 3 -> Dia: 3.2)
(Tool: 4 -> Dia: 0.7)
(Tool: 5 -> Dia: 0.8)
(Tool: 6 -> Dia: 0.95)
(Tool: 7 -> Dia: 1.0)
(Tool: 8 -> Dia: 1.05)
(Tool: 9 -> Dia: 1.3)
(Tool: 10 -> Dia: 1.6)
(Tool: 11 -> Dia: 1.7)

(FEEDRATE Z: )
(Tool: 1 -> Feedrate: 300)
(Tool: 2 -> Feedrate: 300)
(Tool: 3 -> Feedrate: 300)
(Tool: 4 -> Feedrate: 300)
(Tool: 5 -> Feedrate: 300)
(Tool: 6 -> Feedrate: 300)
(Tool: 7 -> Feedrate: 300)
(Tool: 8 -> Feedrate: 300)
(Tool: 9 -> Feedrate: 300)
(Tool: 10 -> Feedrate: 300)
(Tool: 11 -> Feedrate: 300)

(FEEDRATE RAPIDS: )
(Tool: 1 -> Feedrate Rapids: 1500)
(Tool: 2 -> Feedrate Rapids: 1500)
(Tool: 3 -> Feedrate Rapids: 1500)
(Tool: 4 -> Feedrate Rapids: 1500)
(Tool: 5 -> Feedrate Rapids: 1500)
(Tool: 6 -> Feedrate Rapids: 1500)
(Tool: 7 -> Feedrate Rapids: 1500)
(Tool: 8 -> Feedrate Rapids: 1500)
(Tool: 9 -> Feedrate Rapids: 1500)
(Tool: 10 -> Feedrate Rapids: 1500)
(Tool: 11 -> Feedrate Rapids: 1500)

(Z_CUT: )
(Tool: 1 -> Z_Cut: -2.0)
(Tool: 2 -> Z_Cut: -2.0)
(Tool: 3 -> Z_Cut: -2.0)
(Tool: 4 -> Z_Cut: -2.0)
(Tool: 5 -> Z_Cut: -2.0)
(Tool: 6 -> Z_Cut: -2.0)
(Tool: 7 -> Z_Cut: -2.0)
(Tool: 8 -> Z_Cut: -2.0)
(Tool: 9 -> Z_Cut: -2.0)
(Tool: 10 -> Z_Cut: -2.0)
(Tool: 11 -> Z_Cut: -2.0)

(Tools Offset: )
(Tool: 1 -> Offset Z: 0.0)
(Tool: 4 -> Offset Z: 0.0)
(Tool: 5 -> Offset Z: 0.0)
(Tool: 6 -> Offset Z: 0.0)
(Tool: 7 -> Offset Z: 0.0)
(Tool: 8 -> Offset Z: 0.0)

(DEPTH_PER_CUT: )
(Tool: 1 -> DeptPerCut: 1.0)
(Tool: 2 -> DeptPerCut: 1.0)
(Tool: 3 -> DeptPerCut: 1.0)
(Tool: 4 -> DeptPerCut: 1.0)
(Tool: 5 -> DeptPerCut: 1.0)
(Tool: 6 -> DeptPerCut: 1.0)
(Tool: 7 -> DeptPerCut: 1.0)
(Tool: 8 -> DeptPerCut: 1.0)
(Tool: 9 -> DeptPerCut: 1.0)
(Tool: 10 -> DeptPerCut: 1.0)
(Tool: 11 -> DeptPerCut: 1.0)

(Z_MOVE: )
(Tool: 1 -> Z_Move: 2.0)
(Tool: 2 -> Z_Move: 2.0)
(Tool: 3 -> Z_Move: 2.0)
(Tool: 4 -> Z_Move: 2.0)
(Tool: 5 -> Z_Move: 2.0)
(Tool: 6 -> Z_Move: 2.0)
(Tool: 7 -> Z_Move: 2.0)
(Tool: 8 -> Z_Move: 2.0)
(Tool: 9 -> Z_Move: 2.0)
(Tool: 10 -> Z_Move: 2.0)
(Tool: 11 -> Z_Move: 2.0)

(Z Toolchange: 15 mm)
(X,Y Toolchange: 0.0000, 0.0000 mm)
(Z Start: None mm)
(Z End: 0.5 mm)
(X,Y End: None mm)
(Steps per circle: 64)
(Preprocessor Excellon: default)

(X range:   26.6304 ...  127.9244  mm)
(Y range:   23.0779 ...  126.9779  mm)

(Spindle Speed: 0 RPM)
G21
G90
G94

G01 F300.00

M5
G00 Z15.0000
T1
G00 X0.0000 Y0.0000                
M6
(MSG, Change to Tool Dia = 0.3000 ||| Total drills for tool T1 = 53)
M0
G00 Z15.0000

G01 F300.00
M03
G00 X40.7524 Y100.9359
G01 Z-1.0000
G01 Z0
G00 Z2.0000
G01 Z-2.0000
G01 Z0
G00 Z2.0000
G00 X52.2374 Y76.0539
G01 Z-1.0000
G01 Z0
G00 Z2.0000
G01 Z-2.0000
G01 Z0
G00 Z2.0000
G00 X52.2374 Y73.5539
G01 Z-1.0000
G01 Z0
G00 Z2.0000
G01 Z-2.0000
G01 Z0
G00 Z2.0000
G00 X117.3634 Y30.8899
G01 Z-1.0000
G01 Z0
G00 Z2.0000
G01 Z-2.0000
G01 Z0
G00 Z2.0000
G00 X112.3354 Y40.6739
G01 Z-1.0000
G01 Z0
G00 Z2.0000
G01 Z-2.0000
G01 Z0
G00 Z2.0000
G00 X111.1244 Y117.6859
G01 Z-1.0000
G01 Z0
G00 Z2.0000
G01 Z-2.0000
G01 Z0
G00 Z2.0000
G00 X110.4354 Y81.5279
G01 Z-1.0000
G01 Z0
G00 Z2.0000
G01 Z-2.0000
G01 Z0
G00 Z2.0000
G00 X110.4354 Y68.5279
G01 Z-1.0000
G01 Z0
G00 Z2.0000
G01 Z-2.0000
G01 Z0
G00 Z2.0000
G00 X106.0964 Y107.9019
G01 Z-1.0000
G01 Z0
G00 Z2.0000
G01 Z-2.0000
G01 Z0
G00 Z2.0000
G00 X95.9444 Y78.5279
G01 Z-1.0000
G01 Z0
G00 Z2.0000
G01 Z-2.0000
G01 Z0
G00 Z2.0000
G00 X95.9444 Y75.0279
G01 Z-1.0000
G01 Z0
G00 Z2.0000
G01 Z-2.0000
G01 Z0
G00 Z2.0000
G00 X72.5314 Y78.2029
G01 Z-1.0000
G01 Z0
G00 Z2.0000
G01 Z-2.0000
G01 Z0
G00 Z2.0000
G00 X72.5314 Y75.6629
G01 Z-1.0000
G01 Z0
G00 Z2.0000
G01 Z-2.0000
G01 Z0
G00 Z2.0000
G00 X72.5314 Y73.1229
G01 Z-1.0000
G01 Z0
G00 Z2.0000
G01 Z-2.0000
G01 Z0
G00 Z2.0000
G00 X72.5314 Y70.5829
G01 Z-1.0000
G01 Z0
G00 Z2.0000
G01 Z-2.0000
G01 Z0
G00 Z2.0000
G00 X72.5024 Y92.8079
G01 Z-1.0000
G01 Z0
G00 Z2.0000
G01 Z-2.0000
G01 Z0
G00 Z2.0000
G00 X72.5024 Y90.2679
G01 Z-1.0000
G01 Z0
G00 Z2.0000
G01 Z-2.0000
G01 Z0
G00 Z2.0000
G00 X72.5024 Y87.7279
G01 Z-1.0000
G01 Z0
G00 Z2.0000
G01 Z-2.0000
G01 Z0
G00 Z2.0000
G00 X72.5024 Y85.1879
G01 Z-1.0000
G01 Z0
G00 Z2.0000
G01 Z-2.0000
G01 Z0
G00 Z2.0000
G00 X72.4044 Y63.5979
G01 Z-1.0000
G01 Z0
G00 Z2.0000
G01 Z-2.0000
G01 Z0
G00 Z2.0000
G00 X72.4044 Y61.0579
G01 Z-1.0000
G01 Z0
G00 Z2.0000
G01 Z-2.0000
G01 Z0
G00 Z2.0000
G00 X72.4044 Y58.5179
G01 Z-1.0000
G01 Z0
G00 Z2.0000
G01 Z-2.0000
G01 Z0
G00 Z2.0000
G00 X72.4044 Y55.9779
G01 Z-1.0000
G01 Z0
G00 Z2.0000
G01 Z-2.0000
G01 Z0
G00 Z2.0000
G00 X60.5644 Y51.3179
G01 Z-1.0000
G01 Z0
G00 Z2.0000
G01 Z-2.0000
G01 Z0
G00 Z2.0000
G00 X60.5644 Y40.3179
G01 Z-1.0000
G01 Z0
G00 Z2.0000
G01 Z-2.0000
G01 Z0
G00 Z2.0000
G00 X42.6634 Y113.5699
G01 Z-1.0000
G01 Z0
G00 Z2.0000
G01 Z-2.0000
G01 Z0
G00 Z2.0000
G00 X42.6634 Y36.4859
G01 Z-1.0000
G01 Z0
G00 Z2.0000
G01 Z-2.0000
G01 Z0
G00 Z2.0000
G00 X41.1234 Y126.4779
G01 Z-1.0000
G01 Z0
G00 Z2.0000
G01 Z-2.0000
G01 Z0
G00 Z2.0000
G00 X41.1234 Y23.5779
G01 Z-1.0000
G01 Z0
G00 Z2.0000
G01 Z-2.0000
G01 Z0
G00 Z2.0000
G00 X27.5444 Y118.2079
G01 Z-1.0000
G01 Z0
G00 Z2.0000
G01 Z-2.0000
G01 Z0
G00 Z2.0000
G00 X27.5444 Y35.4609
G01 Z-1.0000
G01 Z0
G00 Z2.0000
G01 Z-2.0000
G01 Z0
G00 Z2.0000
G00 X27.1304 Y121.6829
G01 Z-1.0000
G01 Z0
G00 Z2.0000
G01 Z-2.0000
G01 Z0
G00 Z2.0000
G00 X27.1304 Y31.9859
G01 Z-1.0000
G01 Z0
G00 Z2.0000
G01 Z-2.0000
G01 Z0
G00 Z2.0000
G00 X65.6444 Y62.1479
G01 Z-1.0000
G01 Z0
G00 Z2.0000
G01 Z-2.0000
G01 Z0
G00 Z2.0000
G00 X65.6444 Y59.6479
G01 Z-1.0000
G01 Z0
G00 Z2.0000
G01 Z-2.0000
G01 Z0
G00 Z2.0000
G00 X65.6444 Y57.1479
G01 Z-1.0000
G01 Z0
G00 Z2.0000
G01 Z-2.0000
G01 Z0
G00 Z2.0000
G00 X64.3744 Y76.7529
G01 Z-1.0000
G01 Z0
G00 Z2.0000
G01 Z-2.0000
G01 Z0
G00 Z2.0000
G00 X64.3744 Y74.2529
G01 Z-1.0000
G01 Z0
G00 Z2.0000
G01 Z-2.0000
G01 Z0
G00 Z2.0000
G00 X64.3744 Y71.7529
G01 Z-1.0000
G01 Z0
G00 Z2.0000
G01 Z-2.0000
G01 Z0
G00 Z2.0000
G00 X92.7014 Y76.9329
G01 Z-1.0000
G01 Z0
G00 Z2.0000
G01 Z-2.0000
G01 Z0
G00 Z2.0000
G00 X92.7014 Y71.9329
G01 Z-1.0000
G01 Z0
G00 Z2.0000
G01 Z-2.0000
G01 Z0
G00 Z2.0000
G00 X92.6344 Y91.5179
G01 Z-1.0000
G01 Z0
G00 Z2.0000
G01 Z-2.0000
G01 Z0
G00 Z2.0000
G00 X92.6344 Y86.5179
G01 Z-1.0000
G01 Z0
G00 Z2.0000
G01 Z-2.0000
G01 Z0
G00 Z2.0000
G00 X92.5744 Y62.3279
G01 Z-1.0000
G01 Z0
G00 Z2.0000
G01 Z-2.0000
G01 Z0
G00 Z2.0000
G00 X92.5744 Y57.3279
G01 Z-1.0000
G01 Z0
G00 Z2.0000
G01 Z-2.0000
G01 Z0
G00 Z2.0000
G00 X52.9444 Y61.0179
G01 Z-1.0000
G01 Z0
G00 Z2.0000
G01 Z-2.0000
G01 Z0
G00 Z2.0000
G00 X52.9444 Y56.0179
G01 Z-1.0000
G01 Z0
G00 Z2.0000
G01 Z-2.0000
G01 Z0
G00 Z2.0000
G00 X56.7544 Y61.0579
G01 Z-1.0000
G01 Z0
G00 Z2.0000
G01 Z-2.0000
G01 Z0
G00 Z2.0000
G00 X56.7544 Y55.9779
G01 Z-1.0000
G01 Z0
G00 Z2.0000
G01 Z-2.0000
G01 Z0
G00 Z2.0000
G00 X49.1344 Y61.0579
G01 Z-1.0000
G01 Z0
G00 Z2.0000
G01 Z-2.0000
G01 Z0
G00 Z2.0000
G00 X49.1344 Y55.9779
G01 Z-1.0000
G01 Z0
G00 Z2.0000
G01 Z-2.0000
G01 Z0
G00 Z2.0000
G00 X40.7524 Y103.4759
G01 Z-1.0000
G01 Z0
G00 Z2.0000
G01 Z-2.0000
G01 Z0
G00 Z2.0000
G00 X40.7524 Y102.2059
G01 Z-1.0000
G01 Z0
G00 Z2.0000
G01 Z-2.0000
G01 Z0
G00 Z2.0000
M05
G00 Z0.50


