(G-CODE GENERATED BY FLATCAM v2024.4 - www.flatcam.org - Version Date: 2024/04/15)

(Name: power_board.drl_cnc)
(Type: G-code from Geometry)
(Units: MM)

(Created on Sunday, 05 October 2025 at 19:55)

(This preprocessor is the default preprocessor used by FlatCAM.)
(It is made to work with MACH3 compatible motion controllers.)


(TOOLS DIAMETER: )
(Tool: 1 -> Dia: 0.3)
(Tool: 2 -> Dia: 1.9)
(Tool: 3 -> Dia: 3.2)
(Tool: 4 -> Dia: 0.7)
(Tool: 5 -> Dia: 0.8)
(Tool: 6 -> Dia: 0.95)
(Tool: 7 -> Dia: 1.0)
(Tool: 8 -> Dia: 1.05)
(Tool: 9 -> Dia: 1.3)
(Tool: 10 -> Dia: 1.6)
(Tool: 11 -> Dia: 1.7)

(FEEDRATE Z: )
(Tool: 1 -> Feedrate: 20.0)
(Tool: 2 -> Feedrate: 50.0)
(Tool: 3 -> Feedrate: 100.0)
(Tool: 4 -> Feedrate: 20.0)
(Tool: 5 -> Feedrate: 20.0)
(Tool: 6 -> Feedrate: 20.0)
(Tool: 7 -> Feedrate: 20.0)
(Tool: 8 -> Feedrate: 20.0)
(Tool: 9 -> Feedrate: 30.0)
(Tool: 10 -> Feedrate: 30.0)
(Tool: 11 -> Feedrate: 30.0)

(FEEDRATE RAPIDS: )
(Tool: 1 -> Feedrate Rapids: 1500)
(Tool: 2 -> Feedrate Rapids: 1500)
(Tool: 3 -> Feedrate Rapids: 1500)
(Tool: 4 -> Feedrate Rapids: 1500)
(Tool: 5 -> Feedrate Rapids: 1500)
(Tool: 6 -> Feedrate Rapids: 1500)
(Tool: 7 -> Feedrate Rapids: 1500)
(Tool: 8 -> Feedrate Rapids: 1500)
(Tool: 9 -> Feedrate Rapids: 1500)
(Tool: 10 -> Feedrate Rapids: 1500)
(Tool: 11 -> Feedrate Rapids: 1500)

(Z_CUT: )
(Tool: 1 -> Z_Cut: -2.0)
(Tool: 2 -> Z_Cut: -2.0)
(Tool: 3 -> Z_Cut: -2.0)
(Tool: 4 -> Z_Cut: -2.0)
(Tool: 5 -> Z_Cut: -2.0)
(Tool: 6 -> Z_Cut: -2.0)
(Tool: 7 -> Z_Cut: -2.0)
(Tool: 8 -> Z_Cut: -2.0)
(Tool: 9 -> Z_Cut: -2.0)
(Tool: 10 -> Z_Cut: -2.0)
(Tool: 11 -> Z_Cut: -2.0)

(Tools Offset: )
(Tool: 2 -> Offset Z: 0.0)

(Z_MOVE: )
(Tool: 1 -> Z_Move: 2.0)
(Tool: 2 -> Z_Move: 2.0)
(Tool: 3 -> Z_Move: 2.0)
(Tool: 4 -> Z_Move: 2.0)
(Tool: 5 -> Z_Move: 2.0)
(Tool: 6 -> Z_Move: 2.0)
(Tool: 7 -> Z_Move: 2.0)
(Tool: 8 -> Z_Move: 2.0)
(Tool: 9 -> Z_Move: 2.0)
(Tool: 10 -> Z_Move: 2.0)
(Tool: 11 -> Z_Move: 2.0)

(Z Toolchange: 15 mm)
(X,Y Toolchange: 0.0000, 0.0000 mm)
(Z Start: None mm)
(Z End: 0.5 mm)
(X,Y End: None mm)
(Steps per circle: 64)
(Preprocessor Excellon: default)

(X range:   26.6304 ...  127.9244  mm)
(Y range:   23.0779 ...  126.9779  mm)

(Spindle Speed: 0 RPM)
G21
G90
G94

G01 F50.00

M5
G00 Z15.0000
T2
G00 X0.0000 Y0.0000                
M6
(MSG, Change to Tool Dia = 1.9000 ||| Total drills for tool T2 = 9)
M0
G00 Z15.0000

G01 F50.00
M03
G00 X31.5494 Y122.3149
G01 Z-2.0000
G01 Z0
G00 Z2.0000
G00 X100.4354 Y78.5279
G01 Z-2.0000
G01 Z0
G00 Z2.0000
G00 X100.4354 Y75.0279
G01 Z-2.0000
G01 Z0
G00 Z2.0000
G00 X100.4354 Y71.5279
G01 Z-2.0000
G01 Z0
G00 Z2.0000
G00 X32.3784 Y34.6919
G01 Z-2.0000
G01 Z0
G00 Z2.0000
G00 X32.3784 Y115.3639
G01 Z-2.0000
G01 Z0
G00 Z2.0000
G00 X31.9634 Y31.2159
G01 Z-2.0000
G01 Z0
G00 Z2.0000
G00 X31.9634 Y118.8399
G01 Z-2.0000
G01 Z0
G00 Z2.0000
G00 X31.5494 Y27.7409
G01 Z-2.0000
G01 Z0
G00 Z2.0000
M05
G00 Z0.50


