(G-CODE GENERATED BY FLATCAM v2024.4 - www.flatcam.org - Version Date: 2024/04/15)

(Name: power_board-Edge_Cuts.gbr_cutout_cnc)
(Type: G-code from Geometry)
(Units: MM)

(Created on Sunday, 05 October 2025 at 20:03)



G01 F100.00

M5
G00 Z15.0000
G00 X0.0000 Y0.0000
T1
M6    
(MSG, Change to Tool Dia = 2.0000)
M0
G00 Z15.0000

M03
G01 F100.00
G00 X19.1994 Y125.0279
G01 F50.00
G01 Z-0.9500
G01 F100.00
G01 X19.2009 Y125.0843
G01 X19.2114 Y125.1917
G01 X19.2329 Y125.3000
G01 X19.2648 Y125.4057
G01 X19.3069 Y125.5078
G01 X19.3589 Y125.6052
G01 X19.4201 Y125.6970
G01 X19.4900 Y125.7825
G01 X19.5552 Y125.8488
G01 X19.5836 Y125.8745
G01 X24.3938 Y130.0838
G01 X24.4345 Y130.1177
G01 X24.4749 Y130.1484
G01 X29.6525 Y133.8966
G01 X29.6962 Y133.9267
G01 X29.7392 Y133.9535
G01 X35.2401 Y137.2089
G01 X35.2863 Y137.2348
G01 X35.3317 Y137.2575
G01 X41.1090 Y139.9923
G01 X41.1575 Y140.0138
G01 X41.2047 Y140.0323
G01 X47.2094 Y142.2232
G01 X47.2596 Y142.2401
G01 X47.3084 Y142.2542
G01 X53.4894 Y143.8826
G01 X53.5410 Y143.8949
G01 X53.5908 Y143.9044
G01 X59.8955 Y144.9564
G01 X59.9231 Y144.9607
G01 X59.9758 Y144.9669
G01 X60.0309 Y144.9707
G01 X60.0870 Y144.9718
G01 X60.1415 Y144.9701
G01 X60.1968 Y144.9658
G01 X60.2504 Y144.9589
G01 X60.3067 Y144.9489
G01 X60.3578 Y144.9371
G01 X60.4144 Y144.9212
G01 X60.4625 Y144.9050
G01 X60.5188 Y144.8830
G01 X60.5636 Y144.8629
G01 X60.6189 Y144.8347
G01 X60.6591 Y144.8117
G01 X60.7138 Y144.7768
G01 X60.7503 Y144.7508
G01 X60.8034 Y144.7090
G01 X60.8360 Y144.6805
G01 X60.8839 Y144.6345
G01 X60.9137 Y144.6029
G01 X60.9576 Y144.5515
G01 X60.9834 Y144.5181
G01 X61.0227 Y144.4618
G01 X61.0446 Y144.4269
G01 X61.0787 Y144.3661
G01 X61.0966 Y144.3300
G01 X61.1249 Y144.2655
G01 X61.1390 Y144.2284
G01 X61.1610 Y144.1608
G01 X61.1712 Y144.1231
G01 X61.1866 Y144.0532
G01 X61.1929 Y144.0162
G01 X61.1977 Y143.9806
G01 X64.0429 Y120.2287
G01 X66.7120 Y120.4342
G01 X66.7607 Y120.4368
G01 X66.8073 Y120.4375
G01 X70.5624 Y120.4077
G01 X70.6111 Y120.4062
G01 X70.6576 Y120.4029
G01 X74.3967 Y120.0552
G01 X74.4452 Y120.0496
G01 X74.4912 Y120.0424
G01 X78.1875 Y119.3793
G01 X78.2353 Y119.3697
G01 X78.2805 Y119.3586
G01 X81.9074 Y118.3850
G01 X81.9521 Y118.3719
G01 X81.9983 Y118.3564
G01 X85.5297 Y117.0792
G01 X85.5732 Y117.0624
G01 X85.6179 Y117.0430
G01 X88.0491 Y115.9226
G01 X98.9767 Y137.2134
G01 X99.0039 Y137.2623
G01 X99.0324 Y137.3082
G01 X99.0634 Y137.3529
G01 X99.0974 Y137.3974
G01 X99.1340 Y137.4404
G01 X99.1709 Y137.4798
G01 X99.2100 Y137.5177
G01 X99.2524 Y137.5550
G01 X99.2963 Y137.5898
G01 X99.3405 Y137.6214
G01 X99.3859 Y137.6507
G01 X99.4347 Y137.6790
G01 X99.4846 Y137.7045
G01 X99.5338 Y137.7268
G01 X99.5844 Y137.7468
G01 X99.6374 Y137.7649
G01 X99.6917 Y137.7804
G01 X99.7447 Y137.7927
G01 X99.7978 Y137.8024
G01 X99.8537 Y137.8098
G01 X99.9096 Y137.8144
G01 X99.9635 Y137.8161
G01 X100.0179 Y137.8153
G01 X100.0743 Y137.8116
G01 X100.1299 Y137.8052
G01 X100.1836 Y137.7963
G01 X100.2364 Y137.7849
G01 X100.2909 Y137.7704
G01 X100.3442 Y137.7532
G01 X100.3948 Y137.7342
G01 X100.4447 Y137.7125
G01 X100.4954 Y137.6876
G01 X100.5300 Y137.6687
G01 X105.7839 Y134.6757
G01 X105.8251 Y134.6510
G01 X105.8670 Y134.6234
G01 X110.8400 Y131.1839
G01 X110.8788 Y131.1557
G01 X110.9182 Y131.1246
G01 X115.5725 Y127.2647
G01 X115.6088 Y127.2333
G01 X115.6453 Y127.1988
G01 X119.9455 Y122.9480
G01 X119.9788 Y122.9135
G01 X120.0122 Y122.8760
G01 X123.9255 Y118.2666
G01 X123.9571 Y118.2276
G01 X123.9857 Y118.1891
G01 X127.4825 Y113.2561
G01 X127.5105 Y113.2145
G01 X127.5357 Y113.1736
G01 X130.5892 Y107.9547
G01 X130.6135 Y107.9108
G01 X130.6350 Y107.8679
G01 X133.2220 Y102.4026
G01 X133.2424 Y102.3568
G01 X133.2601 Y102.3122
G01 X135.3609 Y96.6423
G01 X135.3693 Y96.6186
G01 X135.3857 Y96.5672
G01 X135.4002 Y96.5126
G01 X135.4117 Y96.4585
G01 X135.4206 Y96.4041
G01 X135.4266 Y96.3505
G01 X135.4301 Y96.2952
G01 X135.4309 Y96.2402
G01 X135.4290 Y96.1848
G01 X135.4242 Y96.1286
G01 X135.4169 Y96.0740
G01 X135.4068 Y96.0196
G01 X135.3942 Y95.9660
G01 X135.3792 Y95.9141
G01 X135.3609 Y95.8607
G01 X135.3404 Y95.8093
G01 X135.3176 Y95.7592
G01 X135.2928 Y95.7112
G01 X135.2650 Y95.6633
G01 X135.2343 Y95.6159
G01 X135.2021 Y95.5713
G01 X135.1684 Y95.5291
G01 X135.1319 Y95.4875
G01 X135.0935 Y95.4480
G01 X135.0522 Y95.4095
G01 X135.0099 Y95.3738
G01 X134.9661 Y95.3404
G01 X134.9205 Y95.3090
G01 X134.8736 Y95.2801
G01 X134.8264 Y95.2540
G01 X134.7767 Y95.2296
G01 X134.7248 Y95.2073
G01 X134.6742 Y95.1884
G01 X134.6505 Y95.1804
G01 X128.0648 Y93.0621
G01 X129.0564 Y89.5111
G01 X129.0676 Y89.4678
G01 X129.0767 Y89.4260
G01 X129.9984 Y84.7470
G01 X130.0061 Y84.7030
G01 X130.0119 Y84.6606
G01 X130.5672 Y79.9241
G01 X130.5715 Y79.8796
G01 X130.5740 Y79.8369
G01 X130.7595 Y75.0716
G01 X130.7603 Y75.0269
G01 X130.7595 Y74.9841
G01 X130.5740 Y70.2189
G01 X130.5714 Y70.1742
G01 X130.5672 Y70.1316
G01 X130.0119 Y65.3952
G01 X130.0061 Y65.3528
G01 X129.9984 Y65.3087
G01 X129.0767 Y60.6298
G01 X129.0676 Y60.5880
G01 X129.0564 Y60.5446
G01 X128.0648 Y56.9937
G01 X134.6505 Y54.8754
G01 X134.6907 Y54.8616
G01 X134.7415 Y54.8417
G01 X134.7914 Y54.8192
G01 X134.8396 Y54.7948
G01 X134.8876 Y54.7673
G01 X134.9332 Y54.7383
G01 X134.9770 Y54.7073
G01 X135.0214 Y54.6726
G01 X135.0627 Y54.6368
G01 X135.1018 Y54.5995
G01 X135.1399 Y54.5594
G01 X135.1757 Y54.5179
G01 X135.2093 Y54.4749
G01 X135.2404 Y54.4308
G01 X135.2693 Y54.3854
G01 X135.2973 Y54.3363
G01 X135.3218 Y54.2878
G01 X135.3438 Y54.2385
G01 X135.3639 Y54.1869
G01 X135.3811 Y54.1357
G01 X135.3957 Y54.0838
G01 X135.4084 Y54.0287
G01 X135.4179 Y53.9753
G01 X135.4248 Y53.9218
G01 X135.4292 Y53.8679
G01 X135.4309 Y53.8126
G01 X135.4300 Y53.7573
G01 X135.4264 Y53.7034
G01 X135.4203 Y53.6496
G01 X135.4111 Y53.5939
G01 X135.3997 Y53.5410
G01 X135.3858 Y53.4888
G01 X135.3693 Y53.4371
G01 X135.3609 Y53.4135
G01 X133.2601 Y47.7436
G01 X133.2416 Y47.6970
G01 X133.2220 Y47.6531
G01 X130.6350 Y42.1879
G01 X130.6125 Y42.1431
G01 X130.5892 Y42.1011
G01 X127.5357 Y36.8822
G01 X127.5105 Y36.8413
G01 X127.4825 Y36.7997
G01 X123.9857 Y31.8667
G01 X123.9558 Y31.8264
G01 X123.9255 Y31.7892
G01 X120.0122 Y27.1797
G01 X119.9789 Y27.1422
G01 X119.9455 Y27.1078
G01 X115.6453 Y22.8569
G01 X115.6104 Y22.8240
G01 X115.5725 Y22.7911
G01 X110.9182 Y18.9312
G01 X110.8806 Y18.9014
G01 X110.8400 Y18.8719
G01 X105.8670 Y15.4324
G01 X105.8251 Y15.4048
G01 X105.7839 Y15.3801
G01 X100.5300 Y12.3871
G01 X100.5081 Y12.3749
G01 X100.4587 Y12.3498
G01 X100.4095 Y12.3277
G01 X100.3569 Y12.3071
G01 X100.3058 Y12.2899
G01 X100.2527 Y12.2749
G01 X100.1977 Y12.2623
G01 X100.1446 Y12.2528
G01 X100.0897 Y12.2457
G01 X100.0334 Y12.2412
G01 X99.9795 Y12.2396
G01 X99.9244 Y12.2407
G01 X99.8692 Y12.2444
G01 X99.8145 Y12.2509
G01 X99.7599 Y12.2600
G01 X99.7060 Y12.2718
G01 X99.6516 Y12.2865
G01 X99.5989 Y12.3037
G01 X99.5474 Y12.3232
G01 X99.4980 Y12.3449
G01 X99.4484 Y12.3695
G01 X99.4003 Y12.3964
G01 X99.3525 Y12.4263
G01 X99.3071 Y12.4580
G01 X99.2643 Y12.4910
G01 X99.2224 Y12.5267
G01 X99.1821 Y12.5647
G01 X99.1430 Y12.6053
G01 X99.1075 Y12.6460
G01 X99.0734 Y12.6893
G01 X99.0413 Y12.7343
G01 X99.0115 Y12.7807
G01 X98.9834 Y12.8297
G01 X98.9723 Y12.8509
G01 X88.0491 Y34.1331
G01 X85.6179 Y33.0128
G01 X85.5732 Y32.9934
G01 X85.5297 Y32.9766
G01 X81.9983 Y31.6994
G01 X81.9521 Y31.6839
G01 X81.9074 Y31.6708
G01 X78.2805 Y30.6972
G01 X78.2353 Y30.6861
G01 X78.1875 Y30.6764
G01 X74.4912 Y30.0134
G01 X74.4431 Y30.0059
G01 X74.3967 Y30.0006
G01 X70.6576 Y29.6529
G01 X70.6090 Y29.6495
G01 X70.5624 Y29.6481
G01 X66.8073 Y29.6183
G01 X66.7607 Y29.6189
G01 X66.7120 Y29.6216
G01 X64.0429 Y29.8271
G01 X61.1977 Y6.0752
G01 X61.1929 Y6.0396
G01 X61.1866 Y6.0025
G01 X61.1712 Y5.9327
G01 X61.1610 Y5.8949
G01 X61.1390 Y5.8274
G01 X61.1249 Y5.7903
G01 X61.0966 Y5.7258
G01 X61.0787 Y5.6897
G01 X61.0446 Y5.6289
G01 X61.0227 Y5.5940
G01 X60.9834 Y5.5376
G01 X60.9576 Y5.5043
G01 X60.9137 Y5.4528
G01 X60.8839 Y5.4213
G01 X60.8360 Y5.3753
G01 X60.8034 Y5.3468
G01 X60.7503 Y5.3050
G01 X60.7138 Y5.2790
G01 X60.6591 Y5.2441
G01 X60.6189 Y5.2211
G01 X60.5636 Y5.1929
G01 X60.5188 Y5.1728
G01 X60.4625 Y5.1507
G01 X60.4144 Y5.1346
G01 X60.3578 Y5.1186
G01 X60.3067 Y5.1069
G01 X60.2504 Y5.0969
G01 X60.1968 Y5.0900
G01 X60.1415 Y5.0856
G01 X60.0857 Y5.0840
G01 X60.0309 Y5.0851
G01 X59.9758 Y5.0889
G01 X59.9231 Y5.0951
G01 X59.8955 Y5.0993
G01 X53.5908 Y6.1514
G01 X53.5387 Y6.1614
G01 X53.4894 Y6.1732
G01 X47.3084 Y7.8016
G01 X47.2574 Y7.8163
G01 X47.2094 Y7.8326
G01 X41.2047 Y10.0235
G01 X41.1553 Y10.0429
G01 X41.1090 Y10.0635
G01 X35.3317 Y12.7982
G01 X35.2843 Y12.8221
G01 X35.2401 Y12.8469
G01 X29.7392 Y16.1022
G01 X29.6943 Y16.1303
G01 X29.6525 Y16.1591
G01 X24.4749 Y19.9073
G01 X24.4327 Y19.9395
G01 X24.3938 Y19.9720
G01 X19.5836 Y24.1813
G01 X19.5552 Y24.2069
G01 X19.5162 Y24.2454
G01 X19.4785 Y24.2863
G01 X19.4434 Y24.3283
G01 X19.4098 Y24.3728
G01 X19.3790 Y24.4181
G01 X19.3500 Y24.4656
G01 X19.3238 Y24.5137
G01 X19.2996 Y24.5638
G01 X19.2785 Y24.6135
G01 X19.2596 Y24.6649
G01 X19.2429 Y24.7180
G01 X19.2291 Y24.7710
G01 X19.2178 Y24.8255
G01 X19.2092 Y24.8796
G01 X19.2033 Y24.9349
G01 X19.2001 Y24.9896
G01 X19.1994 Y25.0279
G01 X19.1994 Y125.0279
G00 X19.1994 Y125.0279
G01 F50.00
G01 Z-1.9000
G01 F100.00
G01 X19.1994 Y25.0279
G01 X19.2001 Y24.9896
G01 X19.2033 Y24.9349
G01 X19.2092 Y24.8796
G01 X19.2178 Y24.8255
G01 X19.2291 Y24.7710
G01 X19.2429 Y24.7180
G01 X19.2596 Y24.6649
G01 X19.2785 Y24.6135
G01 X19.2996 Y24.5638
G01 X19.3238 Y24.5137
G01 X19.3500 Y24.4656
G01 X19.3790 Y24.4181
G01 X19.4098 Y24.3728
G01 X19.4434 Y24.3283
G01 X19.4785 Y24.2863
G01 X19.5162 Y24.2454
G01 X19.5552 Y24.2069
G01 X19.5836 Y24.1813
G01 X24.3938 Y19.9720
G01 X24.4327 Y19.9395
G01 X24.4749 Y19.9073
G01 X29.6525 Y16.1591
G01 X29.6943 Y16.1303
G01 X29.7392 Y16.1022
G01 X35.2401 Y12.8469
G01 X35.2843 Y12.8221
G01 X35.3317 Y12.7982
G01 X41.1090 Y10.0635
G01 X41.1553 Y10.0429
G01 X41.2047 Y10.0235
G01 X47.2094 Y7.8326
G01 X47.2574 Y7.8163
G01 X47.3084 Y7.8016
G01 X53.4894 Y6.1732
G01 X53.5387 Y6.1614
G01 X53.5908 Y6.1514
G01 X59.8955 Y5.0993
G01 X59.9231 Y5.0951
G01 X59.9758 Y5.0889
G01 X60.0309 Y5.0851
G01 X60.0857 Y5.0840
G01 X60.1415 Y5.0856
G01 X60.1968 Y5.0900
G01 X60.2504 Y5.0969
G01 X60.3067 Y5.1069
G01 X60.3578 Y5.1186
G01 X60.4144 Y5.1346
G01 X60.4625 Y5.1507
G01 X60.5188 Y5.1728
G01 X60.5636 Y5.1929
G01 X60.6189 Y5.2211
G01 X60.6591 Y5.2441
G01 X60.7138 Y5.2790
G01 X60.7503 Y5.3050
G01 X60.8034 Y5.3468
G01 X60.8360 Y5.3753
G01 X60.8839 Y5.4213
G01 X60.9137 Y5.4528
G01 X60.9576 Y5.5043
G01 X60.9834 Y5.5376
G01 X61.0227 Y5.5940
G01 X61.0446 Y5.6289
G01 X61.0787 Y5.6897
G01 X61.0966 Y5.7258
G01 X61.1249 Y5.7903
G01 X61.1390 Y5.8274
G01 X61.1610 Y5.8949
G01 X61.1712 Y5.9327
G01 X61.1866 Y6.0025
G01 X61.1929 Y6.0396
G01 X61.1977 Y6.0752
G01 X64.0429 Y29.8271
G01 X66.7120 Y29.6216
G01 X66.7607 Y29.6189
G01 X66.8073 Y29.6183
G01 X70.5624 Y29.6481
G01 X70.6090 Y29.6495
G01 X70.6576 Y29.6529
G01 X74.3967 Y30.0006
G01 X74.4431 Y30.0059
G01 X74.4912 Y30.0134
G01 X78.1875 Y30.6764
G01 X78.2353 Y30.6861
G01 X78.2805 Y30.6972
G01 X81.9074 Y31.6708
G01 X81.9521 Y31.6839
G01 X81.9983 Y31.6994
G01 X85.5297 Y32.9766
G01 X85.5732 Y32.9934
G01 X85.6179 Y33.0128
G01 X88.0491 Y34.1331
G01 X98.9723 Y12.8509
G01 X98.9834 Y12.8297
G01 X99.0115 Y12.7807
G01 X99.0413 Y12.7343
G01 X99.0734 Y12.6893
G01 X99.1075 Y12.6460
G01 X99.1430 Y12.6053
G01 X99.1821 Y12.5647
G01 X99.2224 Y12.5267
G01 X99.2643 Y12.4910
G01 X99.3071 Y12.4580
G01 X99.3525 Y12.4263
G01 X99.4003 Y12.3964
G01 X99.4484 Y12.3695
G01 X99.4980 Y12.3449
G01 X99.5474 Y12.3232
G01 X99.5989 Y12.3037
G01 X99.6516 Y12.2865
G01 X99.7060 Y12.2718
G01 X99.7599 Y12.2600
G01 X99.8145 Y12.2509
G01 X99.8692 Y12.2444
G01 X99.9244 Y12.2407
G01 X99.9795 Y12.2396
G01 X100.0334 Y12.2412
G01 X100.0897 Y12.2457
G01 X100.1446 Y12.2528
G01 X100.1977 Y12.2623
G01 X100.2527 Y12.2749
G01 X100.3058 Y12.2899
G01 X100.3569 Y12.3071
G01 X100.4095 Y12.3277
G01 X100.4587 Y12.3498
G01 X100.5081 Y12.3749
G01 X100.5300 Y12.3871
G01 X105.7839 Y15.3801
G01 X105.8251 Y15.4048
G01 X105.8670 Y15.4324
G01 X110.8400 Y18.8719
G01 X110.8806 Y18.9014
G01 X110.9182 Y18.9312
G01 X115.5725 Y22.7911
G01 X115.6104 Y22.8240
G01 X115.6453 Y22.8569
G01 X119.9455 Y27.1078
G01 X119.9789 Y27.1422
G01 X120.0122 Y27.1797
G01 X123.9255 Y31.7892
G01 X123.9558 Y31.8264
G01 X123.9857 Y31.8667
G01 X127.4825 Y36.7997
G01 X127.5105 Y36.8413
G01 X127.5357 Y36.8822
G01 X130.5892 Y42.1011
G01 X130.6125 Y42.1431
G01 X130.6350 Y42.1879
G01 X133.2220 Y47.6531
G01 X133.2416 Y47.6970
G01 X133.2601 Y47.7436
G01 X135.3609 Y53.4135
G01 X135.3693 Y53.4371
G01 X135.3858 Y53.4888
G01 X135.3997 Y53.5410
G01 X135.4111 Y53.5939
G01 X135.4203 Y53.6496
G01 X135.4264 Y53.7034
G01 X135.4300 Y53.7573
G01 X135.4309 Y53.8126
G01 X135.4292 Y53.8679
G01 X135.4248 Y53.9218
G01 X135.4179 Y53.9753
G01 X135.4084 Y54.0287
G01 X135.3957 Y54.0838
G01 X135.3811 Y54.1357
G01 X135.3639 Y54.1869
G01 X135.3438 Y54.2385
G01 X135.3218 Y54.2878
G01 X135.2973 Y54.3363
G01 X135.2693 Y54.3854
G01 X135.2404 Y54.4308
G01 X135.2093 Y54.4749
G01 X135.1757 Y54.5179
G01 X135.1399 Y54.5594
G01 X135.1018 Y54.5995
G01 X135.0627 Y54.6368
G01 X135.0214 Y54.6726
G01 X134.9770 Y54.7073
G01 X134.9332 Y54.7383
G01 X134.8876 Y54.7673
G01 X134.8396 Y54.7948
G01 X134.7914 Y54.8192
G01 X134.7415 Y54.8417
G01 X134.6907 Y54.8616
G01 X134.6505 Y54.8754
G01 X128.0648 Y56.9937
G01 X129.0564 Y60.5446
G01 X129.0676 Y60.5880
G01 X129.0767 Y60.6298
G01 X129.9984 Y65.3087
G01 X130.0061 Y65.3528
G01 X130.0119 Y65.3952
G01 X130.5672 Y70.1316
G01 X130.5714 Y70.1742
G01 X130.5740 Y70.2189
G01 X130.7595 Y74.9841
G01 X130.7603 Y75.0269
G01 X130.7595 Y75.0716
G01 X130.5740 Y79.8369
G01 X130.5715 Y79.8796
G01 X130.5672 Y79.9241
G01 X130.0119 Y84.6606
G01 X130.0061 Y84.7030
G01 X129.9984 Y84.7470
G01 X129.0767 Y89.4260
G01 X129.0676 Y89.4678
G01 X129.0564 Y89.5111
G01 X128.0648 Y93.0621
G01 X134.6505 Y95.1804
G01 X134.6742 Y95.1884
G01 X134.7248 Y95.2073
G01 X134.7767 Y95.2296
G01 X134.8264 Y95.2540
G01 X134.8736 Y95.2801
G01 X134.9205 Y95.3090
G01 X134.9661 Y95.3404
G01 X135.0099 Y95.3738
G01 X135.0522 Y95.4095
G01 X135.0935 Y95.4480
G01 X135.1319 Y95.4875
G01 X135.1684 Y95.5291
G01 X135.2021 Y95.5713
G01 X135.2343 Y95.6159
G01 X135.2650 Y95.6633
G01 X135.2928 Y95.7112
G01 X135.3176 Y95.7592
G01 X135.3404 Y95.8093
G01 X135.3609 Y95.8607
G01 X135.3792 Y95.9141
G01 X135.3942 Y95.9660
G01 X135.4068 Y96.0196
G01 X135.4169 Y96.0740
G01 X135.4242 Y96.1286
G01 X135.4290 Y96.1848
G01 X135.4309 Y96.2402
G01 X135.4301 Y96.2952
G01 X135.4266 Y96.3505
G01 X135.4206 Y96.4041
G01 X135.4117 Y96.4585
G01 X135.4002 Y96.5126
G01 X135.3857 Y96.5672
G01 X135.3693 Y96.6186
G01 X135.3609 Y96.6423
G01 X133.2601 Y102.3122
G01 X133.2424 Y102.3568
G01 X133.2220 Y102.4026
G01 X130.6350 Y107.8679
G01 X130.6135 Y107.9108
G01 X130.5892 Y107.9547
G01 X127.5357 Y113.1736
G01 X127.5105 Y113.2145
G01 X127.4825 Y113.2561
G01 X123.9857 Y118.1891
G01 X123.9571 Y118.2276
G01 X123.9255 Y118.2666
G01 X120.0122 Y122.8760
G01 X119.9788 Y122.9135
G01 X119.9455 Y122.9480
G01 X115.6453 Y127.1988
G01 X115.6088 Y127.2333
G01 X115.5725 Y127.2647
G01 X110.9182 Y131.1246
G01 X110.8788 Y131.1557
G01 X110.8400 Y131.1839
G01 X105.8670 Y134.6234
G01 X105.8251 Y134.6510
G01 X105.7839 Y134.6757
G01 X100.5300 Y137.6687
G01 X100.4954 Y137.6876
G01 X100.4447 Y137.7125
G01 X100.3948 Y137.7342
G01 X100.3442 Y137.7532
G01 X100.2909 Y137.7704
G01 X100.2364 Y137.7849
G01 X100.1836 Y137.7963
G01 X100.1299 Y137.8052
G01 X100.0743 Y137.8116
G01 X100.0179 Y137.8153
G01 X99.9635 Y137.8161
G01 X99.9096 Y137.8144
G01 X99.8537 Y137.8098
G01 X99.7978 Y137.8024
G01 X99.7447 Y137.7927
G01 X99.6917 Y137.7804
G01 X99.6374 Y137.7649
G01 X99.5844 Y137.7468
G01 X99.5338 Y137.7268
G01 X99.4846 Y137.7045
G01 X99.4347 Y137.6790
G01 X99.3859 Y137.6507
G01 X99.3405 Y137.6214
G01 X99.2963 Y137.5898
G01 X99.2524 Y137.5550
G01 X99.2100 Y137.5177
G01 X99.1709 Y137.4798
G01 X99.1340 Y137.4404
G01 X99.0974 Y137.3974
G01 X99.0634 Y137.3529
G01 X99.0324 Y137.3082
G01 X99.0039 Y137.2623
G01 X98.9767 Y137.2134
G01 X88.0491 Y115.9226
G01 X85.6179 Y117.0430
G01 X85.5732 Y117.0624
G01 X85.5297 Y117.0792
G01 X81.9983 Y118.3564
G01 X81.9521 Y118.3719
G01 X81.9074 Y118.3850
G01 X78.2805 Y119.3586
G01 X78.2353 Y119.3697
G01 X78.1875 Y119.3793
G01 X74.4912 Y120.0424
G01 X74.4452 Y120.0496
G01 X74.3967 Y120.0552
G01 X70.6576 Y120.4029
G01 X70.6111 Y120.4062
G01 X70.5624 Y120.4077
G01 X66.8073 Y120.4375
G01 X66.7607 Y120.4368
G01 X66.7120 Y120.4342
G01 X64.0429 Y120.2287
G01 X61.1977 Y143.9806
G01 X61.1929 Y144.0162
G01 X61.1866 Y144.0532
G01 X61.1712 Y144.1231
G01 X61.1610 Y144.1608
G01 X61.1390 Y144.2284
G01 X61.1249 Y144.2655
G01 X61.0966 Y144.3300
G01 X61.0787 Y144.3661
G01 X61.0446 Y144.4269
G01 X61.0227 Y144.4618
G01 X60.9834 Y144.5181
G01 X60.9576 Y144.5515
G01 X60.9137 Y144.6029
G01 X60.8839 Y144.6345
G01 X60.8360 Y144.6805
G01 X60.8034 Y144.7090
G01 X60.7503 Y144.7508
G01 X60.7138 Y144.7768
G01 X60.6591 Y144.8117
G01 X60.6189 Y144.8347
G01 X60.5636 Y144.8629
G01 X60.5188 Y144.8830
G01 X60.4625 Y144.9050
G01 X60.4144 Y144.9212
G01 X60.3578 Y144.9371
G01 X60.3067 Y144.9489
G01 X60.2504 Y144.9589
G01 X60.1968 Y144.9658
G01 X60.1415 Y144.9701
G01 X60.0870 Y144.9718
G01 X60.0309 Y144.9707
G01 X59.9758 Y144.9669
G01 X59.9231 Y144.9607
G01 X59.8955 Y144.9564
G01 X53.5908 Y143.9044
G01 X53.5410 Y143.8949
G01 X53.4894 Y143.8826
G01 X47.3084 Y142.2542
G01 X47.2596 Y142.2401
G01 X47.2094 Y142.2232
G01 X41.2047 Y140.0323
G01 X41.1575 Y140.0138
G01 X41.1090 Y139.9923
G01 X35.3317 Y137.2575
G01 X35.2863 Y137.2348
G01 X35.2401 Y137.2089
G01 X29.7392 Y133.9535
G01 X29.6962 Y133.9267
G01 X29.6525 Y133.8966
G01 X24.4749 Y130.1484
G01 X24.4345 Y130.1177
G01 X24.3938 Y130.0838
G01 X19.5836 Y125.8745
G01 X19.5552 Y125.8488
G01 X19.4900 Y125.7825
G01 X19.4201 Y125.6970
G01 X19.3589 Y125.6052
G01 X19.3069 Y125.5078
G01 X19.2648 Y125.4057
G01 X19.2329 Y125.3000
G01 X19.2114 Y125.1917
G01 X19.2009 Y125.0843
G01 X19.1994 Y125.0279
G00 Z2.0000
M05
G00 Z2.0000
G00 Z15.00


