(G-CODE GENERATED BY FLATCAM v2024.4 - www.flatcam.org - Version Date: 2024/04/15)

(Name: teste_footprint-F_Cu.gbr_iso_combined_cnc)
(Type: G-code from Geometry)
(Units: MM)

(Created on Thursday, 09 October 2025 at 08:37)

(This preprocessor is the default preprocessor used by FlatCAM.)
(It is made to work with MACH3 compatible motion controllers.)

(TOOL DIAMETER: 0.25 mm)
(Feedrate_XY: 120.0 mm/min)
(Feedrate_Z: 60.0 mm/min)
(Feedrate rapids 1500.0 mm/min)

(Z_Cut: -0.003 mm)
(Z_Move: 1.25 mm)
(Z Start: None mm)
(Z End: 15.0 mm)
(X,Y End: None mm)
(Steps per circle: 64)
(Preprocessor Geometry: default)

(X range:   10.0510 ...   33.5420  mm)
(Y range:    9.7810 ...   33.5260  mm)

(Spindle Speed: 0.0 RPM)
G21
G90
G94

G01 F120.00

M5
G00 Z15.0000
G00 X0.0000 Y0.0000
T1
M6    
(MSG, Change to Tool Dia = 0.2500)
M0
G00 Z15.0000

M03
G01 F120.00
G00 X10.0513 Y10.0211
G01 F60.00
G01 Z-0.0030
G01 F120.00
G01 X10.0533 Y10.0063
G01 X10.0658 Y9.9489
G01 X10.0693 Y9.9369
G01 X10.0754 Y9.9225
G01 X10.0833 Y9.9090
G01 X10.0907 Y9.8990
G01 X10.1385 Y9.8438
G01 X10.1448 Y9.8370
G01 X10.1565 Y9.8268
G01 X10.1667 Y9.8197
G01 X10.1775 Y9.8136
G01 X10.1889 Y9.8087
G01 X10.1977 Y9.8057
G01 X10.2676 Y9.7853
G01 X10.2822 Y9.7823
G01 X10.2970 Y9.7810
G01 X21.7360 Y9.7810
G01 X21.7479 Y9.7816
G01 X21.7597 Y9.7833
G01 X21.8171 Y9.7958
G01 X21.8320 Y9.8004
G01 X21.8407 Y9.8041
G01 X21.8517 Y9.8099
G01 X21.8595 Y9.8150
G01 X21.8670 Y9.8207
G01 X21.9268 Y9.8727
G01 X21.9373 Y9.8841
G01 X21.9446 Y9.8941
G01 X21.9495 Y9.9020
G01 X21.9537 Y9.9103
G01 X21.9573 Y9.9189
G01 X21.9603 Y9.9277
G01 X21.9815 Y10.0005
G01 X21.9841 Y10.0152
G01 X21.9850 Y10.0270
G01 X21.9850 Y19.1790
G01 X33.2930 Y19.1790
G01 X33.3019 Y19.1793
G01 X33.3137 Y19.1807
G01 X33.3711 Y19.1931
G01 X33.3861 Y19.1973
G01 X33.4005 Y19.2034
G01 X33.4113 Y19.2096
G01 X33.4240 Y19.2187
G01 X33.4792 Y19.2665
G01 X33.4860 Y19.2728
G01 X33.4962 Y19.2845
G01 X33.5033 Y19.2947
G01 X33.5094 Y19.3055
G01 X33.5154 Y19.3198
G01 X33.5385 Y19.3985
G01 X33.5411 Y19.4132
G01 X33.5420 Y19.4280
G01 X33.5420 Y33.2770
G01 X33.5414 Y33.2889
G01 X33.5403 Y33.2977
G01 X33.5279 Y33.3551
G01 X33.5237 Y33.3701
G01 X33.5176 Y33.3845
G01 X33.5114 Y33.3953
G01 X33.5023 Y33.4080
G01 X33.4545 Y33.4632
G01 X33.4482 Y33.4700
G01 X33.4365 Y33.4802
G01 X33.4263 Y33.4873
G01 X33.4155 Y33.4934
G01 X33.4012 Y33.4994
G01 X33.3225 Y33.5225
G01 X33.3078 Y33.5251
G01 X33.2930 Y33.5260
G01 X10.3000 Y33.5260
G01 X10.2911 Y33.5257
G01 X10.2793 Y33.5243
G01 X10.2219 Y33.5119
G01 X10.2069 Y33.5077
G01 X10.1925 Y33.5016
G01 X10.1790 Y33.4937
G01 X10.1690 Y33.4863
G01 X10.1138 Y33.4385
G01 X10.1070 Y33.4322
G01 X10.0968 Y33.4205
G01 X10.0897 Y33.4103
G01 X10.0836 Y33.3995
G01 X10.0776 Y33.3852
G01 X10.0545 Y33.3065
G01 X10.0519 Y33.2918
G01 X10.0510 Y33.2770
G01 X10.0510 Y10.0300
G01 X10.0513 Y10.0211
G00 Z1.2500
G00 X22.9492 Y11.4367
G01 F60.00
G01 Z-0.0030
G01 F120.00
G01 X22.9493 Y11.4276
G01 X22.9502 Y11.4102
G01 X22.9534 Y11.3881
G01 X22.9591 Y11.3640
G01 X22.9660 Y11.3438
G01 X22.9692 Y11.3357
G01 X22.9773 Y11.3186
G01 X22.9880 Y11.3000
G01 X22.9948 Y11.2898
G01 X23.0037 Y11.2779
G01 X23.0099 Y11.2705
G01 X23.0245 Y11.2548
G01 X23.0427 Y11.2387
G01 X23.0613 Y11.2251
G01 X23.0835 Y11.2121
G01 X23.1032 Y11.2028
G01 X23.1285 Y11.1939
G01 X23.1516 Y11.1883
G01 X23.1754 Y11.1848
G01 X23.1992 Y11.1837
G01 X24.4373 Y11.1837
G01 X24.4587 Y11.1846
G01 X24.4679 Y11.1857
G01 X24.4859 Y11.1885
G01 X24.5099 Y11.1945
G01 X24.5330 Y11.2027
G01 X24.5523 Y11.2117
G01 X24.5599 Y11.2159
G01 X24.5742 Y11.2245
G01 X24.5812 Y11.2294
G01 X24.5959 Y11.2405
G01 X24.6097 Y11.2527
G01 X24.6162 Y11.2591
G01 X24.6286 Y11.2728
G01 X24.6344 Y11.2800
G01 X24.6452 Y11.2948
G01 X24.6578 Y11.3159
G01 X24.6658 Y11.3325
G01 X24.6694 Y11.3408
G01 X24.6773 Y11.3636
G01 X24.6819 Y11.3820
G01 X24.6836 Y11.3910
G01 X24.6861 Y11.4093
G01 X24.6872 Y11.4276
G01 X24.6873 Y11.4368
G01 X24.6866 Y11.4522
G01 X24.6858 Y11.4613
G01 X24.6831 Y11.4796
G01 X24.6812 Y11.4885
G01 X24.6766 Y11.5064
G01 X24.6689 Y11.5281
G01 X24.6576 Y11.5521
G01 X24.6485 Y11.5675
G01 X24.6435 Y11.5752
G01 X24.6325 Y11.5900
G01 X24.6266 Y11.5970
G01 X24.6119 Y11.6127
G01 X24.5983 Y11.6251
G01 X24.5911 Y11.6308
G01 X24.5787 Y11.6399
G01 X24.5710 Y11.6450
G01 X24.5552 Y11.6543
G01 X24.5386 Y11.6623
G01 X24.5295 Y11.6662
G01 X24.5126 Y11.6722
G01 X24.4891 Y11.6784
G01 X24.4800 Y11.6801
G01 X24.4618 Y11.6826
G01 X24.4403 Y11.6838
G01 X23.8029 Y11.6838
G01 X24.5189 Y12.3998
G01 X24.5289 Y12.4105
G01 X24.5373 Y12.4204
G01 X24.5501 Y12.4379
G01 X24.5595 Y12.4531
G01 X24.5689 Y12.4716
G01 X24.5742 Y12.4838
G01 X24.5793 Y12.4975
G01 X24.6765 Y12.7894
G01 X24.6804 Y12.8039
G01 X24.6831 Y12.8166
G01 X24.6858 Y12.8348
G01 X24.6871 Y12.8525
G01 X24.6873 Y13.0559
G01 X24.6861 Y13.0773
G01 X24.6843 Y13.0919
G01 X24.6825 Y13.1018
G01 X24.6792 Y13.1159
G01 X24.6766 Y13.1254
G01 X24.6703 Y13.1435
G01 X24.6611 Y13.1643
G01 X24.5657 Y13.3551
G01 X24.5553 Y13.3739
G01 X24.5482 Y13.3847
G01 X24.5353 Y13.4019
G01 X24.5236 Y13.4152
G01 X24.4236 Y13.5153
G01 X24.4169 Y13.5218
G01 X24.4053 Y13.5319
G01 X24.3868 Y13.5457
G01 X24.3774 Y13.5518
G01 X24.3586 Y13.5622
G01 X24.1654 Y13.6588
G01 X24.1471 Y13.6668
G01 X24.1316 Y13.6722
G01 X24.1191 Y13.6758
G01 X24.0984 Y13.6803
G01 X24.0778 Y13.6829
G01 X24.0563 Y13.6838
G01 X23.5801 Y13.6838
G01 X23.5655 Y13.6834
G01 X23.5526 Y13.6823
G01 X23.5312 Y13.6790
G01 X23.5141 Y13.6749
G01 X23.4930 Y13.6681
G01 X23.4823 Y13.6639
G01 X23.4687 Y13.6576
G01 X23.2778 Y13.5622
G01 X23.2695 Y13.5578
G01 X23.2564 Y13.5501
G01 X23.2477 Y13.5443
G01 X23.2340 Y13.5342
G01 X23.2200 Y13.5222
G01 X23.2128 Y13.5153
G01 X23.1155 Y13.4179
G01 X23.1011 Y13.4019
G01 X23.0865 Y13.3822
G01 X23.0739 Y13.3612
G01 X23.0659 Y13.3446
G01 X23.0623 Y13.3363
G01 X23.0544 Y13.3134
G01 X23.0498 Y13.2951
G01 X23.0481 Y13.2860
G01 X23.0456 Y13.2678
G01 X23.0445 Y13.2494
G01 X23.0444 Y13.2402
G01 X23.0451 Y13.2249
G01 X23.0459 Y13.2157
G01 X23.0486 Y13.1974
G01 X23.0505 Y13.1885
G01 X23.0551 Y13.1707
G01 X23.0629 Y13.1489
G01 X23.0741 Y13.1250
G01 X23.0832 Y13.1095
G01 X23.0882 Y13.1018
G01 X23.0992 Y13.0870
G01 X23.1051 Y13.0800
G01 X23.1155 Y13.0687
G01 X23.1220 Y13.0622
G01 X23.1358 Y13.0500
G01 X23.1505 Y13.0389
G01 X23.1581 Y13.0337
G01 X23.1739 Y13.0242
G01 X23.1966 Y13.0132
G01 X23.2045 Y13.0101
G01 X23.2223 Y13.0038
G01 X23.2456 Y12.9980
G01 X23.2699 Y12.9944
G01 X23.2944 Y12.9932
G01 X23.3189 Y12.9944
G01 X23.3430 Y12.9980
G01 X23.3670 Y13.0040
G01 X23.3866 Y13.0109
G01 X23.4068 Y13.0200
G01 X23.4171 Y13.0254
G01 X23.4334 Y13.0354
G01 X23.4531 Y13.0500
G01 X23.4712 Y13.0665
G01 X23.5378 Y13.1330
G01 X23.6392 Y13.1837
G01 X23.9973 Y13.1837
G01 X24.0987 Y13.1330
G01 X24.1365 Y13.0952
G01 X24.1872 Y12.9938
G01 X24.1872 Y12.9029
G01 X24.1235 Y12.7117
G01 X23.0181 Y11.6061
G01 X23.0041 Y11.5902
G01 X22.9913 Y11.5727
G01 X22.9790 Y11.5524
G01 X22.9681 Y11.5293
G01 X22.9602 Y11.5072
G01 X22.9544 Y11.4850
G01 X22.9506 Y11.4609
G01 X22.9492 Y11.4367
G00 Z1.2500
G00 X24.9492 Y11.5342
G01 F60.00
G01 Z-0.0030
G01 F120.00
G01 X24.9493 Y11.5231
G01 X24.9503 Y11.5046
G01 X24.9539 Y11.4802
G01 X24.9599 Y11.4564
G01 X24.9681 Y11.4334
G01 X24.9787 Y11.4111
G01 X24.9912 Y11.3901
G01 X25.0059 Y11.3704
G01 X25.0224 Y11.3522
G01 X25.1198 Y11.2548
G01 X25.1358 Y11.2405
G01 X25.1505 Y11.2294
G01 X25.1581 Y11.2242
G01 X25.1765 Y11.2132
G01 X25.1931 Y11.2052
G01 X25.2023 Y11.2013
G01 X25.2223 Y11.1943
G01 X25.2456 Y11.1885
G01 X25.2638 Y11.1857
G01 X25.2730 Y11.1846
G01 X25.2944 Y11.1837
G01 X25.3189 Y11.1849
G01 X25.3372 Y11.1875
G01 X25.3460 Y11.1891
G01 X25.3670 Y11.1945
G01 X25.3873 Y11.2016
G01 X25.3957 Y11.2052
G01 X25.4120 Y11.2131
G01 X25.4282 Y11.2226
G01 X25.4364 Y11.2280
G01 X25.4507 Y11.2385
G01 X25.4691 Y11.2548
G01 X25.5665 Y11.3522
G01 X25.5830 Y11.3704
G01 X25.5976 Y11.3901
G01 X25.6102 Y11.4111
G01 X25.6207 Y11.4334
G01 X25.6289 Y11.4564
G01 X25.6349 Y11.4802
G01 X25.6385 Y11.5046
G01 X25.6397 Y11.5290
G01 X25.6385 Y11.5535
G01 X25.6360 Y11.5717
G01 X25.6342 Y11.5810
G01 X25.6289 Y11.6017
G01 X25.6218 Y11.6219
G01 X25.6182 Y11.6303
G01 X25.6102 Y11.6469
G01 X25.5992 Y11.6654
G01 X25.5849 Y11.6852
G01 X25.5686 Y11.7036
G01 X25.4712 Y11.8011
G01 X25.4530 Y11.8176
G01 X25.4333 Y11.8322
G01 X25.4123 Y11.8448
G01 X25.3901 Y11.8553
G01 X25.3671 Y11.8635
G01 X25.3432 Y11.8695
G01 X25.3189 Y11.8731
G01 X25.2944 Y11.8743
G01 X25.2700 Y11.8731
G01 X25.2456 Y11.8695
G01 X25.2218 Y11.8635
G01 X25.1987 Y11.8553
G01 X25.1765 Y11.8448
G01 X25.1555 Y11.8322
G01 X25.1358 Y11.8175
G01 X25.1176 Y11.8011
G01 X25.0202 Y11.7036
G01 X25.0059 Y11.6876
G01 X24.9948 Y11.6729
G01 X24.9896 Y11.6654
G01 X24.9786 Y11.6469
G01 X24.9706 Y11.6303
G01 X24.9670 Y11.6219
G01 X24.9599 Y11.6016
G01 X24.9546 Y11.5808
G01 X24.9529 Y11.5717
G01 X24.9503 Y11.5535
G01 X24.9492 Y11.5342
G00 Z1.2500
G00 X25.9022 Y12.6901
G01 F60.00
G01 Z-0.0030
G01 F120.00
G01 X25.9015 Y12.6719
G01 X25.9015 Y12.1957
G01 X25.9018 Y12.1835
G01 X25.9027 Y12.1712
G01 X25.9058 Y12.1498
G01 X25.9090 Y12.1350
G01 X26.0056 Y11.7487
G01 X26.0103 Y11.7335
G01 X26.0138 Y11.7240
G01 X26.0230 Y11.7032
G01 X26.1184 Y11.5124
G01 X26.1230 Y11.5037
G01 X26.1325 Y11.4879
G01 X26.1445 Y11.4710
G01 X26.1507 Y11.4633
G01 X26.1605 Y11.4523
G01 X26.2672 Y11.3457
G01 X26.2793 Y11.3352
G01 X26.2958 Y11.3228
G01 X26.3067 Y11.3158
G01 X26.3218 Y11.3072
G01 X26.5187 Y11.2088
G01 X26.5317 Y11.2029
G01 X26.5406 Y11.1994
G01 X26.5619 Y11.1925
G01 X26.5760 Y11.1891
G01 X26.5887 Y11.1868
G01 X26.6063 Y11.1846
G01 X26.6247 Y11.1837
G01 X26.8182 Y11.1837
G01 X26.8329 Y11.1841
G01 X26.8427 Y11.1849
G01 X26.8603 Y11.1873
G01 X26.8813 Y11.1918
G01 X26.8937 Y11.1954
G01 X26.9054 Y11.1994
G01 X26.9167 Y11.2039
G01 X26.9297 Y11.2099
G01 X27.1205 Y11.3053
G01 X27.1393 Y11.3158
G01 X27.1502 Y11.3228
G01 X27.1620 Y11.3314
G01 X27.1697 Y11.3377
G01 X27.1807 Y11.3474
G01 X27.2881 Y11.4551
G01 X27.2996 Y11.4685
G01 X27.3097 Y11.4822
G01 X27.3172 Y11.4938
G01 X27.3247 Y11.5067
G01 X27.4228 Y11.7029
G01 X27.4313 Y11.7218
G01 X27.4347 Y11.7306
G01 X27.4396 Y11.7458
G01 X27.4418 Y11.7541
G01 X27.5370 Y12.1350
G01 X27.5397 Y12.1469
G01 X27.5417 Y12.1583
G01 X27.5433 Y12.1712
G01 X27.5442 Y12.1835
G01 X27.5445 Y12.1957
G01 X27.5445 Y12.6719
G01 X27.5442 Y12.6840
G01 X27.5433 Y12.6964
G01 X27.5417 Y12.7093
G01 X27.5397 Y12.7207
G01 X27.5370 Y12.7325
G01 X27.4418 Y13.1135
G01 X27.4395 Y13.1218
G01 X27.4347 Y13.1369
G01 X27.4263 Y13.1573
G01 X27.3276 Y13.3551
G01 X27.3172 Y13.3739
G01 X27.3111 Y13.3833
G01 X27.2972 Y13.4019
G01 X27.2855 Y13.4152
G01 X27.1783 Y13.5222
G01 X27.1644 Y13.5342
G01 X27.1502 Y13.5447
G01 X27.1392 Y13.5518
G01 X27.1266 Y13.5591
G01 X26.9301 Y13.6574
G01 X26.9161 Y13.6639
G01 X26.9047 Y13.6684
G01 X26.8912 Y13.6730
G01 X26.8813 Y13.6757
G01 X26.8670 Y13.6790
G01 X26.8573 Y13.6807
G01 X26.8427 Y13.6826
G01 X26.8213 Y13.6838
G01 X26.6247 Y13.6838
G01 X26.6070 Y13.6829
G01 X26.5887 Y13.6807
G01 X26.5757 Y13.6783
G01 X26.5617 Y13.6749
G01 X26.5522 Y13.6721
G01 X26.5370 Y13.6668
G01 X26.5163 Y13.6576
G01 X26.3255 Y13.5622
G01 X26.3172 Y13.5578
G01 X26.3004 Y13.5478
G01 X26.2864 Y13.5379
G01 X26.2786 Y13.5318
G01 X26.2676 Y13.5222
G01 X26.2605 Y13.5153
G01 X26.1607 Y13.4155
G01 X26.1487 Y13.4019
G01 X26.1359 Y13.3847
G01 X26.1287 Y13.3738
G01 X26.1184 Y13.3551
G01 X26.0209 Y13.1600
G01 X26.0147 Y13.1457
G01 X26.0113 Y13.1369
G01 X26.0064 Y13.1217
G01 X26.0042 Y13.1135
G01 X25.9090 Y12.7325
G01 X25.9063 Y12.7206
G01 X25.9043 Y12.7093
G01 X25.9022 Y12.6901
G00 Z1.2500
G00 X26.5211 Y14.4929
G01 F60.00
G01 Z-0.0030
G01 F120.00
G01 X26.5210 Y14.4837
G01 X26.5216 Y14.4703
G01 X26.5242 Y14.4507
G01 X26.5287 Y14.4317
G01 X26.5348 Y14.4138
G01 X26.5431 Y14.3953
G01 X26.5530 Y14.3782
G01 X26.5644 Y14.3623
G01 X26.5774 Y14.3475
G01 X26.6531 Y14.2718
G01 X26.6679 Y14.2588
G01 X26.6835 Y14.2476
G01 X26.6982 Y14.2389
G01 X26.7102 Y14.2330
G01 X26.7187 Y14.2294
G01 X26.7344 Y14.2239
G01 X26.7503 Y14.2198
G01 X26.7594 Y14.2181
G01 X26.7728 Y14.2163
G01 X26.7893 Y14.2154
G01 X26.7985 Y14.2155
G01 X26.8121 Y14.2163
G01 X26.8313 Y14.2192
G01 X26.8505 Y14.2239
G01 X26.8678 Y14.2301
G01 X26.8866 Y14.2389
G01 X26.9034 Y14.2490
G01 X26.9193 Y14.2607
G01 X26.9338 Y14.2739
G01 X27.0074 Y14.3476
G01 X27.0185 Y14.3600
G01 X27.0266 Y14.3706
G01 X27.0318 Y14.3782
G01 X27.0403 Y14.3926
G01 X27.0461 Y14.4046
G01 X27.0498 Y14.4131
G01 X27.0553 Y14.4288
G01 X27.0594 Y14.4447
G01 X27.0611 Y14.4538
G01 X27.0629 Y14.4672
G01 X27.0638 Y14.4837
G01 X27.0637 Y14.4929
G01 X27.0629 Y14.5065
G01 X27.0600 Y14.5257
G01 X27.0553 Y14.5449
G01 X27.0491 Y14.5622
G01 X27.0403 Y14.5810
G01 X27.0302 Y14.5978
G01 X27.0185 Y14.6137
G01 X27.0053 Y14.6282
G01 X26.9316 Y14.7018
G01 X26.9168 Y14.7149
G01 X26.9009 Y14.7263
G01 X26.8867 Y14.7347
G01 X26.8746 Y14.7406
G01 X26.8655 Y14.7444
G01 X26.8505 Y14.7496
G01 X26.8344 Y14.7538
G01 X26.8254 Y14.7555
G01 X26.8121 Y14.7573
G01 X26.7955 Y14.7582
G01 X26.7863 Y14.7581
G01 X26.7728 Y14.7573
G01 X26.7532 Y14.7544
G01 X26.7343 Y14.7497
G01 X26.7172 Y14.7436
G01 X26.6983 Y14.7348
G01 X26.6812 Y14.7245
G01 X26.6655 Y14.7129
G01 X26.6532 Y14.7018
G01 X26.5774 Y14.6261
G01 X26.5643 Y14.6112
G01 X26.5529 Y14.5953
G01 X26.5445 Y14.5811
G01 X26.5386 Y14.5690
G01 X26.5350 Y14.5605
G01 X26.5295 Y14.5449
G01 X26.5261 Y14.5318
G01 X26.5242 Y14.5228
G01 X26.5219 Y14.5065
G01 X26.5211 Y14.4929
G00 Z1.2500
G00 X27.2359 Y14.5748
G01 F60.00
G01 Z-0.0030
G01 F120.00
G01 X27.2352 Y14.5582
G01 X27.2359 Y14.5417
G01 X27.2369 Y14.5325
G01 X27.2397 Y14.5162
G01 X27.2439 Y14.4999
G01 X27.2491 Y14.4851
G01 X27.2529 Y14.4761
G01 X27.2603 Y14.4612
G01 X27.2676 Y14.4491
G01 X27.2725 Y14.4421
G01 X27.2806 Y14.4313
G01 X27.2896 Y14.4212
G01 X27.3698 Y14.3409
G01 X27.3777 Y14.3339
G01 X27.3869 Y14.3267
G01 X27.3987 Y14.3184
G01 X27.4116 Y14.3108
G01 X27.5628 Y14.2351
G01 X27.5792 Y14.2281
G01 X27.5951 Y14.2229
G01 X27.6122 Y14.2189
G01 X27.6279 Y14.2165
G01 X27.6363 Y14.2158
G01 X27.6495 Y14.2153
G01 X28.0098 Y14.2154
G01 X28.0226 Y14.2160
G01 X28.0369 Y14.2176
G01 X28.0492 Y14.2199
G01 X28.0631 Y14.2235
G01 X28.0798 Y14.2292
G01 X28.0961 Y14.2365
G01 X28.2405 Y14.3087
G01 X28.2531 Y14.3157
G01 X28.2614 Y14.3210
G01 X28.2771 Y14.3327
G01 X28.2898 Y14.3442
G01 X28.3650 Y14.4195
G01 X28.3750 Y14.4306
G01 X28.3814 Y14.4388
G01 X28.3907 Y14.4524
G01 X28.3991 Y14.4673
G01 X28.4713 Y14.6116
G01 X28.4763 Y14.6224
G01 X28.4796 Y14.6307
G01 X28.4836 Y14.6421
G01 X28.4884 Y14.6612
G01 X28.4914 Y14.6803
G01 X28.4921 Y14.6904
G01 X28.4924 Y14.7011
G01 X28.4924 Y15.0582
G01 X28.4918 Y15.0741
G01 X28.4897 Y15.0910
G01 X28.4879 Y15.1007
G01 X28.4836 Y15.1172
G01 X28.4786 Y15.1313
G01 X28.4727 Y15.1449
G01 X28.3999 Y15.2905
G01 X28.3957 Y15.2985
G01 X28.3893 Y15.3091
G01 X28.3767 Y15.3267
G01 X28.3636 Y15.3413
G01 X28.2883 Y15.4166
G01 X28.2758 Y15.4277
G01 X28.2636 Y15.4368
G01 X28.2529 Y15.4438
G01 X28.2405 Y15.4507
G01 X28.0961 Y15.5229
G01 X28.0821 Y15.5292
G01 X28.0681 Y15.5343
G01 X28.0555 Y15.5379
G01 X28.0395 Y15.5413
G01 X28.0246 Y15.5432
G01 X28.0098 Y15.5439
G01 X27.6706 Y15.5440
G01 X27.6877 Y15.7153
G01 X28.2210 Y15.7153
G01 X28.2374 Y15.7160
G01 X28.2539 Y15.7181
G01 X28.2660 Y15.7205
G01 X28.2820 Y15.7249
G01 X28.2975 Y15.7306
G01 X28.3129 Y15.7377
G01 X28.3269 Y15.7458
G01 X28.3346 Y15.7508
G01 X28.3479 Y15.7607
G01 X28.3624 Y15.7739
G01 X28.3716 Y15.7838
G01 X28.3776 Y15.7909
G01 X28.3856 Y15.8017
G01 X28.3906 Y15.8094
G01 X28.3976 Y15.8214
G01 X28.4033 Y15.8332
G01 X28.4072 Y15.8423
G01 X28.4114 Y15.8542
G01 X28.4139 Y15.8626
G01 X28.4172 Y15.8763
G01 X28.4201 Y15.8960
G01 X28.4209 Y15.9092
G01 X28.4210 Y15.9184
G01 X28.4203 Y15.9322
G01 X28.4193 Y15.9411
G01 X28.4172 Y15.9544
G01 X28.4140 Y15.9675
G01 X28.4115 Y15.9764
G01 X28.4069 Y15.9891
G01 X28.4033 Y15.9975
G01 X28.3974 Y16.0097
G01 X28.3873 Y16.0265
G01 X28.3794 Y16.0374
G01 X28.3736 Y16.0446
G01 X28.3646 Y16.0546
G01 X28.3580 Y16.0611
G01 X28.3478 Y16.0700
G01 X28.3371 Y16.0782
G01 X28.3269 Y16.0850
G01 X28.3129 Y16.0930
G01 X28.2974 Y16.1003
G01 X28.2821 Y16.1058
G01 X28.2731 Y16.1084
G01 X28.2570 Y16.1121
G01 X28.2401 Y16.1145
G01 X28.2271 Y16.1153
G01 X27.5005 Y16.1153
G01 X27.4873 Y16.1145
G01 X27.4740 Y16.1127
G01 X27.4647 Y16.1109
G01 X27.4518 Y16.1077
G01 X27.4428 Y16.1049
G01 X27.4303 Y16.1003
G01 X27.4126 Y16.0919
G01 X27.3956 Y16.0817
G01 X27.3849 Y16.0740
G01 X27.3775 Y16.0681
G01 X27.3676 Y16.0591
G01 X27.3610 Y16.0524
G01 X27.3521 Y16.0423
G01 X27.3441 Y16.0318
G01 X27.3389 Y16.0243
G01 X27.3304 Y16.0099
G01 X27.3245 Y15.9978
G01 X27.3205 Y15.9884
G01 X27.3153 Y15.9736
G01 X27.3119 Y15.9607
G01 X27.3100 Y15.9518
G01 X27.3080 Y15.9383
G01 X27.2362 Y15.2208
G01 X27.2353 Y15.2044
G01 X27.2357 Y15.1879
G01 X27.2369 Y15.1754
G01 X27.2397 Y15.1591
G01 X27.2438 Y15.1432
G01 X27.2492 Y15.1276
G01 X27.2559 Y15.1125
G01 X27.2615 Y15.1020
G01 X27.2689 Y15.0900
G01 X27.2785 Y15.0768
G01 X27.2846 Y15.0695
G01 X27.2960 Y15.0575
G01 X27.3082 Y15.0466
G01 X27.3189 Y15.0385
G01 X27.3267 Y15.0331
G01 X27.3408 Y15.0248
G01 X27.3555 Y15.0177
G01 X27.3644 Y15.0141
G01 X27.3771 Y15.0097
G01 X27.3930 Y15.0056
G01 X27.4093 Y15.0028
G01 X27.4187 Y15.0018
G01 X27.4350 Y15.0010
G01 X27.4484 Y15.0015
G01 X27.4579 Y15.0023
G01 X27.4710 Y15.0043
G01 X27.4803 Y15.0062
G01 X27.4931 Y15.0096
G01 X27.5117 Y15.0162
G01 X27.5238 Y15.0218
G01 X27.5320 Y15.0260
G01 X27.5489 Y15.0365
G01 X27.5645 Y15.0484
G01 X27.5766 Y15.0595
G01 X27.6252 Y15.1081
G01 X27.6968 Y15.1439
G01 X27.9595 Y15.1439
G01 X28.0310 Y15.1081
G01 X28.0566 Y15.0826
G01 X28.0924 Y15.0110
G01 X28.0924 Y14.7483
G01 X28.0566 Y14.6767
G01 X28.0310 Y14.6512
G01 X27.9595 Y14.6154
G01 X27.6968 Y14.6154
G01 X27.6252 Y14.6512
G01 X27.5767 Y14.6997
G01 X27.5621 Y14.7129
G01 X27.5514 Y14.7210
G01 X27.5438 Y14.7262
G01 X27.5296 Y14.7346
G01 X27.5174 Y14.7406
G01 X27.5061 Y14.7452
G01 X27.4900 Y14.7506
G01 X27.4743 Y14.7544
G01 X27.4579 Y14.7570
G01 X27.4414 Y14.7581
G01 X27.4291 Y14.7581
G01 X27.4126 Y14.7570
G01 X27.3962 Y14.7544
G01 X27.3782 Y14.7499
G01 X27.3644 Y14.7452
G01 X27.3531 Y14.7406
G01 X27.3383 Y14.7332
G01 X27.3241 Y14.7246
G01 X27.3084 Y14.7129
G01 X27.2961 Y14.7019
G01 X27.2846 Y14.6898
G01 X27.2780 Y14.6818
G01 X27.2673 Y14.6668
G01 X27.2588 Y14.6525
G01 X27.2506 Y14.6351
G01 X27.2447 Y14.6191
G01 X27.2404 Y14.6032
G01 X27.2382 Y14.5922
G01 X27.2359 Y14.5748
G00 Z1.2500
G00 X28.7364 Y15.4373
G01 F60.00
G01 Z-0.0030
G01 F120.00
G01 X28.7352 Y15.4154
G01 X28.7352 Y14.4154
G01 X28.7359 Y14.3989
G01 X28.7369 Y14.3901
G01 X28.7391 Y14.3763
G01 X28.7438 Y14.3573
G01 X28.7504 Y14.3388
G01 X28.7561 Y14.3266
G01 X28.7603 Y14.3184
G01 X28.7673 Y14.3068
G01 X28.7725 Y14.2992
G01 X28.7806 Y14.2885
G01 X28.7896 Y14.2784
G01 X28.7960 Y14.2718
G01 X28.8060 Y14.2627
G01 X28.8217 Y14.2507
G01 X28.8293 Y14.2458
G01 X28.8410 Y14.2390
G01 X28.8600 Y14.2300
G01 X28.8796 Y14.2232
G01 X28.8935 Y14.2197
G01 X28.9023 Y14.2181
G01 X28.9156 Y14.2163
G01 X28.9291 Y14.2155
G01 X28.9383 Y14.2154
G01 X28.9517 Y14.2160
G01 X28.9605 Y14.2170
G01 X28.9743 Y14.2192
G01 X28.9933 Y14.2239
G01 X29.0118 Y14.2306
G01 X29.0241 Y14.2362
G01 X29.0324 Y14.2405
G01 X29.0438 Y14.2474
G01 X29.0514 Y14.2526
G01 X29.0622 Y14.2607
G01 X29.0723 Y14.2697
G01 X29.0788 Y14.2761
G01 X29.0879 Y14.2861
G01 X29.0937 Y14.2933
G01 X29.1016 Y14.3042
G01 X29.1119 Y14.3214
G01 X29.1176 Y14.3332
G01 X29.1215 Y14.3423
G01 X29.1266 Y14.3570
G01 X29.1314 Y14.3763
G01 X29.1343 Y14.3960
G01 X29.1353 Y14.4123
G01 X29.1353 Y15.1846
G01 X29.1968 Y15.2153
G01 X29.3166 Y15.2153
G01 X29.3576 Y15.1948
G01 X29.3781 Y15.1539
G01 X29.3781 Y14.4154
G01 X29.3788 Y14.3989
G01 X29.3797 Y14.3901
G01 X29.3819 Y14.3763
G01 X29.3867 Y14.3573
G01 X29.3933 Y14.3388
G01 X29.4017 Y14.3211
G01 X29.4118 Y14.3042
G01 X29.4235 Y14.2885
G01 X29.4367 Y14.2739
G01 X29.4466 Y14.2647
G01 X29.4537 Y14.2588
G01 X29.4644 Y14.2508
G01 X29.4722 Y14.2458
G01 X29.4841 Y14.2388
G01 X29.4960 Y14.2330
G01 X29.5045 Y14.2294
G01 X29.5171 Y14.2249
G01 X29.5260 Y14.2223
G01 X29.5391 Y14.2192
G01 X29.5590 Y14.2162
G01 X29.5720 Y14.2155
G01 X29.5812 Y14.2154
G01 X29.5950 Y14.2161
G01 X29.6038 Y14.2170
G01 X29.6171 Y14.2192
G01 X29.6303 Y14.2223
G01 X29.6391 Y14.2249
G01 X29.6518 Y14.2294
G01 X29.6603 Y14.2330
G01 X29.6726 Y14.2391
G01 X29.6841 Y14.2458
G01 X29.6918 Y14.2508
G01 X29.7026 Y14.2588
G01 X29.7097 Y14.2647
G01 X29.7196 Y14.2739
G01 X29.7287 Y14.2838
G01 X29.7347 Y14.2909
G01 X29.7427 Y14.3017
G01 X29.7477 Y14.3094
G01 X29.7547 Y14.3214
G01 X29.7635 Y14.3402
G01 X29.7694 Y14.3570
G01 X29.7743 Y14.3763
G01 X29.7772 Y14.3960
G01 X29.7781 Y14.4123
G01 X29.7781 Y15.1539
G01 X29.7986 Y15.1948
G01 X29.8396 Y15.2153
G01 X29.9595 Y15.2153
G01 X30.0004 Y15.1948
G01 X30.0209 Y15.1539
G01 X30.0210 Y14.4123
G01 X30.0219 Y14.3960
G01 X30.0237 Y14.3824
G01 X30.0254 Y14.3733
G01 X30.0287 Y14.3603
G01 X30.0315 Y14.3515
G01 X30.0371 Y14.3367
G01 X30.0431 Y14.3238
G01 X30.0476 Y14.3157
G01 X30.0546 Y14.3042
G01 X30.0644 Y14.2909
G01 X30.0703 Y14.2838
G01 X30.0795 Y14.2739
G01 X30.0894 Y14.2647
G01 X30.0965 Y14.2588
G01 X30.1098 Y14.2490
G01 X30.1213 Y14.2420
G01 X30.1290 Y14.2377
G01 X30.1441 Y14.2307
G01 X30.1571 Y14.2259
G01 X30.1654 Y14.2232
G01 X30.1789 Y14.2198
G01 X30.1880 Y14.2181
G01 X30.2007 Y14.2164
G01 X30.2148 Y14.2155
G01 X30.2240 Y14.2154
G01 X30.2404 Y14.2163
G01 X30.2539 Y14.2181
G01 X30.2630 Y14.2198
G01 X30.2790 Y14.2239
G01 X30.2918 Y14.2284
G01 X30.3003 Y14.2318
G01 X30.3129 Y14.2377
G01 X30.3321 Y14.2490
G01 X30.3430 Y14.2570
G01 X30.3502 Y14.2627
G01 X30.3624 Y14.2739
G01 X30.3716 Y14.2838
G01 X30.3776 Y14.2909
G01 X30.3856 Y14.3017
G01 X30.3944 Y14.3157
G01 X30.3991 Y14.3244
G01 X30.4063 Y14.3402
G01 X30.4114 Y14.3542
G01 X30.4140 Y14.3632
G01 X30.4177 Y14.3794
G01 X30.4201 Y14.3960
G01 X30.4209 Y14.4092
G01 X30.4210 Y15.2011
G01 X30.4207 Y15.2117
G01 X30.4199 Y15.2218
G01 X30.4175 Y15.2384
G01 X30.4141 Y15.2530
G01 X30.4113 Y15.2625
G01 X30.4054 Y15.2785
G01 X30.3999 Y15.2905
G01 X30.3251 Y15.4398
G01 X30.3188 Y15.4505
G01 X30.3128 Y15.4596
G01 X30.3056 Y15.4691
G01 X30.2986 Y15.4773
G01 X30.2893 Y15.4871
G01 X30.2829 Y15.4930
G01 X30.2724 Y15.5018
G01 X30.2647 Y15.5075
G01 X30.2513 Y15.5162
G01 X30.2390 Y15.5229
G01 X30.0961 Y15.5943
G01 X30.0854 Y15.5993
G01 X30.0679 Y15.6058
G01 X30.0561 Y15.6092
G01 X30.0395 Y15.6127
G01 X30.0226 Y15.6148
G01 X30.0067 Y15.6154
G01 X29.7924 Y15.6154
G01 X29.7745 Y15.6146
G01 X29.7550 Y15.6119
G01 X29.7430 Y15.6092
G01 X29.7335 Y15.6065
G01 X29.7218 Y15.6025
G01 X29.7137 Y15.5993
G01 X29.7029 Y15.5943
G01 X29.5781 Y15.5319
G01 X29.4533 Y15.5943
G01 X29.4425 Y15.5993
G01 X29.4320 Y15.6034
G01 X29.4158 Y15.6085
G01 X29.4012 Y15.6119
G01 X29.3869 Y15.6141
G01 X29.3771 Y15.6150
G01 X29.3638 Y15.6154
G01 X29.1495 Y15.6154
G01 X29.1337 Y15.6148
G01 X29.1122 Y15.6119
G01 X29.1001 Y15.6092
G01 X29.0906 Y15.6065
G01 X29.0789 Y15.6025
G01 X29.0708 Y15.5993
G01 X29.0411 Y15.5850
G01 X29.0293 Y15.5919
G01 X29.0140 Y15.5993
G01 X28.9991 Y15.6049
G01 X28.9909 Y15.6075
G01 X28.9737 Y15.6117
G01 X28.9579 Y15.6141
G01 X28.9414 Y15.6153
G01 X28.9291 Y15.6153
G01 X28.9129 Y15.6141
G01 X28.8962 Y15.6116
G01 X28.8772 Y15.6068
G01 X28.8600 Y15.6007
G01 X28.8433 Y15.5930
G01 X28.8267 Y15.5834
G01 X28.8107 Y15.5719
G01 X28.7982 Y15.5611
G01 X28.7917 Y15.5546
G01 X28.7846 Y15.5469
G01 X28.7768 Y15.5374
G01 X28.7676 Y15.5245
G01 X28.7576 Y15.5072
G01 X28.7499 Y15.4906
G01 X28.7439 Y15.4738
G01 X28.7391 Y15.4544
G01 X28.7364 Y15.4373
G00 Z1.2500
G00 X27.4773 Y16.7267
G01 F60.00
G01 Z-0.0030
G01 F120.00
G01 X27.4761 Y16.7197
G01 X27.4675 Y16.7372
G01 X27.4572 Y16.7538
G01 X27.4452 Y16.7694
G01 X27.4362 Y16.7794
G01 X27.4296 Y16.7859
G01 X27.4170 Y16.7968
G01 X27.4012 Y16.8082
G01 X27.3866 Y16.8167
G01 X27.3690 Y16.8251
G01 X27.3536 Y16.8307
G01 X27.3376 Y16.8350
G01 X27.3286 Y16.8369
G01 X27.3117 Y16.8393
G01 X27.2926 Y16.8402
G01 X27.2069 Y16.8402
G01 X27.2069 Y17.6434
G01 X27.2062 Y17.6568
G01 X27.2052 Y17.6661
G01 X27.2030 Y17.6793
G01 X27.1999 Y17.6923
G01 X27.1973 Y17.7013
G01 X27.1931 Y17.7132
G01 X27.1847 Y17.7318
G01 X27.1749 Y17.7488
G01 X27.1634 Y17.7647
G01 X27.1504 Y17.7795
G01 X27.1361 Y17.7929
G01 X27.1205 Y17.8048
G01 X27.1038 Y17.8151
G01 X27.0862 Y17.8238
G01 X27.0678 Y17.8307
G01 X27.0588 Y17.8333
G01 X27.0458 Y17.8364
G01 X27.0264 Y17.8393
G01 X27.0068 Y17.8402
G01 X26.9903 Y17.8395
G01 X26.9708 Y17.8369
G01 X26.9517 Y17.8325
G01 X26.9317 Y17.8255
G01 X26.9150 Y17.8178
G01 X26.8983 Y17.8082
G01 X26.8823 Y17.7967
G01 X26.8676 Y17.7837
G01 X26.8542 Y17.7694
G01 X26.8483 Y17.7621
G01 X26.8405 Y17.7513
G01 X26.7562 Y17.6248
G01 X26.6979 Y17.5665
G01 X26.6317 Y17.5334
G01 X26.6146 Y17.5238
G01 X26.6035 Y17.5161
G01 X26.5960 Y17.5105
G01 X26.5836 Y17.4997
G01 X26.5742 Y17.4901
G01 X26.5671 Y17.4821
G01 X26.5597 Y17.4726
G01 X26.5545 Y17.4650
G01 X26.5474 Y17.4535
G01 X26.5377 Y17.4342
G01 X26.5324 Y17.4207
G01 X26.5297 Y17.4122
G01 X26.5262 Y17.3990
G01 X26.5231 Y17.3825
G01 X26.5215 Y17.3660
G01 X26.5212 Y17.3568
G01 X26.5216 Y17.3403
G01 X26.5235 Y17.3238
G01 X26.5252 Y17.3148
G01 X26.5291 Y17.2987
G01 X26.5343 Y17.2830
G01 X26.5396 Y17.2706
G01 X26.5436 Y17.2623
G01 X26.5519 Y17.2479
G01 X26.5615 Y17.2340
G01 X26.5718 Y17.2215
G01 X26.5781 Y17.2147
G01 X26.5906 Y17.2029
G01 X26.6031 Y17.1930
G01 X26.6106 Y17.1878
G01 X26.6221 Y17.1807
G01 X26.6387 Y17.1722
G01 X26.6549 Y17.1657
G01 X26.6635 Y17.1630
G01 X26.6798 Y17.1588
G01 X26.6961 Y17.1560
G01 X26.7126 Y17.1546
G01 X26.7292 Y17.1546
G01 X26.7384 Y17.1552
G01 X26.7548 Y17.1573
G01 X26.7710 Y17.1608
G01 X26.7799 Y17.1633
G01 X26.7927 Y17.1676
G01 X26.8068 Y17.1737
G01 X26.8068 Y16.8402
G01 X26.7212 Y16.8402
G01 X26.7077 Y16.8397
G01 X26.6988 Y16.8390
G01 X26.6852 Y16.8369
G01 X26.6660 Y16.8325
G01 X26.6573 Y16.8297
G01 X26.6424 Y16.8241
G01 X26.6266 Y16.8165
G01 X26.6126 Y16.8082
G01 X26.6050 Y16.8030
G01 X26.5919 Y16.7928
G01 X26.5797 Y16.7816
G01 X26.5705 Y16.7717
G01 X26.5628 Y16.7622
G01 X26.5533 Y16.7490
G01 X26.5448 Y16.7347
G01 X26.5376 Y16.7197
G01 X26.5341 Y16.7110
G01 X26.5290 Y16.6958
G01 X26.5250 Y16.6792
G01 X26.5225 Y16.6638
G01 X26.5216 Y16.6537
G01 X26.5212 Y16.6371
G01 X26.5221 Y16.6199
G01 X26.5244 Y16.6042
G01 X26.5263 Y16.5952
G01 X26.5307 Y16.5792
G01 X26.5358 Y16.5650
G01 X26.5433 Y16.5486
G01 X26.5478 Y16.5405
G01 X26.5548 Y16.5290
G01 X26.5628 Y16.5181
G01 X26.5685 Y16.5109
G01 X26.5797 Y16.4987
G01 X26.5896 Y16.4896
G01 X26.5967 Y16.4836
G01 X26.6075 Y16.4756
G01 X26.6152 Y16.4706
G01 X26.6266 Y16.4639
G01 X26.6390 Y16.4579
G01 X26.6473 Y16.4543
G01 X26.6600 Y16.4497
G01 X26.6683 Y16.4473
G01 X26.6821 Y16.4440
G01 X26.6959 Y16.4418
G01 X26.7047 Y16.4408
G01 X26.7212 Y16.4401
G01 X27.2926 Y16.4401
G01 X27.3090 Y16.4408
G01 X27.3256 Y16.4429
G01 X27.3376 Y16.4453
G01 X27.3536 Y16.4497
G01 X27.3713 Y16.4563
G01 X27.3871 Y16.4639
G01 X27.4037 Y16.4739
G01 X27.4171 Y16.4836
G01 X27.4296 Y16.4945
G01 X27.4383 Y16.5032
G01 X27.4492 Y16.5157
G01 X27.4588 Y16.5289
G01 X27.4690 Y16.5459
G01 X27.4765 Y16.5615
G01 X27.4830 Y16.5790
G01 X27.4874 Y16.5952
G01 X27.4900 Y16.6083
G01 X27.4971 Y16.5935
G01 X27.5056 Y16.5792
G01 X27.5152 Y16.5657
G01 X27.5229 Y16.5563
G01 X27.5321 Y16.5464
G01 X27.5819 Y16.4966
G01 X27.5943 Y16.4855
G01 X27.6100 Y16.4739
G01 X27.6266 Y16.4639
G01 X27.6416 Y16.4566
G01 X27.6573 Y16.4507
G01 X27.6683 Y16.4473
G01 X27.6852 Y16.4434
G01 X27.7018 Y16.4411
G01 X27.7212 Y16.4401
G01 X27.7376 Y16.4408
G01 X27.7572 Y16.4434
G01 X27.7733 Y16.4471
G01 X27.7822 Y16.4497
G01 X27.7920 Y16.4532
G01 X27.8033 Y16.4579
G01 X27.8183 Y16.4653
G01 X27.8348 Y16.4756
G01 X27.8481 Y16.4856
G01 X27.8622 Y16.4983
G01 X27.9145 Y16.5508
G01 X27.9253 Y16.5633
G01 X27.9366 Y16.5789
G01 X27.9466 Y16.5962
G01 X27.9524 Y16.6084
G01 X27.9558 Y16.6170
G01 X27.9602 Y16.6297
G01 X27.9636 Y16.6428
G01 X27.9655 Y16.6518
G01 X27.9675 Y16.6651
G01 X27.9683 Y16.6743
G01 X27.9688 Y16.6878
G01 X27.9678 Y16.7075
G01 X27.9650 Y16.7267
G01 X27.9602 Y16.7459
G01 X27.9536 Y16.7644
G01 X27.9452 Y16.7821
G01 X27.9351 Y16.7989
G01 X27.9234 Y16.8147
G01 X27.9102 Y16.8292
G01 X27.8604 Y16.8790
G01 X27.8481 Y16.8900
G01 X27.8323 Y16.9018
G01 X27.8208 Y16.9088
G01 X27.8128 Y16.9132
G01 X27.8005 Y16.9190
G01 X27.7920 Y16.9224
G01 X27.7793 Y16.9268
G01 X27.7662 Y16.9303
G01 X27.7571 Y16.9322
G01 X27.7438 Y16.9342
G01 X27.7242 Y16.9354
G01 X27.7046 Y16.9348
G01 X27.6852 Y16.9322
G01 X27.6660 Y16.9277
G01 X27.6474 Y16.9214
G01 X27.6296 Y16.9132
G01 X27.6126 Y16.9034
G01 X27.5966 Y16.8920
G01 X27.5819 Y16.8790
G01 X27.5299 Y16.8271
G01 X27.5190 Y16.8148
G01 X27.5089 Y16.8015
G01 X27.5039 Y16.7937
G01 X27.4971 Y16.7821
G01 X27.4888 Y16.7644
G01 X27.4821 Y16.7459
G01 X27.4773 Y16.7267
G00 Z1.2500
G00 X27.9501 Y17.2720
G01 F60.00
G01 Z-0.0030
G01 F120.00
G01 X27.9497 Y17.2592
G01 X27.9497 Y17.0211
G01 X27.9499 Y17.0114
G01 X27.9507 Y17.0009
G01 X27.9530 Y16.9851
G01 X27.9557 Y16.9726
G01 X28.0051 Y16.7755
G01 X28.0100 Y16.7605
G01 X28.0178 Y16.7424
G01 X28.0668 Y16.6444
G01 X28.0738 Y16.6319
G01 X28.0792 Y16.6235
G01 X28.0893 Y16.6098
G01 X28.1009 Y16.5966
G01 X28.1538 Y16.5437
G01 X28.1686 Y16.5308
G01 X28.1846 Y16.5194
G01 X28.1952 Y16.5131
G01 X28.2031 Y16.5089
G01 X28.3011 Y16.4599
G01 X28.3174 Y16.4529
G01 X28.3362 Y16.4469
G01 X28.3479 Y16.4442
G01 X28.3576 Y16.4425
G01 X28.3719 Y16.4408
G01 X28.3848 Y16.4402
G01 X28.4831 Y16.4401
G01 X28.4963 Y16.4406
G01 X28.5067 Y16.4416
G01 X28.5204 Y16.4437
G01 X28.5350 Y16.4470
G01 X28.5512 Y16.4521
G01 X28.5618 Y16.4563
G01 X28.5725 Y16.4613
G01 X28.6678 Y16.5089
G01 X28.6841 Y16.5180
G01 X28.6988 Y16.5281
G01 X28.7059 Y16.5338
G01 X28.7152 Y16.5419
G01 X28.7686 Y16.5952
G01 X28.7829 Y16.6114
G01 X28.7943 Y16.6274
G01 X28.8031 Y16.6426
G01 X28.8531 Y16.7424
G01 X28.8614 Y16.7620
G01 X28.8676 Y16.7821
G01 X28.9174 Y16.9821
G01 X28.9202 Y17.0009
G01 X28.9210 Y17.0114
G01 X28.9212 Y17.0211
G01 X28.9212 Y17.2592
G01 X28.9208 Y17.2720
G01 X28.9190 Y17.2885
G01 X28.9159 Y17.3048
G01 X28.8676 Y17.4982
G01 X28.8627 Y17.5148
G01 X28.8555 Y17.5329
G01 X28.8041 Y17.6359
G01 X28.7970 Y17.6485
G01 X28.7902 Y17.6590
G01 X28.7800 Y17.6725
G01 X28.7700 Y17.6837
G01 X28.7171 Y17.7366
G01 X28.7023 Y17.7495
G01 X28.6880 Y17.7598
G01 X28.6734 Y17.7685
G01 X28.5725 Y17.8191
G01 X28.5618 Y17.8241
G01 X28.5537 Y17.8273
G01 X28.5420 Y17.8313
G01 X28.5230 Y17.8362
G01 X28.5038 Y17.8391
G01 X28.4861 Y17.8402
G01 X28.3878 Y17.8402
G01 X28.3772 Y17.8399
G01 X28.3671 Y17.8391
G01 X28.3551 Y17.8375
G01 X28.3359 Y17.8334
G01 X28.3172 Y17.8273
G01 X28.3011 Y17.8204
G01 X28.2016 Y17.7707
G01 X28.1846 Y17.7609
G01 X28.1686 Y17.7495
G01 X28.1538 Y17.7366
G01 X28.1009 Y17.6837
G01 X28.0923 Y17.6742
G01 X28.0853 Y17.6654
G01 X28.0766 Y17.6529
G01 X28.0678 Y17.6377
G01 X28.0171 Y17.5364
G01 X28.0095 Y17.5183
G01 X28.0033 Y17.4982
G01 X27.9550 Y17.3048
G01 X27.9518 Y17.2885
G01 X27.9501 Y17.2720
G00 Z1.2500
G00 X28.9507 Y17.3271
G01 F60.00
G01 Z-0.0030
G01 F120.00
G01 X28.9497 Y17.3068
G01 X28.9497 Y16.6402
G01 X28.9507 Y16.6199
G01 X28.9535 Y16.6012
G01 X28.9567 Y16.5880
G01 X28.9592 Y16.5792
G01 X28.9638 Y16.5665
G01 X28.9674 Y16.5580
G01 X28.9733 Y16.5459
G01 X28.9801 Y16.5342
G01 X28.9851 Y16.5265
G01 X28.9932 Y16.5157
G01 X28.9991 Y16.5086
G01 X29.0083 Y16.4987
G01 X29.0229 Y16.4855
G01 X29.0336 Y16.4774
G01 X29.0412 Y16.4722
G01 X29.0578 Y16.4625
G01 X29.0759 Y16.4543
G01 X29.0941 Y16.4480
G01 X29.1077 Y16.4446
G01 X29.1168 Y16.4429
G01 X29.1306 Y16.4411
G01 X29.1436 Y16.4403
G01 X29.1528 Y16.4402
G01 X29.1632 Y16.4407
G01 X29.1733 Y16.4416
G01 X29.1857 Y16.4434
G01 X29.2049 Y16.4479
G01 X29.2249 Y16.4548
G01 X29.2443 Y16.4639
G01 X29.2609 Y16.4739
G01 X29.2766 Y16.4856
G01 X29.2912 Y16.4987
G01 X29.3004 Y16.5086
G01 X29.3063 Y16.5157
G01 X29.3176 Y16.5314
G01 X29.3247 Y16.5432
G01 X29.3289 Y16.5514
G01 X29.3336 Y16.5615
G01 X29.3367 Y16.5694
G01 X29.3411 Y16.5818
G01 X29.3446 Y16.5952
G01 X29.3465 Y16.6042
G01 X29.3483 Y16.6166
G01 X29.3496 Y16.6340
G01 X29.3498 Y17.1068
G01 X29.3783 Y17.1068
G01 X29.3783 Y16.6402
G01 X29.3793 Y16.6199
G01 X29.3815 Y16.6042
G01 X29.3860 Y16.5851
G01 X29.3924 Y16.5665
G01 X29.4005 Y16.5486
G01 X29.4103 Y16.5316
G01 X29.4218 Y16.5157
G01 X29.4347 Y16.5009
G01 X29.4491 Y16.4875
G01 X29.4646 Y16.4756
G01 X29.4724 Y16.4706
G01 X29.4843 Y16.4636
G01 X29.5019 Y16.4553
G01 X29.5202 Y16.4488
G01 X29.5393 Y16.4440
G01 X29.5592 Y16.4411
G01 X29.5722 Y16.4403
G01 X29.5814 Y16.4402
G01 X29.6019 Y16.4416
G01 X29.6143 Y16.4434
G01 X29.6233 Y16.4453
G01 X29.6364 Y16.4488
G01 X29.6491 Y16.4532
G01 X29.6570 Y16.4563
G01 X29.6671 Y16.4610
G01 X29.6754 Y16.4653
G01 X29.6869 Y16.4722
G01 X29.7028 Y16.4836
G01 X29.7099 Y16.4896
G01 X29.7197 Y16.4987
G01 X29.7330 Y16.5133
G01 X29.7445 Y16.5289
G01 X29.7517 Y16.5405
G01 X29.7561 Y16.5486
G01 X29.7645 Y16.5672
G01 X29.7687 Y16.5790
G01 X29.7712 Y16.5874
G01 X29.7739 Y16.5982
G01 X29.7755 Y16.6072
G01 X29.7773 Y16.6199
G01 X29.7782 Y16.6340
G01 X29.7783 Y17.1068
G01 X29.8068 Y17.1068
G01 X29.8068 Y16.6402
G01 X29.8075 Y16.6237
G01 X29.8085 Y16.6149
G01 X29.8107 Y16.6012
G01 X29.8146 Y16.5851
G01 X29.8174 Y16.5763
G01 X29.8221 Y16.5636
G01 X29.8290 Y16.5486
G01 X29.8373 Y16.5342
G01 X29.8423 Y16.5265
G01 X29.8522 Y16.5133
G01 X29.8612 Y16.5032
G01 X29.8676 Y16.4966
G01 X29.8776 Y16.4875
G01 X29.8848 Y16.4818
G01 X29.8957 Y16.4739
G01 X29.9072 Y16.4668
G01 X29.9154 Y16.4623
G01 X29.9282 Y16.4563
G01 X29.9430 Y16.4507
G01 X29.9518 Y16.4479
G01 X29.9651 Y16.4446
G01 X29.9739 Y16.4429
G01 X29.9873 Y16.4411
G01 X30.0007 Y16.4403
G01 X30.0099 Y16.4402
G01 X30.0271 Y16.4412
G01 X30.0399 Y16.4429
G01 X30.0489 Y16.4446
G01 X30.0620 Y16.4479
G01 X30.0821 Y16.4548
G01 X30.0957 Y16.4610
G01 X30.1040 Y16.4653
G01 X30.1180 Y16.4739
G01 X30.1289 Y16.4818
G01 X30.1361 Y16.4875
G01 X30.1461 Y16.4966
G01 X30.1526 Y16.5032
G01 X30.1615 Y16.5133
G01 X30.1697 Y16.5240
G01 X30.1747 Y16.5314
G01 X30.1833 Y16.5459
G01 X30.1892 Y16.5580
G01 X30.1931 Y16.5672
G01 X30.1982 Y16.5818
G01 X30.2017 Y16.5952
G01 X30.2036 Y16.6042
G01 X30.2060 Y16.6208
G01 X30.2068 Y16.6340
G01 X30.2069 Y17.1640
G01 X30.2065 Y17.1773
G01 X30.2057 Y17.1856
G01 X30.2034 Y17.2013
G01 X30.2000 Y17.2159
G01 X30.1949 Y17.2322
G01 X30.1908 Y17.2427
G01 X30.1858 Y17.2535
G01 X30.1382 Y17.3487
G01 X30.1332 Y17.3580
G01 X30.1269 Y17.3684
G01 X30.1207 Y17.3773
G01 X30.1124 Y17.3880
G01 X30.1045 Y17.3968
G01 X30.0968 Y17.4045
G01 X30.0886 Y17.4118
G01 X30.0774 Y17.4207
G01 X30.0662 Y17.4283
G01 X30.0487 Y17.4381
G01 X29.9535 Y17.4858
G01 X29.9390 Y17.4923
G01 X29.9230 Y17.4980
G01 X29.9065 Y17.5023
G01 X29.8942 Y17.5046
G01 X29.8799 Y17.5063
G01 X29.8640 Y17.5069
G01 X29.7212 Y17.5069
G01 X29.7053 Y17.5062
G01 X29.6884 Y17.5042
G01 X29.6787 Y17.5023
G01 X29.6667 Y17.4993
G01 X29.6530 Y17.4949
G01 X29.6459 Y17.4922
G01 X29.6317 Y17.4858
G01 X29.5783 Y17.4591
G01 X29.5221 Y17.4871
G01 X29.5061 Y17.4940
G01 X29.4944 Y17.4980
G01 X29.4842 Y17.5008
G01 X29.4708 Y17.5037
G01 X29.4560 Y17.5058
G01 X29.4354 Y17.5069
G01 X29.2926 Y17.5069
G01 X29.2819 Y17.5066
G01 X29.2690 Y17.5055
G01 X29.2527 Y17.5029
G01 X29.2362 Y17.4988
G01 X29.2211 Y17.4937
G01 X29.2081 Y17.4982
G01 X29.1947 Y17.5017
G01 X29.1857 Y17.5036
G01 X29.1733 Y17.5055
G01 X29.1632 Y17.5064
G01 X29.1497 Y17.5069
G01 X29.1303 Y17.5059
G01 X29.1107 Y17.5030
G01 X29.0946 Y17.4991
G01 X29.0789 Y17.4939
G01 X29.0676 Y17.4892
G01 X29.0526 Y17.4817
G01 X29.0361 Y17.4714
G01 X29.0228 Y17.4615
G01 X29.0083 Y17.4483
G01 X28.9951 Y17.4337
G01 X28.9853 Y17.4207
G01 X28.9763 Y17.4065
G01 X28.9706 Y17.3957
G01 X28.9644 Y17.3821
G01 X28.9576 Y17.3625
G01 X28.9535 Y17.3459
G01 X28.9507 Y17.3271
G00 Z1.2500
G00 X28.4882 Y18.4629
G01 F60.00
G01 Z-0.0030
G01 F120.00
G01 X28.4797 Y18.4618
G01 X28.4797 Y18.5413
G01 X28.4791 Y18.5535
G01 X28.4777 Y18.5656
G01 X28.4741 Y18.5837
G01 X28.4500 Y18.6803
G01 X28.4445 Y18.6979
G01 X28.4389 Y18.7114
G01 X28.4093 Y18.7707
G01 X28.4038 Y18.7802
G01 X28.3985 Y18.7882
G01 X28.3917 Y18.7974
G01 X28.3831 Y18.8074
G01 X28.3509 Y18.8399
G01 X28.3371 Y18.8520
G01 X28.3235 Y18.8617
G01 X28.3100 Y18.8698
G01 X28.2570 Y18.8964
G01 X28.2391 Y18.9043
G01 X28.2259 Y18.9086
G01 X28.2132 Y18.9119
G01 X28.2012 Y18.9141
G01 X28.1881 Y18.9156
G01 X28.1731 Y18.9162
G01 X28.1255 Y18.9162
G01 X28.1131 Y18.9158
G01 X28.1036 Y18.9149
G01 X28.0906 Y18.9129
G01 X28.0794 Y18.9104
G01 X28.0702 Y18.9079
G01 X28.0569 Y18.9032
G01 X28.0420 Y18.8966
G01 X27.9910 Y18.8711
G01 X27.9810 Y18.8654
G01 X27.9730 Y18.8603
G01 X27.9636 Y18.8536
G01 X27.9562 Y18.8476
G01 X27.9465 Y18.8387
G01 X27.9203 Y18.8125
G01 X27.9070 Y18.7974
G01 X27.8972 Y18.7838
G01 X27.8891 Y18.7703
G01 X27.8613 Y18.7148
G01 X27.8546 Y18.6992
G01 X27.8487 Y18.6803
G01 X27.8231 Y18.5775
G01 X27.8210 Y18.5656
G01 X27.8198 Y18.5566
G01 X27.8189 Y18.5382
G01 X27.8189 Y18.4192
G01 X27.8193 Y18.4073
G01 X27.8205 Y18.3948
G01 X27.8225 Y18.3826
G01 X27.8245 Y18.3737
G01 X27.8487 Y18.2771
G01 X27.8542 Y18.2595
G01 X27.8613 Y18.2426
G01 X27.8864 Y18.1924
G01 X27.8936 Y18.1794
G01 X27.8987 Y18.1714
G01 X27.9070 Y18.1600
G01 X27.9173 Y18.1480
G01 X27.9515 Y18.1139
G01 X27.9657 Y18.1022
G01 X27.9812 Y18.0918
G01 X27.9925 Y18.0855
G01 X28.0417 Y18.0610
G01 X28.0551 Y18.0549
G01 X28.0677 Y18.0503
G01 X28.0769 Y18.0476
G01 X28.0906 Y18.0444
G01 X28.1036 Y18.0425
G01 X28.1157 Y18.0414
G01 X28.1762 Y18.0412
G01 X28.1881 Y18.0418
G01 X28.2012 Y18.0433
G01 X28.2106 Y18.0449
G01 X28.2243 Y18.0483
G01 X28.2415 Y18.0541
G01 X28.2542 Y18.0596
G01 X28.3105 Y18.0878
G01 X28.3221 Y18.0947
G01 X28.3329 Y18.1022
G01 X28.3424 Y18.1098
G01 X28.3517 Y18.1183
G01 X28.3761 Y18.0939
G01 X28.3875 Y18.0837
G01 X28.4023 Y18.0728
G01 X28.4127 Y18.0663
G01 X28.4208 Y18.0619
G01 X28.4382 Y18.0540
G01 X28.4491 Y18.0502
G01 X28.4574 Y18.0477
G01 X28.4669 Y18.0454
G01 X28.4759 Y18.0437
G01 X28.4882 Y18.0421
G01 X28.5003 Y18.0413
G01 X28.5095 Y18.0412
G01 X28.5218 Y18.0418
G01 X28.5400 Y18.0442
G01 X28.5579 Y18.0484
G01 X28.5754 Y18.0543
G01 X28.5838 Y18.0579
G01 X28.5949 Y18.0633
G01 X28.6107 Y18.0728
G01 X28.6254 Y18.0837
G01 X28.6399 Y18.0969
G01 X28.6481 Y18.0917
G01 X28.6577 Y18.0863
G01 X28.7174 Y18.0567
G01 X28.7274 Y18.0527
G01 X28.7369 Y18.0495
G01 X28.7461 Y18.0469
G01 X28.7573 Y18.0444
G01 X28.7729 Y18.0422
G01 X28.7891 Y18.0412
G01 X28.9112 Y18.0412
G01 X28.9305 Y18.0422
G01 X28.9461 Y18.0444
G01 X28.9599 Y18.0476
G01 X28.9761 Y18.0527
G01 X28.9862 Y18.0568
G01 X29.0485 Y18.0878
G01 X29.0638 Y18.0971
G01 X29.0777 Y18.1074
G01 X29.0903 Y18.0939
G01 X29.1042 Y18.0818
G01 X29.1191 Y18.0711
G01 X29.1351 Y18.0619
G01 X29.1519 Y18.0543
G01 X29.1693 Y18.0484
G01 X29.1872 Y18.0442
G01 X29.1993 Y18.0424
G01 X29.2085 Y18.0416
G01 X29.2238 Y18.0412
G01 X29.2391 Y18.0421
G01 X29.2573 Y18.0448
G01 X29.2722 Y18.0484
G01 X29.2897 Y18.0543
G01 X29.3037 Y18.0605
G01 X29.3139 Y18.0660
G01 X29.3279 Y18.0748
G01 X29.3360 Y18.0695
G01 X29.3466 Y18.0633
G01 X29.3603 Y18.0567
G01 X29.3690 Y18.0532
G01 X29.3803 Y18.0493
G01 X29.3958 Y18.0453
G01 X29.4167 Y18.0421
G01 X29.4350 Y18.0412
G01 X29.4504 Y18.0418
G01 X29.4686 Y18.0442
G01 X29.4836 Y18.0476
G01 X29.4953 Y18.0512
G01 X29.5040 Y18.0543
G01 X29.5124 Y18.0579
G01 X29.5257 Y18.0645
G01 X29.5422 Y18.0748
G01 X29.5556 Y18.0663
G01 X29.5664 Y18.0605
G01 X29.5811 Y18.0540
G01 X29.5973 Y18.0485
G01 X29.6127 Y18.0448
G01 X29.6309 Y18.0421
G01 X29.6493 Y18.0412
G01 X29.6647 Y18.0418
G01 X29.6799 Y18.0437
G01 X29.6919 Y18.0461
G01 X29.7067 Y18.0502
G01 X29.7211 Y18.0554
G01 X29.7352 Y18.0620
G01 X29.7483 Y18.0695
G01 X29.7566 Y18.0749
G01 X29.7684 Y18.0838
G01 X29.7807 Y18.0745
G01 X29.7884 Y18.0695
G01 X29.8017 Y18.0619
G01 X29.8153 Y18.0556
G01 X29.8299 Y18.0502
G01 X29.8449 Y18.0461
G01 X29.8547 Y18.0441
G01 X29.8721 Y18.0418
G01 X29.8874 Y18.0412
G01 X29.9058 Y18.0421
G01 X29.9240 Y18.0448
G01 X29.9389 Y18.0484
G01 X29.9563 Y18.0543
G01 X29.9703 Y18.0605
G01 X29.9806 Y18.0660
G01 X29.9946 Y18.0748
G01 X30.0027 Y18.0695
G01 X30.0133 Y18.0633
G01 X30.0243 Y18.0579
G01 X30.0335 Y18.0540
G01 X30.0469 Y18.0493
G01 X30.0591 Y18.0461
G01 X30.0681 Y18.0442
G01 X30.0833 Y18.0421
G01 X30.1017 Y18.0412
G01 X30.1170 Y18.0418
G01 X30.1353 Y18.0442
G01 X30.1502 Y18.0476
G01 X30.1620 Y18.0512
G01 X30.1706 Y18.0543
G01 X30.1791 Y18.0579
G01 X30.1935 Y18.0652
G01 X30.2089 Y18.0748
G01 X30.2223 Y18.0663
G01 X30.2331 Y18.0605
G01 X30.2469 Y18.0544
G01 X30.2640 Y18.0485
G01 X30.2794 Y18.0448
G01 X30.2976 Y18.0421
G01 X30.3160 Y18.0412
G01 X30.3313 Y18.0418
G01 X30.3465 Y18.0437
G01 X30.3586 Y18.0461
G01 X30.3734 Y18.0502
G01 X30.3906 Y18.0566
G01 X30.4041 Y18.0631
G01 X30.4202 Y18.0728
G01 X30.4350 Y18.0837
G01 X30.4464 Y18.0939
G01 X30.4590 Y18.1074
G01 X30.4684 Y18.1195
G01 X30.4752 Y18.1297
G01 X30.4828 Y18.1430
G01 X30.4891 Y18.1566
G01 X30.4954 Y18.1739
G01 X30.4999 Y18.1921
G01 X30.5023 Y18.2073
G01 X30.5031 Y18.2164
G01 X30.5035 Y18.2287
G01 X30.5035 Y18.4937
G01 X30.5028 Y18.5073
G01 X30.5010 Y18.5213
G01 X30.4978 Y18.5367
G01 X30.4944 Y18.5484
G01 X30.4899 Y18.5608
G01 X30.4852 Y18.5715
G01 X30.4553 Y18.6308
G01 X30.4492 Y18.6407
G01 X30.4434 Y18.6491
G01 X30.4358 Y18.6587
G01 X30.4284 Y18.6672
G01 X30.4189 Y18.6765
G01 X30.4096 Y18.6845
G01 X30.3996 Y18.6919
G01 X30.3920 Y18.6970
G01 X30.3761 Y18.7059
G01 X30.3252 Y18.7313
G01 X30.3094 Y18.7380
G01 X30.2999 Y18.7412
G01 X30.2907 Y18.7438
G01 X30.2727 Y18.7474
G01 X30.2543 Y18.7493
G01 X30.1731 Y18.7496
G01 X30.1565 Y18.7488
G01 X30.1425 Y18.7470
G01 X30.1270 Y18.7438
G01 X30.1153 Y18.7404
G01 X30.1017 Y18.7354
G01 X30.0856 Y18.7412
G01 X30.0703 Y18.7452
G01 X30.0584 Y18.7474
G01 X30.0427 Y18.7491
G01 X30.0303 Y18.7496
G01 X29.9558 Y18.7495
G01 X29.9396 Y18.7486
G01 X29.9231 Y18.7461
G01 X29.9089 Y18.7483
G01 X29.8997 Y18.7491
G01 X29.8874 Y18.7496
G01 X29.8721 Y18.7489
G01 X29.8539 Y18.7465
G01 X29.8359 Y18.7423
G01 X29.8170 Y18.7358
G01 X29.8015 Y18.7287
G01 X29.7853 Y18.7193
G01 X29.7709 Y18.7089
G01 X29.7570 Y18.6968
G01 X29.7444 Y18.6832
G01 X29.7329 Y18.6920
G01 X29.7181 Y18.7013
G01 X29.6618 Y18.7298
G01 X29.6526 Y18.7340
G01 X29.6416 Y18.7384
G01 X29.6266 Y18.7431
G01 X29.6128 Y18.7463
G01 X29.5972 Y18.7486
G01 X29.5779 Y18.7496
G01 X29.5065 Y18.7496
G01 X29.4915 Y18.7490
G01 X29.4758 Y18.7470
G01 X29.4604 Y18.7438
G01 X29.4487 Y18.7404
G01 X29.4350 Y18.7354
G01 X29.4189 Y18.7412
G01 X29.4011 Y18.7458
G01 X29.3829 Y18.7486
G01 X29.3667 Y18.7495
G01 X29.2891 Y18.7495
G01 X29.2729 Y18.7486
G01 X29.2565 Y18.7461
G01 X29.2391 Y18.7487
G01 X29.2269 Y18.7494
G01 X29.2177 Y18.7495
G01 X29.2054 Y18.7489
G01 X29.1963 Y18.7479
G01 X29.1842 Y18.7460
G01 X29.1697 Y18.7424
G01 X29.1676 Y18.7592
G01 X29.1652 Y18.7713
G01 X29.1612 Y18.7861
G01 X29.1550 Y18.8026
G01 X29.1481 Y18.8170
G01 X29.1386 Y18.8329
G01 X29.1276 Y18.8477
G01 X29.1174 Y18.8591
G01 X29.1040 Y18.8717
G01 X29.0919 Y18.8811
G01 X29.0817 Y18.8879
G01 X29.0683 Y18.8955
G01 X29.0531 Y18.9025
G01 X29.0374 Y18.9080
G01 X29.0192 Y18.9126
G01 X29.0041 Y18.9150
G01 X28.9949 Y18.9158
G01 X28.9827 Y18.9162
G01 X28.7446 Y18.9162
G01 X28.7326 Y18.9158
G01 X28.7232 Y18.9150
G01 X28.7081 Y18.9126
G01 X28.6933 Y18.9091
G01 X28.6843 Y18.9062
G01 X28.6700 Y18.9008
G01 X28.6563 Y18.8942
G01 X28.6431 Y18.8864
G01 X28.6307 Y18.8776
G01 X28.6233 Y18.8717
G01 X28.6120 Y18.8614
G01 X28.5997 Y18.8478
G01 X28.5905 Y18.8356
G01 X28.5823 Y18.8227
G01 X28.5764 Y18.8116
G01 X28.5699 Y18.7969
G01 X28.5651 Y18.7832
G01 X28.5613 Y18.7685
G01 X28.5596 Y18.7592
G01 X28.5580 Y18.7474
G01 X28.5339 Y18.5060
G01 X28.5333 Y18.4939
G01 X28.5334 Y18.4845
G01 X28.5341 Y18.4724
G01 X28.5356 Y18.4615
G01 X28.5249 Y18.4629
G01 X28.5095 Y18.4638
G01 X28.5003 Y18.4637
G01 X28.4882 Y18.4629
G00 Z1.2500
G00 X30.2843 Y17.3292
G01 F60.00
G01 Z-0.0030
G01 F120.00
G01 X30.2835 Y17.3203
G01 X30.2830 Y17.3068
G01 X30.2830 Y16.6402
G01 X30.2840 Y16.6208
G01 X30.2869 Y16.6012
G01 X30.2900 Y16.5880
G01 X30.2926 Y16.5792
G01 X30.2995 Y16.5608
G01 X30.3052 Y16.5486
G01 X30.3097 Y16.5405
G01 X30.3167 Y16.5290
G01 X30.3247 Y16.5181
G01 X30.3304 Y16.5109
G01 X30.3395 Y16.5009
G01 X30.3461 Y16.4945
G01 X30.3562 Y16.4855
G01 X30.3721 Y16.4737
G01 X30.3890 Y16.4636
G01 X30.4078 Y16.4548
G01 X30.4275 Y16.4480
G01 X30.4479 Y16.4433
G01 X30.4665 Y16.4408
G01 X30.4800 Y16.4402
G01 X30.4892 Y16.4403
G01 X30.5033 Y16.4412
G01 X30.5160 Y16.4429
G01 X30.5251 Y16.4446
G01 X30.5352 Y16.4471
G01 X30.5441 Y16.4497
G01 X30.5561 Y16.4540
G01 X30.5750 Y16.4625
G01 X30.5942 Y16.4739
G01 X30.6100 Y16.4856
G01 X30.6245 Y16.4987
G01 X30.6377 Y16.5133
G01 X30.6493 Y16.5289
G01 X30.6565 Y16.5405
G01 X30.6609 Y16.5486
G01 X30.6693 Y16.5672
G01 X30.6735 Y16.5790
G01 X30.6760 Y16.5874
G01 X30.6786 Y16.5982
G01 X30.6803 Y16.6072
G01 X30.6822 Y16.6208
G01 X30.6830 Y16.6340
G01 X30.6831 Y17.1068
G01 X30.7116 Y17.1068
G01 X30.7116 Y16.6402
G01 X30.7125 Y16.6208
G01 X30.7149 Y16.6042
G01 X30.7168 Y16.5952
G01 X30.7202 Y16.5821
G01 X30.7263 Y16.5650
G01 X30.7352 Y16.5459
G01 X30.7436 Y16.5316
G01 X30.7551 Y16.5157
G01 X30.7680 Y16.5009
G01 X30.7824 Y16.4875
G01 X30.7978 Y16.4757
G01 X30.8147 Y16.4652
G01 X30.8329 Y16.4563
G01 X30.8532 Y16.4489
G01 X30.8732 Y16.4439
G01 X30.8948 Y16.4409
G01 X30.9147 Y16.4402
G01 X30.9340 Y16.4414
G01 X30.9476 Y16.4434
G01 X30.9566 Y16.4453
G01 X30.9697 Y16.4488
G01 X30.9825 Y16.4532
G01 X30.9903 Y16.4563
G01 X31.0005 Y16.4610
G01 X31.0087 Y16.4653
G01 X31.0202 Y16.4722
G01 X31.0361 Y16.4836
G01 X31.0432 Y16.4896
G01 X31.0531 Y16.4987
G01 X31.0663 Y16.5133
G01 X31.0779 Y16.5289
G01 X31.0850 Y16.5405
G01 X31.0895 Y16.5486
G01 X31.0978 Y16.5672
G01 X31.1021 Y16.5790
G01 X31.1045 Y16.5874
G01 X31.1072 Y16.5982
G01 X31.1089 Y16.6072
G01 X31.1107 Y16.6208
G01 X31.1115 Y16.6340
G01 X31.1117 Y17.1068
G01 X31.1402 Y17.1068
G01 X31.1402 Y16.6402
G01 X31.1407 Y16.6267
G01 X31.1416 Y16.6166
G01 X31.1440 Y16.6012
G01 X31.1471 Y16.5880
G01 X31.1497 Y16.5792
G01 X31.1549 Y16.5650
G01 X31.1610 Y16.5514
G01 X31.1653 Y16.5432
G01 X31.1739 Y16.5290
G01 X31.1818 Y16.5181
G01 X31.1876 Y16.5109
G01 X31.1988 Y16.4987
G01 X31.2087 Y16.4896
G01 X31.2159 Y16.4835
G01 X31.2264 Y16.4757
G01 X31.2335 Y16.4710
G01 X31.2459 Y16.4638
G01 X31.2580 Y16.4579
G01 X31.2672 Y16.4540
G01 X31.2818 Y16.4489
G01 X31.2952 Y16.4453
G01 X31.3051 Y16.4433
G01 X31.3200 Y16.4412
G01 X31.3402 Y16.4401
G01 X31.3567 Y16.4408
G01 X31.3655 Y16.4418
G01 X31.3792 Y16.4440
G01 X31.3924 Y16.4471
G01 X31.4012 Y16.4497
G01 X31.4154 Y16.4548
G01 X31.4347 Y16.4639
G01 X31.4462 Y16.4706
G01 X31.4539 Y16.4756
G01 X31.4671 Y16.4856
G01 X31.4772 Y16.4945
G01 X31.4838 Y16.5009
G01 X31.4929 Y16.5109
G01 X31.4986 Y16.5181
G01 X31.5064 Y16.5289
G01 X31.5151 Y16.5432
G01 X31.5194 Y16.5514
G01 X31.5256 Y16.5650
G01 X31.5307 Y16.5790
G01 X31.5331 Y16.5874
G01 X31.5364 Y16.6011
G01 X31.5388 Y16.6166
G01 X31.5397 Y16.6267
G01 X31.5402 Y16.6402
G01 X31.5402 Y17.1640
G01 X31.5399 Y17.1747
G01 X31.5392 Y17.1848
G01 X31.5367 Y17.2013
G01 X31.5334 Y17.2159
G01 X31.5306 Y17.2254
G01 X31.5247 Y17.2414
G01 X31.5191 Y17.2535
G01 X31.4715 Y17.3487
G01 X31.4665 Y17.3580
G01 X31.4602 Y17.3684
G01 X31.4540 Y17.3773
G01 X31.4457 Y17.3880
G01 X31.4378 Y17.3968
G01 X31.4301 Y17.4045
G01 X31.4229 Y17.4110
G01 X31.4131 Y17.4189
G01 X31.4017 Y17.4269
G01 X31.3917 Y17.4330
G01 X31.3821 Y17.4381
G01 X31.2868 Y17.4858
G01 X31.2742 Y17.4915
G01 X31.2588 Y17.4972
G01 X31.2468 Y17.5007
G01 X31.2301 Y17.5042
G01 X31.2132 Y17.5063
G01 X31.1973 Y17.5069
G01 X31.0545 Y17.5069
G01 X31.0386 Y17.5062
G01 X31.0217 Y17.5042
G01 X31.0120 Y17.5023
G01 X31.0000 Y17.4993
G01 X30.9863 Y17.4949
G01 X30.9793 Y17.4922
G01 X30.9650 Y17.4858
G01 X30.9116 Y17.4591
G01 X30.8555 Y17.4871
G01 X30.8392 Y17.4941
G01 X30.8277 Y17.4980
G01 X30.8182 Y17.5007
G01 X30.8041 Y17.5037
G01 X30.7901 Y17.5057
G01 X30.7820 Y17.5064
G01 X30.7688 Y17.5069
G01 X30.6259 Y17.5069
G01 X30.6153 Y17.5066
G01 X30.6043 Y17.5057
G01 X30.5860 Y17.5029
G01 X30.5695 Y17.4988
G01 X30.5544 Y17.4937
G01 X30.5415 Y17.4982
G01 X30.5281 Y17.5017
G01 X30.5182 Y17.5038
G01 X30.5067 Y17.5055
G01 X30.4966 Y17.5064
G01 X30.4831 Y17.5069
G01 X30.4637 Y17.5059
G01 X30.4440 Y17.5030
G01 X30.4279 Y17.4991
G01 X30.4122 Y17.4939
G01 X30.4009 Y17.4892
G01 X30.3860 Y17.4817
G01 X30.3694 Y17.4714
G01 X30.3562 Y17.4615
G01 X30.3416 Y17.4483
G01 X30.3284 Y17.4337
G01 X30.3186 Y17.4207
G01 X30.3097 Y17.4065
G01 X30.3039 Y17.3957
G01 X30.2977 Y17.3821
G01 X30.2917 Y17.3652
G01 X30.2869 Y17.3459
G01 X30.2843 Y17.3292
G00 Z1.2500
G00 X30.7361 Y15.4345
G01 F60.00
G01 Z-0.0030
G01 F120.00
G01 X30.7352 Y15.4154
G01 X30.7352 Y14.4154
G01 X30.7359 Y14.3989
G01 X30.7369 Y14.3901
G01 X30.7391 Y14.3763
G01 X30.7438 Y14.3573
G01 X30.7504 Y14.3388
G01 X30.7561 Y14.3266
G01 X30.7603 Y14.3184
G01 X30.7673 Y14.3068
G01 X30.7725 Y14.2992
G01 X30.7806 Y14.2885
G01 X30.7896 Y14.2784
G01 X30.7960 Y14.2718
G01 X30.8060 Y14.2627
G01 X30.8217 Y14.2507
G01 X30.8293 Y14.2458
G01 X30.8410 Y14.2390
G01 X30.8600 Y14.2300
G01 X30.8796 Y14.2232
G01 X30.8935 Y14.2197
G01 X30.9023 Y14.2181
G01 X30.9156 Y14.2163
G01 X30.9291 Y14.2155
G01 X30.9383 Y14.2154
G01 X30.9517 Y14.2160
G01 X30.9605 Y14.2170
G01 X30.9743 Y14.2192
G01 X30.9933 Y14.2239
G01 X31.0118 Y14.2306
G01 X31.0241 Y14.2362
G01 X31.0324 Y14.2405
G01 X31.0438 Y14.2474
G01 X31.0514 Y14.2526
G01 X31.0622 Y14.2607
G01 X31.0723 Y14.2697
G01 X31.0788 Y14.2761
G01 X31.0879 Y14.2861
G01 X31.0937 Y14.2933
G01 X31.1016 Y14.3042
G01 X31.1119 Y14.3214
G01 X31.1176 Y14.3332
G01 X31.1215 Y14.3423
G01 X31.1266 Y14.3570
G01 X31.1314 Y14.3763
G01 X31.1343 Y14.3960
G01 X31.1353 Y14.4123
G01 X31.1353 Y15.1846
G01 X31.1968 Y15.2153
G01 X31.3166 Y15.2153
G01 X31.3576 Y15.1948
G01 X31.3781 Y15.1539
G01 X31.3781 Y14.4154
G01 X31.3788 Y14.3989
G01 X31.3797 Y14.3901
G01 X31.3819 Y14.3763
G01 X31.3867 Y14.3573
G01 X31.3933 Y14.3388
G01 X31.4017 Y14.3211
G01 X31.4118 Y14.3042
G01 X31.4235 Y14.2885
G01 X31.4367 Y14.2739
G01 X31.4466 Y14.2647
G01 X31.4537 Y14.2588
G01 X31.4644 Y14.2508
G01 X31.4722 Y14.2458
G01 X31.4841 Y14.2388
G01 X31.4960 Y14.2330
G01 X31.5045 Y14.2294
G01 X31.5171 Y14.2249
G01 X31.5260 Y14.2223
G01 X31.5391 Y14.2192
G01 X31.5590 Y14.2162
G01 X31.5720 Y14.2155
G01 X31.5812 Y14.2154
G01 X31.5950 Y14.2161
G01 X31.6038 Y14.2170
G01 X31.6171 Y14.2192
G01 X31.6303 Y14.2223
G01 X31.6391 Y14.2249
G01 X31.6518 Y14.2294
G01 X31.6603 Y14.2330
G01 X31.6726 Y14.2391
G01 X31.6841 Y14.2458
G01 X31.6918 Y14.2508
G01 X31.7026 Y14.2588
G01 X31.7097 Y14.2647
G01 X31.7196 Y14.2739
G01 X31.7287 Y14.2838
G01 X31.7347 Y14.2909
G01 X31.7427 Y14.3017
G01 X31.7477 Y14.3094
G01 X31.7547 Y14.3214
G01 X31.7635 Y14.3402
G01 X31.7694 Y14.3570
G01 X31.7743 Y14.3763
G01 X31.7772 Y14.3960
G01 X31.7781 Y14.4123
G01 X31.7781 Y15.1539
G01 X31.7986 Y15.1948
G01 X31.8396 Y15.2153
G01 X31.9595 Y15.2153
G01 X32.0004 Y15.1948
G01 X32.0209 Y15.1539
G01 X32.0210 Y14.4123
G01 X32.0219 Y14.3960
G01 X32.0237 Y14.3824
G01 X32.0254 Y14.3733
G01 X32.0295 Y14.3573
G01 X32.0348 Y14.3423
G01 X32.0386 Y14.3332
G01 X32.0446 Y14.3211
G01 X32.0514 Y14.3094
G01 X32.0564 Y14.3017
G01 X32.0663 Y14.2885
G01 X32.0753 Y14.2784
G01 X32.0817 Y14.2718
G01 X32.0917 Y14.2627
G01 X32.0989 Y14.2570
G01 X32.1098 Y14.2490
G01 X32.1239 Y14.2405
G01 X32.1322 Y14.2362
G01 X32.1441 Y14.2307
G01 X32.1598 Y14.2249
G01 X32.1682 Y14.2225
G01 X32.1819 Y14.2192
G01 X32.1953 Y14.2170
G01 X32.2041 Y14.2161
G01 X32.2179 Y14.2154
G01 X32.2271 Y14.2155
G01 X32.2404 Y14.2163
G01 X32.2570 Y14.2186
G01 X32.2660 Y14.2205
G01 X32.2790 Y14.2239
G01 X32.2947 Y14.2294
G01 X32.3031 Y14.2330
G01 X32.3155 Y14.2391
G01 X32.3269 Y14.2458
G01 X32.3346 Y14.2508
G01 X32.3479 Y14.2607
G01 X32.3580 Y14.2697
G01 X32.3646 Y14.2761
G01 X32.3736 Y14.2861
G01 X32.3794 Y14.2933
G01 X32.3873 Y14.3042
G01 X32.3960 Y14.3186
G01 X32.4001 Y14.3266
G01 X32.4063 Y14.3402
G01 X32.4123 Y14.3570
G01 X32.4165 Y14.3733
G01 X32.4182 Y14.3824
G01 X32.4201 Y14.3960
G01 X32.4210 Y14.4123
G01 X32.4210 Y15.2011
G01 X32.4207 Y15.2117
G01 X32.4199 Y15.2218
G01 X32.4175 Y15.2384
G01 X32.4141 Y15.2530
G01 X32.4090 Y15.2693
G01 X32.4044 Y15.2809
G01 X32.3999 Y15.2905
G01 X32.3239 Y15.4421
G01 X32.3188 Y15.4505
G01 X32.3128 Y15.4596
G01 X32.3056 Y15.4691
G01 X32.2969 Y15.4792
G01 X32.2893 Y15.4871
G01 X32.2806 Y15.4951
G01 X32.2724 Y15.5018
G01 X32.2624 Y15.5091
G01 X32.2513 Y15.5162
G01 X32.2390 Y15.5229
G01 X32.0961 Y15.5943
G01 X32.0854 Y15.5993
G01 X32.0679 Y15.6058
G01 X32.0561 Y15.6092
G01 X32.0395 Y15.6127
G01 X32.0226 Y15.6148
G01 X32.0067 Y15.6154
G01 X31.7924 Y15.6154
G01 X31.7745 Y15.6146
G01 X31.7550 Y15.6119
G01 X31.7430 Y15.6092
G01 X31.7335 Y15.6065
G01 X31.7218 Y15.6025
G01 X31.7137 Y15.5993
G01 X31.7029 Y15.5943
G01 X31.5781 Y15.5319
G01 X31.4533 Y15.5943
G01 X31.4425 Y15.5993
G01 X31.4320 Y15.6034
G01 X31.4158 Y15.6085
G01 X31.4012 Y15.6119
G01 X31.3869 Y15.6141
G01 X31.3771 Y15.6150
G01 X31.3638 Y15.6154
G01 X31.1495 Y15.6154
G01 X31.1337 Y15.6148
G01 X31.1122 Y15.6119
G01 X31.1001 Y15.6092
G01 X31.0906 Y15.6065
G01 X31.0789 Y15.6025
G01 X31.0708 Y15.5993
G01 X31.0411 Y15.5850
G01 X31.0293 Y15.5919
G01 X31.0140 Y15.5993
G01 X30.9991 Y15.6049
G01 X30.9909 Y15.6075
G01 X30.9737 Y15.6117
G01 X30.9579 Y15.6141
G01 X30.9414 Y15.6153
G01 X30.9291 Y15.6153
G01 X30.9129 Y15.6141
G01 X30.8932 Y15.6109
G01 X30.8743 Y15.6059
G01 X30.8565 Y15.5993
G01 X30.8407 Y15.5917
G01 X30.8241 Y15.5817
G01 X30.8084 Y15.5700
G01 X30.7960 Y15.5590
G01 X30.7826 Y15.5446
G01 X30.7725 Y15.5315
G01 X30.7656 Y15.5213
G01 X30.7604 Y15.5124
G01 X30.7563 Y15.5046
G01 X30.7499 Y15.4906
G01 X30.7431 Y15.4710
G01 X30.7391 Y15.4544
G01 X30.7361 Y15.4345
G00 Z1.2500
G00 X30.5697 Y12.7947
G01 F60.00
G01 Z-0.0030
G01 F120.00
G01 X30.5689 Y12.7855
G01 X30.5682 Y12.7671
G01 X30.5682 Y11.4338
G01 X30.5691 Y11.4123
G01 X30.5701 Y11.4032
G01 X30.5730 Y11.3848
G01 X30.5789 Y11.3612
G01 X30.5881 Y11.3359
G01 X30.5962 Y11.3188
G01 X30.6004 Y11.3111
G01 X30.6086 Y11.2974
G01 X30.6138 Y11.2898
G01 X30.6249 Y11.2751
G01 X30.6372 Y11.2614
G01 X30.6436 Y11.2548
G01 X30.6572 Y11.2424
G01 X30.6768 Y11.2276
G01 X30.6845 Y11.2226
G01 X30.7004 Y11.2132
G01 X30.7239 Y11.2022
G01 X30.7461 Y11.1943
G01 X30.7664 Y11.1891
G01 X30.7755 Y11.1875
G01 X30.7937 Y11.1849
G01 X30.8121 Y11.1839
G01 X30.8213 Y11.1837
G01 X30.8366 Y11.1845
G01 X30.8458 Y11.1852
G01 X30.8639 Y11.1879
G01 X30.8727 Y11.1898
G01 X30.8908 Y11.1945
G01 X30.9139 Y11.2027
G01 X30.9332 Y11.2117
G01 X30.9409 Y11.2159
G01 X30.9552 Y11.2245
G01 X30.9622 Y11.2294
G01 X30.9769 Y11.2405
G01 X30.9906 Y11.2527
G01 X30.9972 Y11.2591
G01 X31.0096 Y11.2728
G01 X31.0153 Y11.2800
G01 X31.0262 Y11.2948
G01 X31.0388 Y11.3159
G01 X31.0468 Y11.3325
G01 X31.0503 Y11.3408
G01 X31.0574 Y11.3608
G01 X31.0635 Y11.3850
G01 X31.0671 Y11.4093
G01 X31.0683 Y11.4307
G01 X31.0683 Y12.4697
G01 X31.1630 Y12.5170
G01 X31.3306 Y12.5170
G01 X31.3938 Y12.4855
G01 X31.4253 Y12.4223
G01 X31.4253 Y11.4338
G01 X31.4263 Y11.4123
G01 X31.4273 Y11.4032
G01 X31.4302 Y11.3848
G01 X31.4361 Y11.3612
G01 X31.4444 Y11.3381
G01 X31.4547 Y11.3162
G01 X31.4682 Y11.2937
G01 X31.4821 Y11.2751
G01 X31.4986 Y11.2569
G01 X31.5121 Y11.2445
G01 X31.5191 Y11.2385
G01 X31.5339 Y11.2276
G01 X31.5416 Y11.2226
G01 X31.5575 Y11.2132
G01 X31.5741 Y11.2052
G01 X31.5824 Y11.2017
G01 X31.6001 Y11.1953
G01 X31.6087 Y11.1928
G01 X31.6266 Y11.1885
G01 X31.6448 Y11.1857
G01 X31.6539 Y11.1846
G01 X31.6723 Y11.1837
G01 X31.6815 Y11.1839
G01 X31.6999 Y11.1849
G01 X31.7181 Y11.1875
G01 X31.7275 Y11.1892
G01 X31.7421 Y11.1928
G01 X31.7509 Y11.1954
G01 X31.7682 Y11.2016
G01 X31.7767 Y11.2052
G01 X31.7937 Y11.2135
G01 X31.8154 Y11.2266
G01 X31.8316 Y11.2385
G01 X31.8387 Y11.2445
G01 X31.8522 Y11.2569
G01 X31.8647 Y11.2705
G01 X31.8706 Y11.2775
G01 X31.8816 Y11.2923
G01 X31.8866 Y11.3000
G01 X31.8959 Y11.3159
G01 X31.9039 Y11.3325
G01 X31.9075 Y11.3408
G01 X31.9146 Y11.3608
G01 X31.9206 Y11.3850
G01 X31.9242 Y11.4093
G01 X31.9254 Y11.4307
G01 X31.9254 Y12.4223
G01 X31.9570 Y12.4855
G01 X32.0201 Y12.5170
G01 X32.1878 Y12.5170
G01 X32.2509 Y12.4855
G01 X32.2825 Y12.4223
G01 X32.2825 Y11.4307
G01 X32.2837 Y11.4093
G01 X32.2862 Y11.3910
G01 X32.2880 Y11.3817
G01 X32.2924 Y11.3641
G01 X32.2952 Y11.3553
G01 X32.3015 Y11.3381
G01 X32.3105 Y11.3188
G01 X32.3147 Y11.3111
G01 X32.3246 Y11.2948
G01 X32.3354 Y11.2800
G01 X32.3412 Y11.2728
G01 X32.3536 Y11.2591
G01 X32.3601 Y11.2527
G01 X32.3738 Y11.2406
G01 X32.3905 Y11.2280
G01 X32.3988 Y11.2226
G01 X32.4146 Y11.2132
G01 X32.4312 Y11.2052
G01 X32.4395 Y11.2017
G01 X32.4599 Y11.1945
G01 X32.4807 Y11.1891
G01 X32.4898 Y11.1875
G01 X32.5080 Y11.1849
G01 X32.5264 Y11.1839
G01 X32.5356 Y11.1837
G01 X32.5570 Y11.1849
G01 X32.5753 Y11.1875
G01 X32.5846 Y11.1892
G01 X32.6051 Y11.1945
G01 X32.6225 Y11.2005
G01 X32.6310 Y11.2039
G01 X32.6479 Y11.2119
G01 X32.6557 Y11.2163
G01 X32.6714 Y11.2258
G01 X32.6888 Y11.2385
G01 X32.6958 Y11.2445
G01 X32.7093 Y11.2569
G01 X32.7218 Y11.2705
G01 X32.7277 Y11.2775
G01 X32.7387 Y11.2923
G01 X32.7500 Y11.3105
G01 X32.7558 Y11.3214
G01 X32.7634 Y11.3378
G01 X32.7717 Y11.3608
G01 X32.7771 Y11.3820
G01 X32.7788 Y11.3910
G01 X32.7814 Y11.4093
G01 X32.7825 Y11.4307
G01 X32.7826 Y12.4814
G01 X32.7821 Y12.4960
G01 X32.7814 Y12.5059
G01 X32.7790 Y12.5235
G01 X32.7745 Y12.5445
G01 X32.7709 Y12.5569
G01 X32.7661 Y12.5708
G01 X32.7623 Y12.5799
G01 X32.7562 Y12.5932
G01 X32.6560 Y12.7930
G01 X32.6489 Y12.8051
G01 X32.6413 Y12.8164
G01 X32.6330 Y12.8275
G01 X32.6242 Y12.8380
G01 X32.6114 Y12.8513
G01 X32.6034 Y12.8587
G01 X32.5906 Y12.8694
G01 X32.5815 Y12.8761
G01 X32.5638 Y12.8876
G01 X32.5491 Y12.8955
G01 X32.3586 Y12.9908
G01 X32.3451 Y12.9970
G01 X32.3360 Y13.0007
G01 X32.3223 Y13.0055
G01 X32.3096 Y13.0091
G01 X32.2889 Y13.0136
G01 X32.2744 Y13.0156
G01 X32.2645 Y13.0165
G01 X32.2468 Y13.0172
G01 X31.9611 Y13.0172
G01 X31.9464 Y13.0167
G01 X31.9366 Y13.0160
G01 X31.9220 Y13.0141
G01 X31.9125 Y13.0124
G01 X31.8980 Y13.0091
G01 X31.8856 Y13.0055
G01 X31.8704 Y13.0001
G01 X31.8522 Y12.9922
G01 X31.6754 Y12.9038
G01 X31.5015 Y12.9908
G01 X31.4875 Y12.9972
G01 X31.4762 Y13.0017
G01 X31.4557 Y13.0083
G01 X31.4384 Y13.0124
G01 X31.4172 Y13.0156
G01 X31.4043 Y13.0167
G01 X31.3897 Y13.0172
G01 X31.1039 Y13.0172
G01 X31.0893 Y13.0167
G01 X31.0794 Y13.0160
G01 X31.0649 Y13.0141
G01 X31.0519 Y13.0117
G01 X31.0314 Y13.0064
G01 X31.0168 Y13.0015
G01 X31.0061 Y12.9972
G01 X30.9951 Y12.9922
G01 X30.9586 Y12.9740
G01 X30.9415 Y12.9846
G01 X30.9306 Y12.9904
G01 X30.9126 Y12.9987
G01 X30.8903 Y13.0065
G01 X30.8670 Y13.0124
G01 X30.8458 Y13.0156
G01 X30.8244 Y13.0170
G01 X30.8121 Y13.0170
G01 X30.7937 Y13.0160
G01 X30.7696 Y13.0124
G01 X30.7456 Y13.0064
G01 X30.7239 Y12.9987
G01 X30.7007 Y12.9878
G01 X30.6813 Y12.9763
G01 X30.6620 Y12.9623
G01 X30.6459 Y12.9481
G01 X30.6372 Y12.9395
G01 X30.6270 Y12.9281
G01 X30.6213 Y12.9211
G01 X30.6086 Y12.9035
G01 X30.5963 Y12.8823
G01 X30.5867 Y12.8615
G01 X30.5790 Y12.8400
G01 X30.5730 Y12.8159
G01 X30.5697 Y12.7947
G00 Z1.2500
G00 X27.9027 Y12.7916
G01 F60.00
G01 Z-0.0030
G01 F120.00
G01 X27.9015 Y12.7671
G01 X27.9015 Y11.4338
G01 X27.9024 Y11.4123
G01 X27.9035 Y11.4032
G01 X27.9064 Y11.3848
G01 X27.9123 Y11.3612
G01 X27.9205 Y11.3381
G01 X27.9295 Y11.3188
G01 X27.9337 Y11.3111
G01 X27.9423 Y11.2968
G01 X27.9472 Y11.2898
G01 X27.9583 Y11.2751
G01 X27.9705 Y11.2614
G01 X27.9769 Y11.2548
G01 X27.9906 Y11.2424
G01 X28.0101 Y11.2276
G01 X28.0178 Y11.2226
G01 X28.0337 Y11.2132
G01 X28.0556 Y11.2029
G01 X28.0795 Y11.1943
G01 X28.0998 Y11.1891
G01 X28.1088 Y11.1875
G01 X28.1271 Y11.1849
G01 X28.1454 Y11.1839
G01 X28.1546 Y11.1837
G01 X28.1700 Y11.1845
G01 X28.1791 Y11.1852
G01 X28.1974 Y11.1880
G01 X28.2063 Y11.1898
G01 X28.2242 Y11.1945
G01 X28.2473 Y11.2027
G01 X28.2640 Y11.2105
G01 X28.2728 Y11.2151
G01 X28.2885 Y11.2245
G01 X28.2955 Y11.2294
G01 X28.3102 Y11.2405
G01 X28.3239 Y11.2527
G01 X28.3305 Y11.2591
G01 X28.3429 Y11.2728
G01 X28.3486 Y11.2800
G01 X28.3595 Y11.2948
G01 X28.3721 Y11.3159
G01 X28.3801 Y11.3325
G01 X28.3837 Y11.3408
G01 X28.3908 Y11.3608
G01 X28.3968 Y11.3850
G01 X28.4004 Y11.4093
G01 X28.4016 Y11.4307
G01 X28.4016 Y12.4697
G01 X28.4963 Y12.5170
G01 X28.6640 Y12.5170
G01 X28.7271 Y12.4855
G01 X28.7586 Y12.4223
G01 X28.7586 Y11.4338
G01 X28.7596 Y11.4123
G01 X28.7606 Y11.4032
G01 X28.7634 Y11.3851
G01 X28.7694 Y11.3612
G01 X28.7777 Y11.3381
G01 X28.7880 Y11.3162
G01 X28.8008 Y11.2948
G01 X28.8154 Y11.2751
G01 X28.8319 Y11.2569
G01 X28.8454 Y11.2445
G01 X28.8523 Y11.2387
G01 X28.8667 Y11.2280
G01 X28.8750 Y11.2226
G01 X28.8908 Y11.2132
G01 X28.9074 Y11.2052
G01 X28.9159 Y11.2016
G01 X28.9332 Y11.1954
G01 X28.9420 Y11.1928
G01 X28.9599 Y11.1885
G01 X28.9781 Y11.1857
G01 X28.9873 Y11.1846
G01 X29.0056 Y11.1837
G01 X29.0148 Y11.1839
G01 X29.0332 Y11.1849
G01 X29.0515 Y11.1875
G01 X29.0602 Y11.1891
G01 X29.0754 Y11.1928
G01 X29.0842 Y11.1954
G01 X29.1016 Y11.2016
G01 X29.1100 Y11.2052
G01 X29.1263 Y11.2131
G01 X29.1425 Y11.2226
G01 X29.1502 Y11.2276
G01 X29.1650 Y11.2385
G01 X29.1720 Y11.2445
G01 X29.1855 Y11.2569
G01 X29.1980 Y11.2705
G01 X29.2039 Y11.2775
G01 X29.2149 Y11.2923
G01 X29.2199 Y11.3000
G01 X29.2292 Y11.3159
G01 X29.2373 Y11.3325
G01 X29.2408 Y11.3408
G01 X29.2479 Y11.3608
G01 X29.2540 Y11.3850
G01 X29.2576 Y11.4093
G01 X29.2587 Y11.4307
G01 X29.2588 Y12.4223
G01 X29.2903 Y12.4855
G01 X29.3535 Y12.5170
G01 X29.5211 Y12.5170
G01 X29.5842 Y12.4855
G01 X29.6158 Y12.4223
G01 X29.6158 Y11.4307
G01 X29.6170 Y11.4093
G01 X29.6195 Y11.3910
G01 X29.6212 Y11.3822
G01 X29.6257 Y11.3641
G01 X29.6285 Y11.3553
G01 X29.6357 Y11.3359
G01 X29.6438 Y11.3188
G01 X29.6480 Y11.3111
G01 X29.6579 Y11.2948
G01 X29.6688 Y11.2800
G01 X29.6745 Y11.2728
G01 X29.6869 Y11.2591
G01 X29.6935 Y11.2527
G01 X29.7072 Y11.2405
G01 X29.7244 Y11.2276
G01 X29.7321 Y11.2226
G01 X29.7480 Y11.2132
G01 X29.7646 Y11.2052
G01 X29.7737 Y11.2013
G01 X29.7938 Y11.1943
G01 X29.8141 Y11.1891
G01 X29.8231 Y11.1875
G01 X29.8413 Y11.1849
G01 X29.8597 Y11.1839
G01 X29.8689 Y11.1837
G01 X29.8904 Y11.1849
G01 X29.9086 Y11.1875
G01 X29.9174 Y11.1891
G01 X29.9355 Y11.1936
G01 X29.9443 Y11.1964
G01 X29.9615 Y11.2027
G01 X29.9809 Y11.2117
G01 X29.9885 Y11.2159
G01 X30.0059 Y11.2266
G01 X30.0197 Y11.2367
G01 X30.0268 Y11.2424
G01 X30.0405 Y11.2548
G01 X30.0469 Y11.2614
G01 X30.0592 Y11.2751
G01 X30.0720 Y11.2923
G01 X30.0834 Y11.3105
G01 X30.0891 Y11.3214
G01 X30.0968 Y11.3378
G01 X30.1050 Y11.3608
G01 X30.1105 Y11.3820
G01 X30.1122 Y11.3910
G01 X30.1147 Y11.4093
G01 X30.1159 Y11.4307
G01 X30.1159 Y12.4814
G01 X30.1155 Y12.4960
G01 X30.1147 Y12.5059
G01 X30.1123 Y12.5235
G01 X30.1078 Y12.5445
G01 X30.1042 Y12.5569
G01 X30.0994 Y12.5708
G01 X30.0960 Y12.5792
G01 X30.0895 Y12.5932
G01 X29.9893 Y12.7930
G01 X29.9822 Y12.8051
G01 X29.9754 Y12.8154
G01 X29.9682 Y12.8252
G01 X29.9575 Y12.8380
G01 X29.9448 Y12.8513
G01 X29.9368 Y12.8587
G01 X29.9239 Y12.8694
G01 X29.9142 Y12.8766
G01 X29.8971 Y12.8876
G01 X29.8824 Y12.8955
G01 X29.6920 Y12.9908
G01 X29.6788 Y12.9968
G01 X29.6664 Y13.0018
G01 X29.6522 Y13.0065
G01 X29.6429 Y13.0091
G01 X29.6222 Y13.0136
G01 X29.6077 Y13.0156
G01 X29.5979 Y13.0165
G01 X29.5801 Y13.0172
G01 X29.2944 Y13.0172
G01 X29.2798 Y13.0167
G01 X29.2699 Y13.0160
G01 X29.2554 Y13.0141
G01 X29.2458 Y13.0124
G01 X29.2313 Y13.0091
G01 X29.2189 Y13.0055
G01 X29.2037 Y13.0001
G01 X29.1855 Y12.9922
G01 X29.0087 Y12.9038
G01 X28.8348 Y12.9908
G01 X28.8213 Y12.9970
G01 X28.8095 Y13.0017
G01 X28.7890 Y13.0083
G01 X28.7718 Y13.0124
G01 X28.7506 Y13.0156
G01 X28.7377 Y13.0167
G01 X28.7230 Y13.0172
G01 X28.4373 Y13.0172
G01 X28.4226 Y13.0167
G01 X28.4128 Y13.0160
G01 X28.3982 Y13.0141
G01 X28.3857 Y13.0118
G01 X28.3676 Y13.0072
G01 X28.3501 Y13.0015
G01 X28.3394 Y12.9972
G01 X28.3284 Y12.9922
G01 X28.2920 Y12.9740
G01 X28.2748 Y12.9846
G01 X28.2640 Y12.9904
G01 X28.2446 Y12.9992
G01 X28.2242 Y13.0064
G01 X28.2004 Y13.0124
G01 X28.1791 Y13.0156
G01 X28.1577 Y13.0170
G01 X28.1454 Y13.0170
G01 X28.1271 Y13.0160
G01 X28.1026 Y13.0123
G01 X28.0790 Y13.0064
G01 X28.0572 Y12.9987
G01 X28.0332 Y12.9874
G01 X28.0152 Y12.9767
G01 X27.9953 Y12.9623
G01 X27.9792 Y12.9481
G01 X27.9705 Y12.9395
G01 X27.9603 Y12.9281
G01 X27.9547 Y12.9211
G01 X27.9420 Y12.9035
G01 X27.9296 Y12.8823
G01 X27.9200 Y12.8615
G01 X27.9124 Y12.8400
G01 X27.9063 Y12.8159
G01 X27.9027 Y12.7916
G00 Z1.2500
G00 X25.0933 Y15.5057
G01 F60.00
G01 Z-0.0030
G01 F120.00
G01 X25.0924 Y15.4892
G01 X25.0929 Y15.4726
G01 X25.0952 Y15.4531
G01 X25.0987 Y15.4370
G01 X25.1035 Y15.4211
G01 X25.1079 Y15.4096
G01 X25.1149 Y15.3946
G01 X25.1248 Y15.3777
G01 X25.1345 Y15.3640
G01 X25.1472 Y15.3493
G01 X25.1613 Y15.3357
G01 X25.1747 Y15.3251
G01 X25.1918 Y15.3139
G01 X25.2053 Y15.3068
G01 X25.2165 Y15.3018
G01 X25.2318 Y15.2962
G01 X25.2480 Y15.2917
G01 X25.2613 Y15.2892
G01 X25.2704 Y15.2880
G01 X25.2870 Y15.2868
G01 X25.3035 Y15.2871
G01 X25.3127 Y15.2879
G01 X25.3291 Y15.2902
G01 X25.3451 Y15.2938
G01 X25.3639 Y15.3000
G01 X25.3791 Y15.3065
G01 X25.5209 Y15.3774
G01 X25.5209 Y14.6154
G01 X25.2924 Y14.6154
G01 X25.2755 Y14.6147
G01 X25.2594 Y14.6126
G01 X25.2474 Y14.6102
G01 X25.2314 Y14.6059
G01 X25.2172 Y14.6007
G01 X25.2005 Y14.5930
G01 X25.1864 Y14.5850
G01 X25.1787 Y14.5800
G01 X25.1655 Y14.5700
G01 X25.1554 Y14.5611
G01 X25.1488 Y14.5546
G01 X25.1397 Y14.5446
G01 X25.1279 Y14.5292
G01 X25.1175 Y14.5124
G01 X25.1085 Y14.4941
G01 X25.1011 Y14.4738
G01 X25.0968 Y14.4574
G01 X25.0936 Y14.4373
G01 X25.0924 Y14.4184
G01 X25.0925 Y14.4092
G01 X25.0933 Y14.3960
G01 X25.0962 Y14.3763
G01 X25.1010 Y14.3573
G01 X25.1070 Y14.3402
G01 X25.1160 Y14.3211
G01 X25.1261 Y14.3042
G01 X25.1378 Y14.2885
G01 X25.1488 Y14.2761
G01 X25.1554 Y14.2697
G01 X25.1656 Y14.2607
G01 X25.1809 Y14.2493
G01 X25.1981 Y14.2390
G01 X25.2137 Y14.2315
G01 X25.2340 Y14.2240
G01 X25.2540 Y14.2191
G01 X25.2722 Y14.2164
G01 X25.2924 Y14.2153
G01 X26.1495 Y14.2153
G01 X26.1630 Y14.2158
G01 X26.1719 Y14.2166
G01 X26.1825 Y14.2181
G01 X26.1946 Y14.2205
G01 X26.2105 Y14.2249
G01 X26.2289 Y14.2318
G01 X26.2441 Y14.2391
G01 X26.2607 Y14.2490
G01 X26.2764 Y14.2607
G01 X26.2888 Y14.2718
G01 X26.3022 Y14.2861
G01 X26.3141 Y14.3017
G01 X26.3246 Y14.3186
G01 X26.3334 Y14.3367
G01 X26.3409 Y14.3570
G01 X26.3457 Y14.3763
G01 X26.3486 Y14.3960
G01 X26.3496 Y14.4154
G01 X26.3486 Y14.4356
G01 X26.3457 Y14.4544
G01 X26.3410 Y14.4734
G01 X26.3344 Y14.4919
G01 X26.3260 Y14.5097
G01 X26.3159 Y14.5265
G01 X26.3042 Y14.5423
G01 X26.2952 Y14.5524
G01 X26.2888 Y14.5590
G01 X26.2764 Y14.5700
G01 X26.2632 Y14.5800
G01 X26.2555 Y14.5850
G01 X26.2415 Y14.5930
G01 X26.2264 Y14.6001
G01 X26.2107 Y14.6058
G01 X26.1946 Y14.6102
G01 X26.1825 Y14.6126
G01 X26.1686 Y14.6145
G01 X26.1495 Y14.6154
G01 X25.9210 Y14.6154
G01 X25.9208 Y15.9217
G01 X25.9197 Y15.9382
G01 X25.9165 Y15.9576
G01 X25.9119 Y15.9751
G01 X25.9057 Y15.9921
G01 X25.8973 Y16.0098
G01 X25.8873 Y16.0266
G01 X25.8756 Y16.0423
G01 X25.8645 Y16.0546
G01 X25.8502 Y16.0680
G01 X25.8371 Y16.0782
G01 X25.8294 Y16.0835
G01 X25.8206 Y16.0888
G01 X25.8096 Y16.0946
G01 X25.7945 Y16.1014
G01 X25.7762 Y16.1076
G01 X25.7599 Y16.1116
G01 X25.7404 Y16.1145
G01 X25.7209 Y16.1154
G01 X25.7044 Y16.1147
G01 X25.6849 Y16.1121
G01 X25.6688 Y16.1084
G01 X25.6612 Y16.1063
G01 X25.6501 Y16.1024
G01 X25.6386 Y16.0976
G01 X25.6241 Y16.0904
G01 X25.6072 Y16.0799
G01 X25.5940 Y16.0699
G01 X25.5795 Y16.0568
G01 X25.5683 Y16.0446
G01 X25.5582 Y16.0315
G01 X25.4227 Y15.8285
G01 X25.3168 Y15.7226
G01 X25.2029 Y15.6657
G01 X25.1884 Y15.6577
G01 X25.1747 Y15.6485
G01 X25.1673 Y15.6428
G01 X25.1549 Y15.6320
G01 X25.1433 Y15.6202
G01 X25.1328 Y15.6073
G01 X25.1257 Y15.5973
G01 X25.1169 Y15.5827
G01 X25.1089 Y15.5665
G01 X25.1027 Y15.5502
G01 X25.0981 Y15.5341
G01 X25.0948 Y15.5179
G01 X25.0933 Y15.5057
G00 Z1.2500
G00 X19.1176 Y24.3911
G01 F60.00
G01 Z-0.0030
G01 F120.00
G01 X19.1188 Y24.3789
G01 X19.1209 Y24.3654
G01 X19.1227 Y24.3571
G01 X19.1276 Y24.3388
G01 X19.1355 Y24.3178
G01 X19.1436 Y24.3009
G01 X19.1549 Y24.2820
G01 X19.1681 Y24.2643
G01 X19.1808 Y24.2501
G01 X19.1969 Y24.2350
G01 X19.2120 Y24.2235
G01 X19.2196 Y24.2182
G01 X19.2306 Y24.2116
G01 X19.2414 Y24.2058
G01 X19.2559 Y24.1991
G01 X19.2767 Y24.1917
G01 X19.2987 Y24.1862
G01 X19.3169 Y24.1834
G01 X19.3261 Y24.1826
G01 X19.3420 Y24.1820
G01 X20.6170 Y24.1820
G01 X20.6360 Y24.1828
G01 X20.6451 Y24.1838
G01 X20.6609 Y24.1863
G01 X20.6794 Y24.1908
G01 X20.6881 Y24.1936
G01 X20.7033 Y24.1992
G01 X20.7176 Y24.2058
G01 X20.7259 Y24.2101
G01 X20.7400 Y24.2186
G01 X20.7549 Y24.2293
G01 X20.7621 Y24.2350
G01 X20.7761 Y24.2479
G01 X20.7869 Y24.2596
G01 X20.7929 Y24.2667
G01 X20.8041 Y24.2820
G01 X20.8124 Y24.2956
G01 X20.8168 Y24.3037
G01 X20.8237 Y24.3181
G01 X20.8313 Y24.3386
G01 X20.8363 Y24.3571
G01 X20.8381 Y24.3654
G01 X20.8402 Y24.3789
G01 X20.8414 Y24.3911
G01 X20.8420 Y24.4070
G01 X20.8420 Y24.6070
G01 X20.8412 Y24.6260
G01 X20.8402 Y24.6351
G01 X20.8377 Y24.6509
G01 X20.8323 Y24.6723
G01 X20.8248 Y24.6933
G01 X20.8168 Y24.7103
G01 X20.8074 Y24.7268
G01 X20.8005 Y24.7370
G01 X20.7909 Y24.7497
G01 X20.7761 Y24.7661
G01 X20.7597 Y24.7810
G01 X20.7445 Y24.7923
G01 X20.7284 Y24.8024
G01 X20.7176 Y24.8082
G01 X20.7031 Y24.8149
G01 X20.6826 Y24.8222
G01 X20.6609 Y24.8277
G01 X20.6421 Y24.8306
G01 X20.6329 Y24.8314
G01 X20.6170 Y24.8320
G01 X19.3420 Y24.8320
G01 X19.3230 Y24.8312
G01 X19.3139 Y24.8302
G01 X19.2981 Y24.8277
G01 X19.2796 Y24.8232
G01 X19.2709 Y24.8204
G01 X19.2557 Y24.8148
G01 X19.2414 Y24.8082
G01 X19.2331 Y24.8039
G01 X19.2190 Y24.7954
G01 X19.2041 Y24.7847
G01 X19.1969 Y24.7790
G01 X19.1829 Y24.7661
G01 X19.1721 Y24.7544
G01 X19.1661 Y24.7473
G01 X19.1549 Y24.7320
G01 X19.1466 Y24.7184
G01 X19.1419 Y24.7098
G01 X19.1353 Y24.6959
G01 X19.1277 Y24.6754
G01 X19.1227 Y24.6569
G01 X19.1209 Y24.6486
G01 X19.1188 Y24.6351
G01 X19.1176 Y24.6229
G01 X19.1170 Y24.6070
G01 X19.1170 Y24.4070
G01 X19.1176 Y24.3911
G00 Z1.2500
G00 X19.1251 Y25.3164
G01 F60.00
G01 Z-0.0030
G01 F120.00
G01 X19.1214 Y25.3014
G01 X19.1188 Y25.2851
G01 X19.1178 Y25.2760
G01 X19.1170 Y25.2601
G01 X19.1170 Y25.0570
G01 X19.1178 Y25.0380
G01 X19.1188 Y25.0289
G01 X19.1214 Y25.0126
G01 X19.1267 Y24.9917
G01 X19.1319 Y24.9766
G01 X19.1355 Y24.9678
G01 X19.1422 Y24.9537
G01 X19.1466 Y24.9456
G01 X19.1549 Y24.9320
G01 X19.1643 Y24.9191
G01 X19.1700 Y24.9119
G01 X19.1808 Y24.9001
G01 X19.1873 Y24.8937
G01 X19.1993 Y24.8830
G01 X19.2170 Y24.8699
G01 X19.2306 Y24.8616
G01 X19.2383 Y24.8573
G01 X19.2531 Y24.8503
G01 X19.2616 Y24.8469
G01 X19.2796 Y24.8408
G01 X19.2987 Y24.8362
G01 X19.3199 Y24.8331
G01 X19.3420 Y24.8320
G01 X20.6170 Y24.8320
G01 X20.6329 Y24.8326
G01 X20.6421 Y24.8334
G01 X20.6579 Y24.8358
G01 X20.6669 Y24.8377
G01 X20.6823 Y24.8417
G01 X20.7033 Y24.8492
G01 X20.7176 Y24.8558
G01 X20.7259 Y24.8601
G01 X20.7400 Y24.8686
G01 X20.7470 Y24.8735
G01 X20.7597 Y24.8831
G01 X20.7717 Y24.8937
G01 X20.7782 Y24.9001
G01 X20.7890 Y24.9119
G01 X20.7947 Y24.9191
G01 X20.8040 Y24.9320
G01 X20.9583 Y24.9320
G01 X20.9821 Y24.8660
G01 X21.0112 Y24.8041
G01 X21.0170 Y24.7933
G01 X21.0490 Y24.7398
G01 X21.0559 Y24.7296
G01 X21.0968 Y24.6747
G01 X21.1469 Y24.6194
G01 X21.2020 Y24.5694
G01 X21.2571 Y24.5284
G01 X21.2665 Y24.5220
G01 X21.3208 Y24.4895
G01 X21.3316 Y24.4837
G01 X21.3932 Y24.4547
G01 X21.4635 Y24.4295
G01 X21.5302 Y24.4126
G01 X21.5422 Y24.4102
G01 X21.6100 Y24.4003
G01 X21.6814 Y24.3967
G01 X28.4455 Y24.3967
G01 X28.5200 Y24.4003
G01 X28.5938 Y24.4113
G01 X28.6662 Y24.4294
G01 X28.7365 Y24.4546
G01 X28.7984 Y24.4837
G01 X28.8092 Y24.4895
G01 X28.8627 Y24.5215
G01 X28.8729 Y24.5284
G01 X28.9278 Y24.5693
G01 X28.9787 Y24.6151
G01 X28.9874 Y24.6238
G01 X29.0331 Y24.6745
G01 X29.0777 Y24.7346
G01 X29.1159 Y24.7984
G01 X29.1485 Y24.8674
G01 X29.1730 Y24.9360
G01 X29.1911 Y25.0082
G01 X29.2022 Y25.0825
G01 X29.2058 Y25.1539
G01 X29.2057 Y25.1631
G01 X29.2022 Y25.2315
G01 X29.1912 Y25.3053
G01 X29.1731 Y25.3777
G01 X29.1485 Y25.4466
G01 X29.1160 Y25.5154
G01 X29.0777 Y25.5794
G01 X29.0332 Y25.6393
G01 X28.9831 Y25.6946
G01 X28.9280 Y25.7446
G01 X28.8679 Y25.7892
G01 X28.8039 Y25.8275
G01 X28.7368 Y25.8593
G01 X28.6665 Y25.8845
G01 X28.5938 Y25.9027
G01 X28.5200 Y25.9137
G01 X28.4486 Y25.9173
G01 X21.6845 Y25.9173
G01 X21.6130 Y25.9139
G01 X21.6039 Y25.9129
G01 X21.5422 Y25.9038
G01 X21.5302 Y25.9014
G01 X21.4638 Y25.8846
G01 X21.3949 Y25.8600
G01 X21.3316 Y25.8303
G01 X21.3208 Y25.8245
G01 X21.2621 Y25.7892
G01 X21.2022 Y25.7447
G01 X21.1513 Y25.6989
G01 X21.1426 Y25.6902
G01 X21.0969 Y25.6395
G01 X21.0526 Y25.5798
G01 X21.0170 Y25.5207
G01 X21.0114 Y25.5103
G01 X20.9815 Y25.4466
G01 X20.9583 Y25.3820
G01 X20.8040 Y25.3820
G01 X20.7909 Y25.3997
G01 X20.7803 Y25.4117
G01 X20.7739 Y25.4182
G01 X20.7621 Y25.4290
G01 X20.7549 Y25.4347
G01 X20.7420 Y25.4441
G01 X20.7284 Y25.4524
G01 X20.7207 Y25.4567
G01 X20.7059 Y25.4637
G01 X20.6974 Y25.4671
G01 X20.6826 Y25.4722
G01 X20.6609 Y25.4777
G01 X20.6451 Y25.4802
G01 X20.6360 Y25.4812
G01 X20.6170 Y25.4820
G01 X19.3389 Y25.4820
G01 X19.3199 Y25.4809
G01 X19.2981 Y25.4777
G01 X19.2767 Y25.4723
G01 X19.2616 Y25.4671
G01 X19.2503 Y25.4624
G01 X19.2331 Y25.4539
G01 X19.2159 Y25.4433
G01 X19.2017 Y25.4328
G01 X19.1873 Y25.4203
G01 X19.1787 Y25.4117
G01 X19.1680 Y25.3997
G01 X19.1549 Y25.3820
G01 X19.1436 Y25.3631
G01 X19.1353 Y25.3459
G01 X19.1286 Y25.3281
G01 X19.1251 Y25.3164
G00 Z1.2500
G00 X19.1178 Y25.6880
G01 F60.00
G01 Z-0.0030
G01 F120.00
G01 X19.1209 Y25.6654
G01 X19.1251 Y25.6476
G01 X19.1286 Y25.6359
G01 X19.1355 Y25.6178
G01 X19.1436 Y25.6009
G01 X19.1549 Y25.5820
G01 X19.1681 Y25.5643
G01 X19.1808 Y25.5501
G01 X19.1969 Y25.5350
G01 X19.2120 Y25.5235
G01 X19.2196 Y25.5182
G01 X19.2306 Y25.5116
G01 X19.2414 Y25.5058
G01 X19.2559 Y25.4991
G01 X19.2767 Y25.4917
G01 X19.2987 Y25.4862
G01 X19.3169 Y25.4834
G01 X19.3261 Y25.4826
G01 X19.3420 Y25.4820
G01 X20.6170 Y25.4820
G01 X20.6360 Y25.4828
G01 X20.6451 Y25.4838
G01 X20.6609 Y25.4863
G01 X20.6794 Y25.4908
G01 X20.6881 Y25.4936
G01 X20.7033 Y25.4992
G01 X20.7176 Y25.5058
G01 X20.7259 Y25.5101
G01 X20.7400 Y25.5186
G01 X20.7549 Y25.5293
G01 X20.7621 Y25.5350
G01 X20.7761 Y25.5479
G01 X20.7869 Y25.5596
G01 X20.7929 Y25.5667
G01 X20.8041 Y25.5820
G01 X20.8124 Y25.5956
G01 X20.8168 Y25.6037
G01 X20.8237 Y25.6181
G01 X20.8313 Y25.6386
G01 X20.8363 Y25.6571
G01 X20.8381 Y25.6654
G01 X20.8402 Y25.6789
G01 X20.8414 Y25.6911
G01 X20.8420 Y25.7070
G01 X20.8420 Y25.9070
G01 X20.8412 Y25.9260
G01 X20.8402 Y25.9351
G01 X20.8377 Y25.9509
G01 X20.8323 Y25.9723
G01 X20.8248 Y25.9933
G01 X20.8168 Y26.0103
G01 X20.8074 Y26.0268
G01 X20.8005 Y26.0370
G01 X20.7909 Y26.0497
G01 X20.7761 Y26.0661
G01 X20.7597 Y26.0810
G01 X20.7445 Y26.0923
G01 X20.7284 Y26.1024
G01 X20.7176 Y26.1082
G01 X20.7031 Y26.1149
G01 X20.6826 Y26.1222
G01 X20.6609 Y26.1277
G01 X20.6421 Y26.1306
G01 X20.6329 Y26.1314
G01 X20.6170 Y26.1320
G01 X19.3420 Y26.1320
G01 X19.3230 Y26.1312
G01 X19.3139 Y26.1302
G01 X19.2981 Y26.1277
G01 X19.2796 Y26.1232
G01 X19.2709 Y26.1204
G01 X19.2557 Y26.1148
G01 X19.2414 Y26.1082
G01 X19.2331 Y26.1039
G01 X19.2190 Y26.0954
G01 X19.2041 Y26.0847
G01 X19.1969 Y26.0790
G01 X19.1829 Y26.0661
G01 X19.1721 Y26.0544
G01 X19.1661 Y26.0473
G01 X19.1557 Y26.0331
G01 X19.1466 Y26.0184
G01 X19.1419 Y26.0098
G01 X19.1353 Y25.9959
G01 X19.1277 Y25.9754
G01 X19.1227 Y25.9569
G01 X19.1208 Y25.9479
G01 X19.1188 Y25.9351
G01 X19.1176 Y25.9229
G01 X19.1170 Y25.9070
G01 X19.1170 Y25.7070
G01 X19.1178 Y25.6880
G00 Z1.2500
G00 X19.1227 Y26.6069
G01 F60.00
G01 Z-0.0030
G01 F120.00
G01 X19.1209 Y26.5986
G01 X19.1184 Y26.5821
G01 X19.1170 Y26.5601
G01 X19.1170 Y26.3539
G01 X19.1181 Y26.3349
G01 X19.1214 Y26.3126
G01 X19.1267 Y26.2917
G01 X19.1319 Y26.2766
G01 X19.1355 Y26.2678
G01 X19.1436 Y26.2509
G01 X19.1516 Y26.2372
G01 X19.1567 Y26.2295
G01 X19.1681 Y26.2143
G01 X19.1787 Y26.2023
G01 X19.1851 Y26.1958
G01 X19.1969 Y26.1850
G01 X19.2041 Y26.1793
G01 X19.2170 Y26.1699
G01 X19.2331 Y26.1601
G01 X19.2414 Y26.1558
G01 X19.2559 Y26.1491
G01 X19.2709 Y26.1436
G01 X19.2796 Y26.1408
G01 X19.2954 Y26.1369
G01 X19.3041 Y26.1353
G01 X19.3199 Y26.1331
G01 X19.3420 Y26.1320
G01 X20.6231 Y26.1322
G01 X20.6391 Y26.1331
G01 X20.6549 Y26.1353
G01 X20.6639 Y26.1370
G01 X20.6794 Y26.1408
G01 X20.6881 Y26.1436
G01 X20.7026 Y26.1489
G01 X20.7233 Y26.1587
G01 X20.7368 Y26.1666
G01 X20.7451 Y26.1720
G01 X20.7597 Y26.1831
G01 X20.7717 Y26.1937
G01 X20.7782 Y26.2001
G01 X20.7890 Y26.2119
G01 X20.7947 Y26.2191
G01 X20.8040 Y26.2320
G01 X21.3523 Y26.2320
G01 X21.3667 Y26.2085
G01 X21.3889 Y26.1786
G01 X21.3948 Y26.1715
G01 X21.4158 Y26.1484
G01 X21.4222 Y26.1419
G01 X21.4522 Y26.1148
G01 X21.4821 Y26.0925
G01 X21.4923 Y26.0857
G01 X21.5216 Y26.0681
G01 X21.5298 Y26.0639
G01 X21.5636 Y26.0480
G01 X21.5987 Y26.0353
G01 X21.6104 Y26.0318
G01 X21.6466 Y26.0228
G01 X21.6835 Y26.0172
G01 X21.6957 Y26.0160
G01 X21.7299 Y26.0144
G01 X28.6995 Y26.0143
G01 X28.7368 Y26.0160
G01 X28.7490 Y26.0172
G01 X28.7859 Y26.0228
G01 X28.8270 Y26.0331
G01 X28.8689 Y26.0480
G01 X28.9027 Y26.0639
G01 X28.9129 Y26.0693
G01 X28.9402 Y26.0857
G01 X28.9504 Y26.0925
G01 X28.9755 Y26.1110
G01 X28.9827 Y26.1168
G01 X29.0081 Y26.1398
G01 X29.0167 Y26.1484
G01 X29.0416 Y26.1761
G01 X29.0675 Y26.2109
G01 X29.0899 Y26.2483
G01 X29.1085 Y26.2876
G01 X29.1234 Y26.3295
G01 X29.1337 Y26.3706
G01 X29.1400 Y26.4136
G01 X29.1421 Y26.4539
G01 X29.1420 Y26.4631
G01 X29.1400 Y26.5004
G01 X29.1337 Y26.5434
G01 X29.1234 Y26.5845
G01 X29.1085 Y26.6264
G01 X29.0896 Y26.6661
G01 X29.0676 Y26.7029
G01 X29.0417 Y26.7378
G01 X29.0125 Y26.7700
G01 X28.9803 Y26.7992
G01 X28.9454 Y26.8251
G01 X28.9082 Y26.8474
G01 X28.8689 Y26.8660
G01 X28.8280 Y26.8806
G01 X28.7853 Y26.8913
G01 X28.7429 Y26.8975
G01 X28.7026 Y26.8996
G01 X21.7299 Y26.8996
G01 X21.6957 Y26.8980
G01 X21.6835 Y26.8968
G01 X21.6466 Y26.8912
G01 X21.6104 Y26.8822
G01 X21.5987 Y26.8787
G01 X21.5636 Y26.8660
G01 X21.5298 Y26.8501
G01 X21.5221 Y26.8462
G01 X21.4923 Y26.8283
G01 X21.4821 Y26.8215
G01 X21.4522 Y26.7992
G01 X21.4222 Y26.7721
G01 X21.4158 Y26.7656
G01 X21.3948 Y26.7425
G01 X21.3890 Y26.7356
G01 X21.3652 Y26.7033
G01 X21.3523 Y26.6820
G01 X20.8040 Y26.6821
G01 X20.7947 Y26.6949
G01 X20.7890 Y26.7021
G01 X20.7782 Y26.7139
G01 X20.7717 Y26.7203
G01 X20.7597 Y26.7310
G01 X20.7470 Y26.7405
G01 X20.7394 Y26.7458
G01 X20.7259 Y26.7539
G01 X20.7176 Y26.7582
G01 X20.7031 Y26.7649
G01 X20.6826 Y26.7722
G01 X20.6669 Y26.7763
G01 X20.6579 Y26.7782
G01 X20.6421 Y26.7806
G01 X20.6329 Y26.7814
G01 X20.6170 Y26.7820
G01 X19.3389 Y26.7820
G01 X19.3199 Y26.7809
G01 X19.2981 Y26.7777
G01 X19.2767 Y26.7723
G01 X19.2616 Y26.7671
G01 X19.2510 Y26.7627
G01 X19.2331 Y26.7539
G01 X19.2159 Y26.7433
G01 X19.1993 Y26.7309
G01 X19.1829 Y26.7161
G01 X19.1721 Y26.7044
G01 X19.1643 Y26.6949
G01 X19.1532 Y26.6794
G01 X19.1437 Y26.6632
G01 X19.1341 Y26.6431
G01 X19.1268 Y26.6226
G01 X19.1227 Y26.6069
G00 Z1.2500
G00 X19.1227 Y27.2569
G01 F60.00
G01 Z-0.0030
G01 F120.00
G01 X19.1209 Y27.2486
G01 X19.1184 Y27.2321
G01 X19.1170 Y27.2101
G01 X19.1170 Y27.0039
G01 X19.1181 Y26.9849
G01 X19.1214 Y26.9626
G01 X19.1267 Y26.9417
G01 X19.1330 Y26.9236
G01 X19.1366 Y26.9153
G01 X19.1436 Y26.9009
G01 X19.1532 Y26.8846
G01 X19.1585 Y26.8770
G01 X19.1681 Y26.8643
G01 X19.1808 Y26.8501
G01 X19.1873 Y26.8437
G01 X19.1993 Y26.8330
G01 X19.2120 Y26.8235
G01 X19.2196 Y26.8182
G01 X19.2357 Y26.8087
G01 X19.2503 Y26.8016
G01 X19.2587 Y26.7980
G01 X19.2767 Y26.7917
G01 X19.2921 Y26.7877
G01 X19.3020 Y26.7856
G01 X19.3199 Y26.7831
G01 X19.3420 Y26.7820
G01 X20.6170 Y26.7820
G01 X20.6329 Y26.7826
G01 X20.6421 Y26.7834
G01 X20.6609 Y26.7863
G01 X20.6794 Y26.7908
G01 X20.6974 Y26.7969
G01 X20.7087 Y26.8016
G01 X20.7233 Y26.8087
G01 X20.7420 Y26.8199
G01 X20.7597 Y26.8331
G01 X20.7739 Y26.8458
G01 X20.7869 Y26.8596
G01 X20.7947 Y26.8691
G01 X20.8054 Y26.8840
G01 X20.8153 Y26.9008
G01 X20.8237 Y26.9181
G01 X20.8304 Y26.9359
G01 X20.8338 Y26.9469
G01 X20.8382 Y26.9661
G01 X20.8409 Y26.9849
G01 X20.8420 Y27.0039
G01 X20.8418 Y27.2131
G01 X20.8409 Y27.2291
G01 X20.8377 Y27.2509
G01 X20.8323 Y27.2723
G01 X20.8260 Y27.2904
G01 X20.8224 Y27.2987
G01 X20.8154 Y27.3131
G01 X20.8058 Y27.3294
G01 X20.8005 Y27.3370
G01 X20.7909 Y27.3497
G01 X20.7782 Y27.3639
G01 X20.7717 Y27.3703
G01 X20.7597 Y27.3810
G01 X20.7470 Y27.3905
G01 X20.7394 Y27.3958
G01 X20.7233 Y27.4053
G01 X20.7087 Y27.4124
G01 X20.7003 Y27.4160
G01 X20.6826 Y27.4222
G01 X20.6669 Y27.4263
G01 X20.6579 Y27.4282
G01 X20.6391 Y27.4309
G01 X20.6170 Y27.4320
G01 X19.3420 Y27.4320
G01 X19.3261 Y27.4314
G01 X19.3169 Y27.4306
G01 X19.2981 Y27.4277
G01 X19.2796 Y27.4232
G01 X19.2616 Y27.4171
G01 X19.2528 Y27.4135
G01 X19.2357 Y27.4053
G01 X19.2196 Y27.3958
G01 X19.2041 Y27.3847
G01 X19.1946 Y27.3769
G01 X19.1829 Y27.3661
G01 X19.1680 Y27.3497
G01 X19.1549 Y27.3320
G01 X19.1466 Y27.3184
G01 X19.1408 Y27.3076
G01 X19.1330 Y27.2903
G01 X19.1268 Y27.2726
G01 X19.1227 Y27.2569
G00 Z1.2500
G00 X19.1176 Y27.6411
G01 F60.00
G01 Z-0.0030
G01 F120.00
G01 X19.1188 Y27.6289
G01 X19.1209 Y27.6154
G01 X19.1227 Y27.6071
G01 X19.1276 Y27.5888
G01 X19.1330 Y27.5736
G01 X19.1366 Y27.5653
G01 X19.1450 Y27.5482
G01 X19.1567 Y27.5295
G01 X19.1700 Y27.5119
G01 X19.1851 Y27.4958
G01 X19.1993 Y27.4830
G01 X19.2170 Y27.4699
G01 X19.2357 Y27.4587
G01 X19.2559 Y27.4491
G01 X19.2767 Y27.4417
G01 X19.2987 Y27.4362
G01 X19.3199 Y27.4331
G01 X19.3389 Y27.4320
G01 X20.6231 Y27.4322
G01 X20.6391 Y27.4331
G01 X20.6549 Y27.4353
G01 X20.6639 Y27.4370
G01 X20.6794 Y27.4408
G01 X20.6881 Y27.4436
G01 X20.7033 Y27.4492
G01 X20.7233 Y27.4587
G01 X20.7368 Y27.4666
G01 X20.7451 Y27.4720
G01 X20.7597 Y27.4831
G01 X20.7717 Y27.4937
G01 X20.7782 Y27.5001
G01 X20.7890 Y27.5119
G01 X20.7947 Y27.5191
G01 X20.8040 Y27.5320
G01 X21.3843 Y27.5320
G01 X21.3979 Y27.5141
G01 X21.4188 Y27.4911
G01 X21.4254 Y27.4847
G01 X21.4461 Y27.4660
G01 X21.4531 Y27.4603
G01 X21.4784 Y27.4418
G01 X21.5049 Y27.4257
G01 X21.5130 Y27.4212
G01 X21.5383 Y27.4092
G01 X21.5496 Y27.4045
G01 X21.5786 Y27.3943
G01 X21.6090 Y27.3865
G01 X21.6189 Y27.3844
G01 X21.6488 Y27.3800
G01 X21.6580 Y27.3792
G01 X21.6859 Y27.3779
G01 X28.6995 Y27.3779
G01 X28.7367 Y27.3797
G01 X28.7735 Y27.3852
G01 X28.8096 Y27.3942
G01 X28.8433 Y27.4062
G01 X28.8784 Y27.4228
G01 X28.9101 Y27.4418
G01 X28.9400 Y27.4639
G01 X28.9676 Y27.4889
G01 X28.9925 Y27.5164
G01 X29.0147 Y27.5464
G01 X29.0338 Y27.5781
G01 X29.0503 Y27.6132
G01 X29.0622 Y27.6466
G01 X29.0712 Y27.6826
G01 X29.0768 Y27.7198
G01 X29.0786 Y27.7570
G01 X29.0768 Y27.7942
G01 X29.0713 Y27.8310
G01 X29.0623 Y27.8671
G01 X29.0498 Y27.9021
G01 X29.0339 Y27.9357
G01 X29.0160 Y27.9656
G01 X29.0112 Y27.9726
G01 X28.9926 Y27.9975
G01 X28.9718 Y28.0206
G01 X28.9654 Y28.0272
G01 X28.9424 Y28.0481
G01 X28.9352 Y28.0538
G01 X28.9127 Y28.0705
G01 X28.9049 Y28.0755
G01 X28.8784 Y28.0912
G01 X28.8502 Y28.1048
G01 X28.8411 Y28.1087
G01 X28.8126 Y28.1188
G01 X28.8043 Y28.1213
G01 X28.7795 Y28.1275
G01 X28.7674 Y28.1299
G01 X28.7397 Y28.1340
G01 X28.7305 Y28.1348
G01 X28.6995 Y28.1361
G01 X21.6890 Y28.1361
G01 X21.6518 Y28.1343
G01 X21.6211 Y28.1299
G01 X21.6090 Y28.1275
G01 X21.5789 Y28.1198
G01 X21.5496 Y28.1095
G01 X21.5383 Y28.1048
G01 X21.5127 Y28.0926
G01 X21.5049 Y28.0883
G01 X21.4784 Y28.0722
G01 X21.4533 Y28.0538
G01 X21.4461 Y28.0481
G01 X21.4254 Y28.0293
G01 X21.4188 Y28.0229
G01 X21.3980 Y27.9999
G01 X21.3843 Y27.9820
G01 X20.8040 Y27.9821
G01 X20.7947 Y27.9949
G01 X20.7890 Y28.0021
G01 X20.7782 Y28.0139
G01 X20.7717 Y28.0203
G01 X20.7597 Y28.0310
G01 X20.7470 Y28.0405
G01 X20.7394 Y28.0458
G01 X20.7233 Y28.0553
G01 X20.7087 Y28.0624
G01 X20.7003 Y28.0660
G01 X20.6854 Y28.0713
G01 X20.6771 Y28.0738
G01 X20.6639 Y28.0770
G01 X20.6549 Y28.0787
G01 X20.6391 Y28.0809
G01 X20.6231 Y28.0818
G01 X19.3420 Y28.0820
G01 X19.3199 Y28.0809
G01 X19.2981 Y28.0777
G01 X19.2826 Y28.0739
G01 X19.2738 Y28.0714
G01 X19.2557 Y28.0648
G01 X19.2414 Y28.0582
G01 X19.2331 Y28.0539
G01 X19.2190 Y28.0454
G01 X19.1993 Y28.0309
G01 X19.1873 Y28.0203
G01 X19.1808 Y28.0139
G01 X19.1680 Y27.9997
G01 X19.1585 Y27.9870
G01 X19.1532 Y27.9794
G01 X19.1449 Y27.9656
G01 X19.1408 Y27.9576
G01 X19.1341 Y27.9431
G01 X19.1268 Y27.9226
G01 X19.1220 Y27.9041
G01 X19.1188 Y27.8851
G01 X19.1176 Y27.8729
G01 X19.1170 Y27.8570
G01 X19.1170 Y27.6570
G01 X19.1176 Y27.6411
G00 Z1.2500
G00 X19.1251 Y28.5664
G01 F60.00
G01 Z-0.0030
G01 F120.00
G01 X19.1214 Y28.5514
G01 X19.1188 Y28.5351
G01 X19.1178 Y28.5260
G01 X19.1170 Y28.5101
G01 X19.1170 Y28.3039
G01 X19.1181 Y28.2849
G01 X19.1214 Y28.2626
G01 X19.1267 Y28.2417
G01 X19.1319 Y28.2266
G01 X19.1355 Y28.2178
G01 X19.1436 Y28.2009
G01 X19.1516 Y28.1872
G01 X19.1567 Y28.1795
G01 X19.1681 Y28.1643
G01 X19.1787 Y28.1523
G01 X19.1851 Y28.1458
G01 X19.1993 Y28.1330
G01 X19.2120 Y28.1235
G01 X19.2196 Y28.1182
G01 X19.2357 Y28.1087
G01 X19.2503 Y28.1016
G01 X19.2587 Y28.0980
G01 X19.2767 Y28.0917
G01 X19.2921 Y28.0877
G01 X19.3020 Y28.0856
G01 X19.3199 Y28.0831
G01 X19.3420 Y28.0820
G01 X20.6170 Y28.0820
G01 X20.6329 Y28.0826
G01 X20.6421 Y28.0834
G01 X20.6609 Y28.0863
G01 X20.6794 Y28.0908
G01 X20.6974 Y28.0969
G01 X20.7087 Y28.1016
G01 X20.7259 Y28.1101
G01 X20.7431 Y28.1207
G01 X20.7597 Y28.1331
G01 X20.7739 Y28.1458
G01 X20.7869 Y28.1596
G01 X20.7947 Y28.1691
G01 X20.8058 Y28.1846
G01 X20.8156 Y28.2013
G01 X20.8249 Y28.2209
G01 X20.8304 Y28.2359
G01 X20.8338 Y28.2469
G01 X20.8382 Y28.2661
G01 X20.8409 Y28.2849
G01 X20.8420 Y28.3039
G01 X20.8418 Y28.5131
G01 X20.8409 Y28.5291
G01 X20.8377 Y28.5509
G01 X20.8323 Y28.5723
G01 X20.8260 Y28.5904
G01 X20.8224 Y28.5987
G01 X20.8154 Y28.6131
G01 X20.8058 Y28.6294
G01 X20.8005 Y28.6370
G01 X20.7909 Y28.6497
G01 X20.7782 Y28.6639
G01 X20.7717 Y28.6703
G01 X20.7597 Y28.6810
G01 X20.7470 Y28.6905
G01 X20.7394 Y28.6958
G01 X20.7233 Y28.7053
G01 X20.7087 Y28.7124
G01 X20.7003 Y28.7160
G01 X20.6826 Y28.7222
G01 X20.6669 Y28.7263
G01 X20.6579 Y28.7282
G01 X20.6391 Y28.7309
G01 X20.6170 Y28.7320
G01 X19.3420 Y28.7320
G01 X19.3199 Y28.7309
G01 X19.2981 Y28.7277
G01 X19.2826 Y28.7239
G01 X19.2738 Y28.7214
G01 X19.2557 Y28.7148
G01 X19.2383 Y28.7067
G01 X19.2222 Y28.6974
G01 X19.2120 Y28.6905
G01 X19.1969 Y28.6790
G01 X19.1829 Y28.6661
G01 X19.1700 Y28.6521
G01 X19.1585 Y28.6370
G01 X19.1532 Y28.6294
G01 X19.1436 Y28.6131
G01 X19.1353 Y28.5959
G01 X19.1286 Y28.5781
G01 X19.1251 Y28.5664
G00 Z1.2500
G00 X19.1178 Y28.9380
G01 F60.00
G01 Z-0.0030
G01 F120.00
G01 X19.1209 Y28.9154
G01 X19.1251 Y28.8976
G01 X19.1276 Y28.8888
G01 X19.1319 Y28.8766
G01 X19.1366 Y28.8653
G01 X19.1450 Y28.8482
G01 X19.1567 Y28.8295
G01 X19.1700 Y28.8119
G01 X19.1851 Y28.7958
G01 X19.1993 Y28.7830
G01 X19.2170 Y28.7699
G01 X19.2357 Y28.7587
G01 X19.2559 Y28.7491
G01 X19.2767 Y28.7417
G01 X19.2987 Y28.7362
G01 X19.3199 Y28.7331
G01 X19.3389 Y28.7320
G01 X20.6170 Y28.7320
G01 X20.6360 Y28.7328
G01 X20.6451 Y28.7338
G01 X20.6609 Y28.7363
G01 X20.6823 Y28.7417
G01 X20.6974 Y28.7469
G01 X20.7062 Y28.7505
G01 X20.7207 Y28.7573
G01 X20.7284 Y28.7616
G01 X20.7431 Y28.7707
G01 X20.7549 Y28.7793
G01 X20.7621 Y28.7850
G01 X20.7739 Y28.7958
G01 X20.7803 Y28.8023
G01 X20.7910 Y28.8143
G01 X20.8040 Y28.8320
G01 X21.5826 Y28.8320
G01 X21.5967 Y28.8253
G01 X21.6053 Y28.8219
G01 X21.6225 Y28.8159
G01 X21.6408 Y28.8111
G01 X21.6498 Y28.8092
G01 X21.6682 Y28.8065
G01 X21.6774 Y28.8057
G01 X21.6960 Y28.8049
G01 X28.6995 Y28.8049
G01 X28.7242 Y28.8062
G01 X28.7489 Y28.8098
G01 X28.7727 Y28.8158
G01 X28.7956 Y28.8240
G01 X28.8181 Y28.8346
G01 X28.8395 Y28.8474
G01 X28.8594 Y28.8622
G01 X28.8777 Y28.8788
G01 X28.8944 Y28.8971
G01 X28.9088 Y28.9166
G01 X28.9218 Y28.9382
G01 X28.9324 Y28.9605
G01 X28.9406 Y28.9835
G01 X28.9467 Y29.0078
G01 X28.9503 Y29.0323
G01 X28.9516 Y29.0570
G01 X28.9503 Y29.0817
G01 X28.9467 Y29.1064
G01 X28.9407 Y29.1302
G01 X28.9326 Y29.1530
G01 X28.9217 Y29.1760
G01 X28.9091 Y29.1970
G01 X28.8943 Y29.2169
G01 X28.8777 Y29.2352
G01 X28.8594 Y29.2519
G01 X28.8395 Y29.2666
G01 X28.8183 Y29.2793
G01 X28.7960 Y29.2899
G01 X28.7730 Y29.2981
G01 X28.7487 Y29.3042
G01 X28.7242 Y29.3078
G01 X28.7026 Y29.3090
G01 X21.6960 Y29.3091
G01 X21.6774 Y29.3083
G01 X21.6682 Y29.3075
G01 X21.6499 Y29.3048
G01 X21.6412 Y29.3030
G01 X21.6258 Y29.2991
G01 X21.6170 Y29.2963
G01 X21.5993 Y29.2898
G01 X21.5826 Y29.2820
G01 X20.8040 Y29.2821
G01 X20.7909 Y29.2997
G01 X20.7803 Y29.3117
G01 X20.7739 Y29.3182
G01 X20.7621 Y29.3290
G01 X20.7549 Y29.3347
G01 X20.7420 Y29.3441
G01 X20.7284 Y29.3524
G01 X20.7207 Y29.3567
G01 X20.7059 Y29.3637
G01 X20.6974 Y29.3671
G01 X20.6826 Y29.3722
G01 X20.6609 Y29.3777
G01 X20.6451 Y29.3802
G01 X20.6360 Y29.3812
G01 X20.6170 Y29.3820
G01 X19.3420 Y29.3820
G01 X19.3230 Y29.3812
G01 X19.3139 Y29.3802
G01 X19.2981 Y29.3777
G01 X19.2796 Y29.3732
G01 X19.2616 Y29.3671
G01 X19.2528 Y29.3635
G01 X19.2357 Y29.3553
G01 X19.2222 Y29.3474
G01 X19.2139 Y29.3420
G01 X19.1993 Y29.3309
G01 X19.1851 Y29.3182
G01 X19.1787 Y29.3117
G01 X19.1680 Y29.2997
G01 X19.1570 Y29.2851
G01 X19.1516 Y29.2768
G01 X19.1419 Y29.2598
G01 X19.1330 Y29.2403
G01 X19.1260 Y29.2199
G01 X19.1208 Y29.1979
G01 X19.1178 Y29.1760
G01 X19.1170 Y29.1570
G01 X19.1170 Y28.9570
G01 X19.1178 Y28.9380
G00 Z1.2500
G00 X19.1251 Y29.8664
G01 F60.00
G01 Z-0.0030
G01 F120.00
G01 X19.1214 Y29.8514
G01 X19.1188 Y29.8351
G01 X19.1178 Y29.8260
G01 X19.1170 Y29.8101
G01 X19.1170 Y29.6039
G01 X19.1181 Y29.5849
G01 X19.1214 Y29.5626
G01 X19.1267 Y29.5417
G01 X19.1319 Y29.5266
G01 X19.1355 Y29.5178
G01 X19.1436 Y29.5009
G01 X19.1516 Y29.4872
G01 X19.1567 Y29.4795
G01 X19.1681 Y29.4643
G01 X19.1787 Y29.4523
G01 X19.1851 Y29.4458
G01 X19.1993 Y29.4330
G01 X19.2120 Y29.4235
G01 X19.2196 Y29.4182
G01 X19.2357 Y29.4087
G01 X19.2503 Y29.4016
G01 X19.2587 Y29.3980
G01 X19.2767 Y29.3917
G01 X19.2921 Y29.3877
G01 X19.3020 Y29.3856
G01 X19.3199 Y29.3831
G01 X19.3420 Y29.3820
G01 X20.6170 Y29.3820
G01 X20.6329 Y29.3826
G01 X20.6421 Y29.3834
G01 X20.6609 Y29.3863
G01 X20.6794 Y29.3908
G01 X20.6974 Y29.3969
G01 X20.7077 Y29.4011
G01 X20.7233 Y29.4087
G01 X20.7431 Y29.4207
G01 X20.7597 Y29.4331
G01 X20.7717 Y29.4437
G01 X20.7803 Y29.4523
G01 X20.7929 Y29.4667
G01 X20.8041 Y29.4820
G01 X20.8153 Y29.5008
G01 X20.8237 Y29.5181
G01 X20.8304 Y29.5359
G01 X20.8338 Y29.5469
G01 X20.8381 Y29.5654
G01 X20.8409 Y29.5849
G01 X20.8420 Y29.6039
G01 X20.8418 Y29.8131
G01 X20.8409 Y29.8291
G01 X20.8377 Y29.8509
G01 X20.8323 Y29.8723
G01 X20.8260 Y29.8904
G01 X20.8224 Y29.8987
G01 X20.8154 Y29.9131
G01 X20.8058 Y29.9294
G01 X20.8005 Y29.9370
G01 X20.7909 Y29.9497
G01 X20.7782 Y29.9639
G01 X20.7717 Y29.9703
G01 X20.7597 Y29.9810
G01 X20.7470 Y29.9905
G01 X20.7394 Y29.9958
G01 X20.7233 Y30.0053
G01 X20.7087 Y30.0124
G01 X20.7003 Y30.0160
G01 X20.6826 Y30.0222
G01 X20.6669 Y30.0263
G01 X20.6579 Y30.0282
G01 X20.6391 Y30.0309
G01 X20.6170 Y30.0320
G01 X19.3420 Y30.0320
G01 X19.3199 Y30.0309
G01 X19.3011 Y30.0282
G01 X19.2921 Y30.0263
G01 X19.2767 Y30.0223
G01 X19.2563 Y30.0150
G01 X19.2383 Y30.0067
G01 X19.2222 Y29.9974
G01 X19.2120 Y29.9905
G01 X19.1969 Y29.9790
G01 X19.1829 Y29.9661
G01 X19.1700 Y29.9521
G01 X19.1585 Y29.9370
G01 X19.1532 Y29.9294
G01 X19.1437 Y29.9132
G01 X19.1353 Y29.8959
G01 X19.1286 Y29.8781
G01 X19.1251 Y29.8664
G00 Z1.2500
G00 X19.1251 Y30.5164
G01 F60.00
G01 Z-0.0030
G01 F120.00
G01 X19.1214 Y30.5014
G01 X19.1188 Y30.4851
G01 X19.1178 Y30.4760
G01 X19.1170 Y30.4601
G01 X19.1170 Y30.2539
G01 X19.1181 Y30.2349
G01 X19.1214 Y30.2126
G01 X19.1267 Y30.1917
G01 X19.1319 Y30.1766
G01 X19.1355 Y30.1678
G01 X19.1436 Y30.1509
G01 X19.1516 Y30.1372
G01 X19.1567 Y30.1295
G01 X19.1681 Y30.1143
G01 X19.1829 Y30.0979
G01 X19.1946 Y30.0871
G01 X19.2017 Y30.0811
G01 X19.2170 Y30.0699
G01 X19.2357 Y30.0587
G01 X19.2503 Y30.0516
G01 X19.2587 Y30.0480
G01 X19.2767 Y30.0417
G01 X19.2954 Y30.0369
G01 X19.3041 Y30.0353
G01 X19.3199 Y30.0331
G01 X19.3389 Y30.0320
G01 X20.6170 Y30.0320
G01 X20.6329 Y30.0326
G01 X20.6421 Y30.0334
G01 X20.6579 Y30.0358
G01 X20.6669 Y30.0377
G01 X20.6823 Y30.0417
G01 X20.7033 Y30.0492
G01 X20.7176 Y30.0558
G01 X20.7259 Y30.0601
G01 X20.7394 Y30.0682
G01 X20.7470 Y30.0735
G01 X20.7597 Y30.0831
G01 X20.7717 Y30.0937
G01 X20.7782 Y30.1001
G01 X20.7890 Y30.1119
G01 X20.7947 Y30.1191
G01 X20.8040 Y30.1320
G01 X21.6281 Y30.1321
G01 X21.6441 Y30.1330
G01 X21.6629 Y30.1357
G01 X21.6719 Y30.1376
G01 X21.6873 Y30.1416
G01 X21.7054 Y30.1480
G01 X21.7137 Y30.1516
G01 X21.7279 Y30.1584
G01 X21.7449 Y30.1685
G01 X28.7026 Y30.1685
G01 X28.7180 Y30.1694
G01 X28.7363 Y30.1721
G01 X28.7542 Y30.1766
G01 X28.7713 Y30.1827
G01 X28.7886 Y30.1909
G01 X28.8042 Y30.2002
G01 X28.8191 Y30.2113
G01 X28.8328 Y30.2237
G01 X28.8452 Y30.2374
G01 X28.8563 Y30.2523
G01 X28.8657 Y30.2679
G01 X28.8737 Y30.2849
G01 X28.8798 Y30.3019
G01 X28.8843 Y30.3197
G01 X28.8871 Y30.3385
G01 X28.8880 Y30.3539
G01 X28.8874 Y30.3724
G01 X28.8850 Y30.3908
G01 X28.8808 Y30.4088
G01 X28.8748 Y30.4264
G01 X28.8672 Y30.4432
G01 X28.8579 Y30.4592
G01 X28.8472 Y30.4742
G01 X28.8350 Y30.4881
G01 X28.8215 Y30.5008
G01 X28.8070 Y30.5119
G01 X28.7912 Y30.5217
G01 X28.7745 Y30.5300
G01 X28.7573 Y30.5364
G01 X28.7390 Y30.5413
G01 X28.7210 Y30.5443
G01 X28.7056 Y30.5454
G01 X21.7449 Y30.5455
G01 X21.7281 Y30.5555
G01 X21.7137 Y30.5624
G01 X21.7053 Y30.5661
G01 X21.6877 Y30.5723
G01 X21.6719 Y30.5764
G01 X21.6620 Y30.5784
G01 X21.6441 Y30.5810
G01 X21.6281 Y30.5819
G01 X20.8040 Y30.5821
G01 X20.7947 Y30.5949
G01 X20.7890 Y30.6021
G01 X20.7782 Y30.6139
G01 X20.7717 Y30.6203
G01 X20.7597 Y30.6310
G01 X20.7470 Y30.6405
G01 X20.7394 Y30.6458
G01 X20.7233 Y30.6553
G01 X20.7087 Y30.6624
G01 X20.7003 Y30.6660
G01 X20.6854 Y30.6713
G01 X20.6771 Y30.6738
G01 X20.6609 Y30.6777
G01 X20.6451 Y30.6802
G01 X20.6360 Y30.6812
G01 X20.6201 Y30.6820
G01 X19.3420 Y30.6820
G01 X19.3199 Y30.6809
G01 X19.2981 Y30.6777
G01 X19.2826 Y30.6739
G01 X19.2738 Y30.6714
G01 X19.2557 Y30.6648
G01 X19.2383 Y30.6567
G01 X19.2222 Y30.6474
G01 X19.2120 Y30.6405
G01 X19.1969 Y30.6290
G01 X19.1829 Y30.6161
G01 X19.1700 Y30.6021
G01 X19.1585 Y30.5870
G01 X19.1532 Y30.5794
G01 X19.1436 Y30.5631
G01 X19.1353 Y30.5459
G01 X19.1286 Y30.5281
G01 X19.1251 Y30.5164
G00 Z1.2500
G00 X13.3501 Y30.5164
G01 F60.00
G01 Z-0.0030
G01 F120.00
G01 X13.3464 Y30.5014
G01 X13.3438 Y30.4851
G01 X13.3428 Y30.4760
G01 X13.3420 Y30.4601
G01 X13.3420 Y30.2539
G01 X13.3431 Y30.2349
G01 X13.3464 Y30.2126
G01 X13.3517 Y30.1917
G01 X13.3569 Y30.1766
G01 X13.3611 Y30.1663
G01 X13.3686 Y30.1509
G01 X13.3766 Y30.1372
G01 X13.3817 Y30.1295
G01 X13.3931 Y30.1143
G01 X13.4037 Y30.1023
G01 X13.4101 Y30.0958
G01 X13.4243 Y30.0830
G01 X13.4370 Y30.0735
G01 X13.4446 Y30.0682
G01 X13.4607 Y30.0587
G01 X13.4753 Y30.0516
G01 X13.4837 Y30.0480
G01 X13.5014 Y30.0418
G01 X13.5171 Y30.0377
G01 X13.5261 Y30.0358
G01 X13.5449 Y30.0331
G01 X13.5670 Y30.0320
G01 X14.8420 Y30.0320
G01 X14.8579 Y30.0326
G01 X14.8671 Y30.0334
G01 X14.8859 Y30.0363
G01 X14.9044 Y30.0408
G01 X14.9224 Y30.0469
G01 X14.9337 Y30.0516
G01 X14.9483 Y30.0587
G01 X14.9670 Y30.0699
G01 X14.9847 Y30.0831
G01 X14.9989 Y30.0958
G01 X15.0119 Y30.1096
G01 X15.0197 Y30.1191
G01 X15.0304 Y30.1340
G01 X15.0403 Y30.1508
G01 X15.0487 Y30.1681
G01 X15.0554 Y30.1859
G01 X15.0588 Y30.1969
G01 X15.0632 Y30.2161
G01 X15.0659 Y30.2349
G01 X15.0670 Y30.2539
G01 X15.0668 Y30.4631
G01 X15.0659 Y30.4791
G01 X15.0627 Y30.5009
G01 X15.0573 Y30.5223
G01 X15.0510 Y30.5404
G01 X15.0474 Y30.5487
G01 X15.0404 Y30.5631
G01 X15.0308 Y30.5794
G01 X15.0255 Y30.5870
G01 X15.0159 Y30.5997
G01 X15.0032 Y30.6139
G01 X14.9967 Y30.6203
G01 X14.9847 Y30.6310
G01 X14.9720 Y30.6405
G01 X14.9644 Y30.6458
G01 X14.9478 Y30.6556
G01 X14.9337 Y30.6624
G01 X14.9253 Y30.6660
G01 X14.9073 Y30.6723
G01 X14.8919 Y30.6763
G01 X14.8820 Y30.6784
G01 X14.8641 Y30.6809
G01 X14.8420 Y30.6820
G01 X13.5670 Y30.6820
G01 X13.5449 Y30.6809
G01 X13.5231 Y30.6777
G01 X13.5076 Y30.6739
G01 X13.4988 Y30.6714
G01 X13.4807 Y30.6648
G01 X13.4633 Y30.6567
G01 X13.4472 Y30.6474
G01 X13.4370 Y30.6405
G01 X13.4219 Y30.6290
G01 X13.4079 Y30.6161
G01 X13.3950 Y30.6021
G01 X13.3835 Y30.5870
G01 X13.3782 Y30.5794
G01 X13.3686 Y30.5631
G01 X13.3603 Y30.5459
G01 X13.3536 Y30.5281
G01 X13.3501 Y30.5164
G00 Z1.2500
G00 X13.3477 Y29.8569
G01 F60.00
G01 Z-0.0030
G01 F120.00
G01 X13.3459 Y29.8486
G01 X13.3434 Y29.8321
G01 X13.3420 Y29.8101
G01 X13.3420 Y29.6039
G01 X13.3431 Y29.5849
G01 X13.3464 Y29.5626
G01 X13.3517 Y29.5417
G01 X13.3579 Y29.5240
G01 X13.3611 Y29.5163
G01 X13.3686 Y29.5009
G01 X13.3782 Y29.4846
G01 X13.3835 Y29.4770
G01 X13.3931 Y29.4643
G01 X13.4058 Y29.4501
G01 X13.4123 Y29.4437
G01 X13.4243 Y29.4330
G01 X13.4370 Y29.4235
G01 X13.4446 Y29.4182
G01 X13.4607 Y29.4087
G01 X13.4753 Y29.4016
G01 X13.4837 Y29.3980
G01 X13.5014 Y29.3918
G01 X13.5171 Y29.3877
G01 X13.5261 Y29.3858
G01 X13.5449 Y29.3831
G01 X13.5670 Y29.3820
G01 X14.8420 Y29.3820
G01 X14.8579 Y29.3826
G01 X14.8671 Y29.3834
G01 X14.8859 Y29.3863
G01 X14.9044 Y29.3908
G01 X14.9224 Y29.3969
G01 X14.9330 Y29.4013
G01 X14.9483 Y29.4087
G01 X14.9670 Y29.4199
G01 X14.9847 Y29.4331
G01 X14.9967 Y29.4437
G01 X15.0053 Y29.4523
G01 X15.0179 Y29.4667
G01 X15.0291 Y29.4820
G01 X15.0403 Y29.5008
G01 X15.0487 Y29.5181
G01 X15.0554 Y29.5359
G01 X15.0588 Y29.5469
G01 X15.0631 Y29.5654
G01 X15.0659 Y29.5849
G01 X15.0670 Y29.6039
G01 X15.0668 Y29.8131
G01 X15.0659 Y29.8291
G01 X15.0627 Y29.8509
G01 X15.0573 Y29.8723
G01 X15.0510 Y29.8904
G01 X15.0474 Y29.8987
G01 X15.0404 Y29.9131
G01 X15.0308 Y29.9294
G01 X15.0255 Y29.9370
G01 X15.0159 Y29.9497
G01 X15.0032 Y29.9639
G01 X14.9967 Y29.9703
G01 X14.9847 Y29.9810
G01 X14.9720 Y29.9905
G01 X14.9644 Y29.9958
G01 X14.9478 Y30.0056
G01 X14.9337 Y30.0124
G01 X14.9253 Y30.0160
G01 X14.9073 Y30.0223
G01 X14.8919 Y30.0263
G01 X14.8820 Y30.0284
G01 X14.8641 Y30.0309
G01 X14.8420 Y30.0320
G01 X13.5670 Y30.0320
G01 X13.5511 Y30.0314
G01 X13.5419 Y30.0306
G01 X13.5231 Y30.0277
G01 X13.5076 Y30.0239
G01 X13.4959 Y30.0204
G01 X13.4789 Y30.0140
G01 X13.4607 Y30.0053
G01 X13.4440 Y29.9954
G01 X13.4291 Y29.9847
G01 X13.4196 Y29.9769
G01 X13.4079 Y29.9661
G01 X13.3930 Y29.9497
G01 X13.3799 Y29.9320
G01 X13.3716 Y29.9184
G01 X13.3660 Y29.9080
G01 X13.3580 Y29.8903
G01 X13.3518 Y29.8726
G01 X13.3477 Y29.8569
G00 Z1.2500
G00 X13.3428 Y28.9380
G01 F60.00
G01 Z-0.0030
G01 F120.00
G01 X13.3459 Y28.9154
G01 X13.3501 Y28.8976
G01 X13.3536 Y28.8859
G01 X13.3605 Y28.8678
G01 X13.3686 Y28.8509
G01 X13.3799 Y28.8320
G01 X13.3931 Y28.8143
G01 X13.4058 Y28.8001
G01 X13.4219 Y28.7850
G01 X13.4370 Y28.7735
G01 X13.4446 Y28.7682
G01 X13.4556 Y28.7616
G01 X13.4664 Y28.7558
G01 X13.4809 Y28.7491
G01 X13.5014 Y28.7418
G01 X13.5231 Y28.7363
G01 X13.5419 Y28.7334
G01 X13.5511 Y28.7326
G01 X13.5670 Y28.7320
G01 X14.8420 Y28.7320
G01 X14.8610 Y28.7328
G01 X14.8701 Y28.7338
G01 X14.8859 Y28.7363
G01 X14.9044 Y28.7408
G01 X14.9131 Y28.7436
G01 X14.9283 Y28.7492
G01 X14.9426 Y28.7558
G01 X14.9509 Y28.7601
G01 X14.9670 Y28.7699
G01 X14.9799 Y28.7793
G01 X14.9871 Y28.7850
G01 X15.0011 Y28.7979
G01 X15.0119 Y28.8096
G01 X15.0179 Y28.8167
G01 X15.0291 Y28.8320
G01 X15.0374 Y28.8456
G01 X15.0418 Y28.8537
G01 X15.0487 Y28.8681
G01 X15.0563 Y28.8886
G01 X15.0613 Y28.9071
G01 X15.0631 Y28.9154
G01 X15.0652 Y28.9289
G01 X15.0664 Y28.9411
G01 X15.0670 Y28.9570
G01 X15.0670 Y29.1570
G01 X15.0662 Y29.1760
G01 X15.0652 Y29.1851
G01 X15.0627 Y29.2009
G01 X15.0573 Y29.2223
G01 X15.0498 Y29.2433
G01 X15.0418 Y29.2603
G01 X15.0324 Y29.2768
G01 X15.0255 Y29.2870
G01 X15.0159 Y29.2997
G01 X15.0011 Y29.3161
G01 X14.9847 Y29.3310
G01 X14.9695 Y29.3423
G01 X14.9534 Y29.3524
G01 X14.9426 Y29.3582
G01 X14.9281 Y29.3649
G01 X14.9073 Y29.3723
G01 X14.8853 Y29.3778
G01 X14.8671 Y29.3806
G01 X14.8579 Y29.3814
G01 X14.8420 Y29.3820
G01 X13.5670 Y29.3820
G01 X13.5480 Y29.3812
G01 X13.5389 Y29.3802
G01 X13.5231 Y29.3777
G01 X13.5046 Y29.3732
G01 X13.4959 Y29.3704
G01 X13.4807 Y29.3648
G01 X13.4664 Y29.3582
G01 X13.4581 Y29.3539
G01 X13.4440 Y29.3454
G01 X13.4291 Y29.3347
G01 X13.4219 Y29.3290
G01 X13.4079 Y29.3161
G01 X13.3971 Y29.3044
G01 X13.3911 Y29.2973
G01 X13.3807 Y29.2831
G01 X13.3716 Y29.2684
G01 X13.3669 Y29.2598
G01 X13.3603 Y29.2459
G01 X13.3527 Y29.2254
G01 X13.3477 Y29.2069
G01 X13.3458 Y29.1979
G01 X13.3438 Y29.1851
G01 X13.3426 Y29.1729
G01 X13.3420 Y29.1570
G01 X13.3420 Y28.9570
G01 X13.3428 Y28.9380
G00 Z1.2500
G00 X13.3477 Y28.5569
G01 F60.00
G01 Z-0.0030
G01 F120.00
G01 X13.3459 Y28.5486
G01 X13.3434 Y28.5321
G01 X13.3420 Y28.5101
G01 X13.3420 Y28.3039
G01 X13.3431 Y28.2849
G01 X13.3464 Y28.2626
G01 X13.3517 Y28.2417
G01 X13.3579 Y28.2240
G01 X13.3611 Y28.2163
G01 X13.3686 Y28.2009
G01 X13.3782 Y28.1846
